; G-Code generated by Simplify3D(R) Version 4.1.2
; Dec 3, 2022 at 3:36:06 PM
; Settings Summary
;   processName,Process1
;   applyToModels,Pad,Pad(2),Pad(3),Pad(4),back
;   profileName,ABS
;   profileVersion,2019-11-09 17:57:01
;   baseProfile,Default
;   printMaterial,ABS
;   printQuality,Medium
;   printExtruders,
;   extruderName,Primary Extruder
;   extruderToolheadNumber,0
;   extruderDiameter,0.35
;   extruderAutoWidth,0
;   extruderWidth,0.48
;   extrusionMultiplier,1
;   extruderUseRetract,1
;   extruderRetractionDistance,3.6
;   extruderExtraRestartDistance,0
;   extruderRetractionZLift,0
;   extruderRetractionSpeed,1800
;   extruderUseCoasting,0
;   extruderCoastingDistance,0
;   extruderUseWipe,0
;   extruderWipeDistance,5
;   primaryExtruder,0
;   layerHeight,0.2
;   topSolidLayers,3
;   bottomSolidLayers,3
;   perimeterOutlines,3
;   printPerimetersInsideOut,1
;   startPointOption,2
;   startPointOriginX,0
;   startPointOriginY,0
;   sequentialIslands,0
;   spiralVaseMode,0
;   firstLayerHeightPercentage,125
;   firstLayerWidthPercentage,100
;   firstLayerUnderspeed,0.5
;   useRaft,0
;   raftExtruder,0
;   raftTopLayers,1
;   raftBaseLayers,1
;   raftOffset,5
;   raftSeparationDistance,0.2
;   raftTopInfill,60
;   aboveRaftSpeedMultiplier,0.3
;   useSkirt,1
;   skirtExtruder,0
;   skirtLayers,1
;   skirtOutlines,2
;   skirtOffset,2
;   usePrimePillar,0
;   primePillarExtruder,999
;   primePillarWidth,12
;   primePillarLocation,7
;   primePillarSpeedMultiplier,1
;   useOozeShield,0
;   oozeShieldExtruder,999
;   oozeShieldOffset,2
;   oozeShieldOutlines,1
;   oozeShieldSidewallShape,1
;   oozeShieldSidewallAngle,30
;   oozeShieldSpeedMultiplier,1
;   infillExtruder,0
;   internalInfillPattern,Rectilinear
;   externalInfillPattern,Rectilinear
;   infillPercentage,40
;   outlineOverlapPercentage,15
;   infillExtrusionWidthPercentage,100
;   minInfillLength,5
;   infillLayerInterval,1
;   internalInfillAngles,45,-45
;   overlapInternalInfillAngles,0
;   externalInfillAngles,45,-45
;   generateSupport,0
;   supportExtruder,0
;   supportInfillPercentage,8
;   supportExtraInflation,2
;   supportBaseLayers,0
;   denseSupportExtruder,0
;   denseSupportLayers,1
;   denseSupportInfillPercentage,60
;   supportLayerInterval,1
;   supportHorizontalPartOffset,0.8
;   supportUpperSeparationLayers,1
;   supportLowerSeparationLayers,1
;   supportType,0
;   supportGridSpacing,1
;   maxOverhangAngle,50
;   supportAngles,45,-45
;   temperatureName,Primary Extruder,Bed
;   temperatureNumber,0,1
;   temperatureSetpointCount,1,2
;   temperatureSetpointLayers,1,1,5
;   temperatureSetpointTemperatures,234,110,105
;   temperatureStabilizeAtStartup,1,1
;   temperatureHeatedBed,0,1
;   fanLayers,1,3
;   fanSpeeds,0,80
;   blipFanToFullPower,1
;   adjustSpeedForCooling,1
;   minSpeedLayerTime,10
;   minCoolingSpeedSlowdown,40
;   increaseFanForCooling,1
;   minFanLayerTime,15
;   maxCoolingFanSpeed,100
;   increaseFanForBridging,1
;   bridgingFanSpeed,100
;   use5D,1
;   relativeEdistances,0
;   allowEaxisZeroing,1
;   independentExtruderAxes,0
;   includeM10123,0
;   stickySupport,1
;   applyToolheadOffsets,0
;   gcodeXoffset,0
;   gcodeYoffset,0
;   gcodeZoffset,21.1
;   overrideMachineDefinition,0
;   machineTypeOverride,0
;   strokeXoverride,200
;   strokeYoverride,200
;   strokeZoverride,200
;   originOffsetXoverride,0
;   originOffsetYoverride,0
;   originOffsetZoverride,0
;   homeXdirOverride,-1
;   homeYdirOverride,-1
;   homeZdirOverride,-1
;   flipXoverride,1
;   flipYoverride,-1
;   flipZoverride,1
;   toolheadOffsets,0,0|0,0|0,0|0,0|0,0|0,0
;   overrideFirmwareConfiguration,0
;   firmwareTypeOverride,RepRap (Marlin/Repetier/Sprinter)
;   GPXconfigOverride,r2
;   baudRateOverride,115200
;   overridePrinterModels,0
;   printerModelsOverride
;   startingGcode,M355 ; Light,G28 ; home all axes
;   layerChangeGcode,
;   retractionGcode,
;   toolChangeGcode,
;   endingGcode,M104 S0 ; turn off extruder,M140 S0 ; turn off bed,G92 E0,G1 E-5 ; Retract,G28,M356,M106 S0,M84 ; disable motors
;   exportFileFormat,gcode
;   celebration,0
;   celebrationSong,Random Song
;   postProcessing,
;   defaultSpeed,5200
;   outlineUnderspeed,0.5
;   solidInfillUnderspeed,0.8
;   supportUnderspeed,0.8
;   rapidXYspeed,5800
;   rapidZspeed,1000
;   minBridgingArea,50
;   bridgingExtraInflation,0.2
;   bridgingExtrusionMultiplier,1.1
;   bridgingSpeedMultiplier,0.4
;   useFixedBridgingAngle,0
;   fixedBridgingAngle,0
;   applyBridgingToPerimeters,0
;   filamentDiameters,1.75|1.75|1.75|1.75|1.75|1.75
;   filamentPricesPerKg,250|250|250|250|250|250
;   filamentDensities,1.25|1.25|1.25|1.25|1.25|1.25
;   useMinPrintHeight,0
;   minPrintHeight,5.3
;   useMaxPrintHeight,0
;   maxPrintHeight,8
;   useDiaphragm,0
;   diaphragmLayerInterval,20
;   robustSlicing,1
;   mergeAllIntoSolid,0
;   onlyRetractWhenCrossingOutline,1
;   retractBetweenLayers,1
;   useRetractionMinTravel,1
;   retractionMinTravel,3
;   retractWhileWiping,0
;   onlyWipeOutlines,1
;   avoidCrossingOutline,1
;   maxMovementDetourFactor,3
;   toolChangeRetractionDistance,12
;   toolChangeExtraRestartDistance,-0.5
;   toolChangeRetractionSpeed,600
;   externalThinWallType,1
;   internalThinWallType,2
;   thinWallAllowedOverlapPercentage,25
;   singleExtrusionMinLength,1
;   singleExtrusionMinPrintingWidthPercentage,50
;   singleExtrusionMaxPrintingWidthPercentage,200
;   singleExtrusionEndpointExtension,0.2
;   horizontalSizeCompensation,0
G90
M82
M106 S0
M140 S110
M190 S110
M104 S234 T0
M109 S234 T0
M355 ; Light
G28 ; home all axes
; process Process1
; layer 1, Z = 21.350
T0
G92 E0.0000
G1 E-3.6000 F1800
; feature skirt
; tool H0.250 W0.480
G1 Z21.350 F1000
G1 X45.740 Y105.425 F5800
G1 E0.0000 F1800
G92 E0.0000
G1 X45.872 Y105.379 E0.0070 F2600
G1 X46.600 Y105.167 E0.0448
G1 X46.736 Y105.135 E0.0518
G1 X47.482 Y104.999 E0.0896
G1 X47.621 Y104.981 E0.0966
G1 X48.377 Y104.923 E0.1344
G1 X48.517 Y104.919 E0.1414
G1 X49.274 Y104.939 E0.1792
G1 X49.414 Y104.949 E0.1862
G1 X50.165 Y105.047 E0.2240
G1 X50.303 Y105.072 E0.2310
G1 X51.041 Y105.246 E0.2688
G1 X51.175 Y105.285 E0.2758
G1 X51.891 Y105.534 E0.3136
G1 X52.021 Y105.587 E0.3206
G1 X52.707 Y105.908 E0.3584
G1 X52.831 Y105.974 E0.3654
G1 X53.481 Y106.364 E0.4032
G1 X53.597 Y106.442 E0.4102
G1 X54.203 Y106.897 E0.4480
G1 X54.311 Y106.987 E0.4550
G1 X54.867 Y107.502 E0.4928
G1 X54.965 Y107.602 E0.4998
G1 X55.465 Y108.171 E0.5376
G1 X55.552 Y108.281 E0.5446
G1 X55.991 Y108.899 E0.5824
G1 X56.066 Y109.017 E0.5894
G1 X56.440 Y109.677 E0.6272
G1 X56.502 Y109.802 E0.6342
G1 X56.806 Y110.496 E0.6720
G1 X56.855 Y110.628 E0.6790
G1 X57.086 Y111.350 E0.7168
G1 X57.121 Y111.485 E0.7238
G1 X57.185 Y111.791 E0.7394
G1 X57.351 Y111.860 E0.7483
G1 X59.437 Y113.946 E0.8955
G1 X62.184 Y113.946 E1.0325
G1 X64.269 Y111.860 E1.1797
G1 X65.269 Y111.446 E1.2337
G1 X135.151 Y111.446 E4.7201
G1 X136.151 Y111.860 E4.7741
G1 X138.237 Y113.946 E4.9213
G1 X140.984 Y113.946 E5.0583
G1 X142.810 Y112.119 E5.1872
G1 X142.793 Y111.783 E5.2040
G1 X142.793 Y111.643 E5.2110
G1 X142.832 Y110.886 E5.2488
G1 X142.846 Y110.747 E5.2558
G1 X142.963 Y109.998 E5.2936
G1 X142.992 Y109.861 E5.3006
G1 X143.185 Y109.128 E5.3384
G1 X143.227 Y108.995 E5.3454
G1 X143.495 Y108.285 E5.3832
G1 X143.551 Y108.157 E5.3902
G1 X143.890 Y107.479 E5.4280
G1 X143.959 Y107.357 E5.4350
G1 X144.365 Y106.718 E5.4728
G1 X144.447 Y106.604 E5.4798
G1 X144.917 Y106.009 E5.5176
G1 X145.009 Y105.904 E5.5246
G1 X145.538 Y105.361 E5.5624
G1 X145.641 Y105.266 E5.5694
G1 X146.223 Y104.781 E5.6072
G1 X146.335 Y104.697 E5.6142
G1 X146.964 Y104.274 E5.6520
G1 X147.084 Y104.201 E5.6590
G1 X147.753 Y103.845 E5.6968
G1 X147.880 Y103.786 E5.7038
G1 X148.582 Y103.500 E5.7416
G1 X148.714 Y103.454 E5.7486
G1 X149.442 Y103.242 E5.7864
G1 X149.578 Y103.210 E5.7934
G1 X150.324 Y103.074 E5.8312
G1 X150.463 Y103.056 E5.8382
G1 X151.219 Y102.998 E5.8760
G1 X151.359 Y102.994 E5.8830
G1 X152.116 Y103.014 E5.9208
G1 X152.256 Y103.025 E5.9278
G1 X153.007 Y103.122 E5.9656
G1 X153.145 Y103.147 E5.9726
G1 X153.883 Y103.321 E6.0104
G1 X154.017 Y103.360 E6.0174
G1 X154.733 Y103.609 E6.0552
G1 X154.863 Y103.662 E6.0622
G1 X155.549 Y103.983 E6.1000
G1 X155.673 Y104.049 E6.1070
G1 X156.323 Y104.439 E6.1448
G1 X156.439 Y104.518 E6.1518
G1 X157.045 Y104.972 E6.1896
G1 X157.153 Y105.062 E6.1966
G1 X157.709 Y105.577 E6.2344
G1 X157.807 Y105.677 E6.2414
G1 X158.307 Y106.247 E6.2792
G1 X158.394 Y106.356 E6.2862
G1 X158.833 Y106.974 E6.3240
G1 X158.908 Y107.092 E6.3310
G1 X159.282 Y107.752 E6.3688
G1 X159.344 Y107.877 E6.3758
G1 X159.648 Y108.572 E6.4136
G1 X159.697 Y108.703 E6.4206
G1 X159.928 Y109.425 E6.4584
G1 X159.963 Y109.560 E6.4654
G1 X160.118 Y110.302 E6.5032
G1 X160.140 Y110.441 E6.5102
G1 X160.218 Y111.194 E6.5480
G1 X160.225 Y111.334 E6.5550
G1 X160.225 Y112.092 E6.5928
G1 X160.218 Y112.232 E6.5998
G1 X160.140 Y112.986 E6.6376
G1 X160.118 Y113.124 E6.6446
G1 X159.963 Y113.866 E6.6824
G1 X159.928 Y114.002 E6.6894
G1 X159.697 Y114.724 E6.7272
G1 X159.648 Y114.855 E6.7342
G1 X159.344 Y115.549 E6.7720
G1 X159.282 Y115.675 E6.7790
G1 X158.908 Y116.334 E6.8168
G1 X158.833 Y116.452 E6.8238
G1 X158.394 Y117.070 E6.8616
G1 X158.307 Y117.180 E6.8686
G1 X157.807 Y117.749 E6.9064
G1 X157.709 Y117.849 E6.9134
G1 X157.153 Y118.364 E6.9512
G1 X157.045 Y118.454 E6.9582
G1 X156.439 Y118.909 E6.9960
G1 X156.323 Y118.987 E7.0030
G1 X155.673 Y119.377 E7.0408
G1 X155.549 Y119.443 E7.0478
G1 X154.863 Y119.764 E7.0856
G1 X154.733 Y119.817 E7.0926
G1 X154.017 Y120.066 E7.1304
G1 X153.883 Y120.105 E7.1374
G1 X153.145 Y120.279 E7.1752
G1 X153.007 Y120.305 E7.1822
G1 X152.330 Y120.392 E7.2162
G1 X152.330 Y151.278 E8.7571
G1 X152.605 Y151.343 E8.7712
G1 X152.739 Y151.382 E8.7782
G1 X153.455 Y151.631 E8.8160
G1 X153.585 Y151.683 E8.8230
G1 X154.271 Y152.005 E8.8608
G1 X154.395 Y152.071 E8.8678
G1 X155.045 Y152.461 E8.9056
G1 X155.161 Y152.539 E8.9126
G1 X155.767 Y152.994 E8.9504
G1 X155.875 Y153.084 E8.9574
G1 X156.431 Y153.598 E8.9952
G1 X156.529 Y153.699 E9.0022
G1 X157.029 Y154.268 E9.0400
G1 X157.116 Y154.378 E9.0470
G1 X157.555 Y154.996 E9.0848
G1 X157.630 Y155.114 E9.0918
G1 X158.004 Y155.773 E9.1296
G1 X158.066 Y155.899 E9.1366
G1 X158.370 Y156.593 E9.1744
G1 X158.419 Y156.724 E9.1814
G1 X158.650 Y157.446 E9.2192
G1 X158.685 Y157.582 E9.2262
G1 X158.840 Y158.324 E9.2640
G1 X158.862 Y158.462 E9.2710
G1 X158.940 Y159.216 E9.3088
G1 X158.947 Y159.356 E9.3158
G1 X158.947 Y160.114 E9.3536
G1 X158.940 Y160.254 E9.3606
G1 X158.862 Y161.007 E9.3984
G1 X158.840 Y161.146 E9.4054
G1 X158.685 Y161.888 E9.4432
G1 X158.650 Y162.023 E9.4502
G1 X158.419 Y162.745 E9.4880
G1 X158.370 Y162.876 E9.4950
G1 X158.066 Y163.571 E9.5328
G1 X158.004 Y163.696 E9.5398
G1 X157.630 Y164.356 E9.5776
G1 X157.555 Y164.474 E9.5846
G1 X157.116 Y165.091 E9.6224
G1 X157.029 Y165.201 E9.6294
G1 X156.529 Y165.770 E9.6672
G1 X156.431 Y165.871 E9.6742
G1 X155.875 Y166.386 E9.7120
G1 X155.767 Y166.475 E9.7190
G1 X155.161 Y166.930 E9.7568
G1 X155.045 Y167.009 E9.7638
G1 X154.395 Y167.399 E9.8016
G1 X154.272 Y167.464 E9.8086
G1 X153.585 Y167.786 E9.8464
G1 X153.455 Y167.839 E9.8534
G1 X152.739 Y168.088 E9.8912
G1 X152.605 Y168.127 E9.8982
G1 X151.867 Y168.301 E9.9360
G1 X151.730 Y168.326 E9.9430
G1 X150.978 Y168.423 E9.9808
G1 X150.838 Y168.434 E9.9878
G1 X150.081 Y168.454 E10.0256
G1 X149.941 Y168.450 E10.0326
G1 X149.185 Y168.391 E10.0704
G1 X149.046 Y168.373 E10.0774
G1 X148.300 Y168.238 E10.1152
G1 X148.164 Y168.205 E10.1222
G1 X147.436 Y167.994 E10.1600
G1 X147.304 Y167.948 E10.1670
G1 X146.602 Y167.662 E10.2048
G1 X146.475 Y167.603 E10.2118
G1 X145.806 Y167.246 E10.2496
G1 X145.686 Y167.174 E10.2566
G1 X145.057 Y166.751 E10.2944
G1 X144.945 Y166.667 E10.3014
G1 X144.363 Y166.182 E10.3392
G1 X144.260 Y166.087 E10.3462
G1 X143.732 Y165.544 E10.3840
G1 X143.639 Y165.439 E10.3910
G1 X143.169 Y164.844 E10.4288
G1 X143.087 Y164.730 E10.4358
G1 X142.681 Y164.091 E10.4736
G1 X142.612 Y163.969 E10.4806
G1 X142.273 Y163.291 E10.5184
G1 X142.217 Y163.162 E10.5254
G1 X141.949 Y162.453 E10.5632
G1 X141.907 Y162.320 E10.5702
G1 X141.714 Y161.587 E10.6080
G1 X141.685 Y161.450 E10.6150
G1 X141.569 Y160.701 E10.6528
G1 X141.554 Y160.562 E10.6598
G1 X141.519 Y159.886 E10.6936
G1 X57.556 Y159.886 E14.8825
G1 X57.549 Y160.008 E14.8887
G1 X57.472 Y160.762 E14.9265
G1 X57.450 Y160.901 E14.9335
G1 X57.295 Y161.642 E14.9713
G1 X57.259 Y161.778 E14.9783
G1 X57.029 Y162.500 E15.0161
G1 X56.979 Y162.631 E15.0231
G1 X56.676 Y163.326 E15.0609
G1 X56.613 Y163.451 E15.0679
G1 X56.240 Y164.110 E15.1057
G1 X56.165 Y164.229 E15.1127
G1 X55.726 Y164.846 E15.1505
G1 X55.639 Y164.956 E15.1575
G1 X55.138 Y165.525 E15.1953
G1 X55.041 Y165.626 E15.2023
G1 X54.484 Y166.141 E15.2401
G1 X54.377 Y166.230 E15.2471
G1 X53.771 Y166.685 E15.2849
G1 X53.654 Y166.763 E15.2919
G1 X53.005 Y167.154 E15.3297
G1 X52.881 Y167.219 E15.3367
G1 X52.195 Y167.541 E15.3745
G1 X52.065 Y167.593 E15.3815
G1 X51.349 Y167.842 E15.4193
G1 X51.214 Y167.882 E15.4263
G1 X50.477 Y168.056 E15.4641
G1 X50.339 Y168.081 E15.4711
G1 X49.587 Y168.178 E15.5089
G1 X49.448 Y168.189 E15.5159
G1 X48.690 Y168.208 E15.5537
G1 X48.550 Y168.205 E15.5607
G1 X47.795 Y168.146 E15.5985
G1 X47.656 Y168.128 E15.6055
G1 X46.910 Y167.993 E15.6433
G1 X46.774 Y167.960 E15.6503
G1 X46.046 Y167.748 E15.6881
G1 X45.914 Y167.702 E15.6951
G1 X45.212 Y167.417 E15.7329
G1 X45.085 Y167.358 E15.7399
G1 X44.416 Y167.001 E15.7777
G1 X44.296 Y166.929 E15.7847
G1 X43.667 Y166.506 E15.8225
G1 X43.555 Y166.422 E15.8295
G1 X42.973 Y165.937 E15.8673
G1 X42.870 Y165.841 E15.8743
G1 X42.341 Y165.299 E15.9121
G1 X42.249 Y165.193 E15.9191
G1 X41.778 Y164.599 E15.9569
G1 X41.697 Y164.485 E15.9639
G1 X41.290 Y163.846 E16.0017
G1 X41.221 Y163.724 E16.0087
G1 X40.882 Y163.046 E16.0465
G1 X40.826 Y162.917 E16.0535
G1 X40.559 Y162.208 E16.0913
G1 X40.516 Y162.075 E16.0983
G1 X40.323 Y161.342 E16.1361
G1 X40.295 Y161.205 E16.1431
G1 X40.178 Y160.456 E16.1809
G1 X40.164 Y160.316 E16.1879
G1 X40.125 Y159.560 E16.2257
G1 X40.125 Y159.420 E16.2327
G1 X40.164 Y158.663 E16.2705
G1 X40.178 Y158.523 E16.2775
G1 X40.295 Y157.774 E16.3153
G1 X40.323 Y157.637 E16.3223
G1 X40.516 Y156.904 E16.3601
G1 X40.559 Y156.771 E16.3671
G1 X40.826 Y156.062 E16.4049
G1 X40.882 Y155.933 E16.4119
G1 X41.221 Y155.255 E16.4497
G1 X41.290 Y155.134 E16.4567
G1 X41.697 Y154.494 E16.4945
G1 X41.778 Y154.380 E16.5015
G1 X42.249 Y153.786 E16.5393
G1 X42.341 Y153.680 E16.5463
G1 X42.870 Y153.138 E16.5841
G1 X42.973 Y153.042 E16.5911
G1 X43.555 Y152.557 E16.6289
G1 X43.667 Y152.473 E16.6359
G1 X44.296 Y152.050 E16.6737
G1 X44.416 Y151.978 E16.6807
G1 X45.085 Y151.621 E16.7185
G1 X45.212 Y151.562 E16.7255
G1 X45.914 Y151.277 E16.7633
G1 X46.046 Y151.231 E16.7703
G1 X46.774 Y151.019 E16.8081
G1 X46.910 Y150.987 E16.8151
G1 X47.656 Y150.851 E16.8529
G1 X47.794 Y150.833 E16.8599
G1 X48.090 Y150.810 E16.8747
G1 X48.090 Y122.331 E18.2955
G1 X47.621 Y122.295 E18.3190
G1 X47.482 Y122.277 E18.3259
G1 X46.736 Y122.141 E18.3638
G1 X46.600 Y122.109 E18.3707
G1 X45.872 Y121.897 E18.4086
G1 X45.740 Y121.851 E18.4155
G1 X45.038 Y121.565 E18.4534
G1 X44.911 Y121.506 E18.4603
G1 X44.242 Y121.150 E18.4982
G1 X44.122 Y121.078 E18.5051
G1 X43.493 Y120.655 E18.5430
G1 X43.381 Y120.571 E18.5499
G1 X42.799 Y120.085 E18.5878
G1 X42.696 Y119.990 E18.5947
G1 X42.167 Y119.447 E18.6326
G1 X42.075 Y119.342 E18.6395
G1 X41.605 Y118.748 E18.6774
G1 X41.523 Y118.633 E18.6843
G1 X41.117 Y117.994 E18.7222
G1 X41.048 Y117.872 E18.7291
G1 X40.709 Y117.194 E18.7670
G1 X40.653 Y117.066 E18.7739
G1 X40.385 Y116.357 E18.8118
G1 X40.343 Y116.223 E18.8187
G1 X40.150 Y115.490 E18.8566
G1 X40.121 Y115.353 E18.8635
G1 X40.005 Y114.604 E18.9014
G1 X39.990 Y114.465 E18.9083
G1 X39.951 Y113.708 E18.9462
G1 X39.951 Y113.568 E18.9531
G1 X39.990 Y112.811 E18.9910
G1 X40.005 Y112.672 E18.9979
G1 X40.121 Y111.923 E19.0358
G1 X40.150 Y111.786 E19.0427
G1 X40.343 Y111.053 E19.0806
G1 X40.385 Y110.919 E19.0875
G1 X40.653 Y110.210 E19.1254
G1 X40.709 Y110.082 E19.1323
