; G-Code generated by Simplify3D(R) Version 4.1.2
; Nov 28, 2022 at 10:44:21 AM
; Settings Summary
;   processName,Process1
;   applyToModels,conn,Pad,Pad(2)
;   profileName,ABS
;   profileVersion,2019-11-09 17:57:01
;   baseProfile,Default
;   printMaterial,ABS
;   printQuality,Medium
;   printExtruders,
;   extruderName,Primary Extruder
;   extruderToolheadNumber,0
;   extruderDiameter,0.35
;   extruderAutoWidth,0
;   extruderWidth,0.48
;   extrusionMultiplier,1
;   extruderUseRetract,1
;   extruderRetractionDistance,3.6
;   extruderExtraRestartDistance,0
;   extruderRetractionZLift,0
;   extruderRetractionSpeed,1800
;   extruderUseCoasting,0
;   extruderCoastingDistance,0
;   extruderUseWipe,0
;   extruderWipeDistance,5
;   primaryExtruder,0
;   layerHeight,0.2
;   topSolidLayers,3
;   bottomSolidLayers,3
;   perimeterOutlines,3
;   printPerimetersInsideOut,1
;   startPointOption,2
;   startPointOriginX,0
;   startPointOriginY,0
;   sequentialIslands,0
;   spiralVaseMode,0
;   firstLayerHeightPercentage,125
;   firstLayerWidthPercentage,100
;   firstLayerUnderspeed,0.5
;   useRaft,0
;   raftExtruder,0
;   raftTopLayers,1
;   raftBaseLayers,1
;   raftOffset,5
;   raftSeparationDistance,0.2
;   raftTopInfill,60
;   aboveRaftSpeedMultiplier,0.3
;   useSkirt,1
;   skirtExtruder,0
;   skirtLayers,1
;   skirtOutlines,2
;   skirtOffset,2
;   usePrimePillar,0
;   primePillarExtruder,999
;   primePillarWidth,12
;   primePillarLocation,7
;   primePillarSpeedMultiplier,1
;   useOozeShield,0
;   oozeShieldExtruder,999
;   oozeShieldOffset,2
;   oozeShieldOutlines,1
;   oozeShieldSidewallShape,1
;   oozeShieldSidewallAngle,30
;   oozeShieldSpeedMultiplier,1
;   infillExtruder,0
;   internalInfillPattern,Rectilinear
;   externalInfillPattern,Rectilinear
;   infillPercentage,40
;   outlineOverlapPercentage,15
;   infillExtrusionWidthPercentage,100
;   minInfillLength,5
;   infillLayerInterval,1
;   internalInfillAngles,45,-45
;   overlapInternalInfillAngles,0
;   externalInfillAngles,45,-45
;   generateSupport,0
;   supportExtruder,0
;   supportInfillPercentage,8
;   supportExtraInflation,2
;   supportBaseLayers,0
;   denseSupportExtruder,0
;   denseSupportLayers,1
;   denseSupportInfillPercentage,60
;   supportLayerInterval,1
;   supportHorizontalPartOffset,0.8
;   supportUpperSeparationLayers,1
;   supportLowerSeparationLayers,1
;   supportType,0
;   supportGridSpacing,1
;   maxOverhangAngle,50
;   supportAngles,45,-45
;   temperatureName,Primary Extruder,Bed
;   temperatureNumber,0,1
;   temperatureSetpointCount,1,2
;   temperatureSetpointLayers,1,1,5
;   temperatureSetpointTemperatures,234,110,105
;   temperatureStabilizeAtStartup,1,1
;   temperatureHeatedBed,0,1
;   fanLayers,1,3
;   fanSpeeds,0,80
;   blipFanToFullPower,1
;   adjustSpeedForCooling,1
;   minSpeedLayerTime,10
;   minCoolingSpeedSlowdown,40
;   increaseFanForCooling,1
;   minFanLayerTime,15
;   maxCoolingFanSpeed,100
;   increaseFanForBridging,1
;   bridgingFanSpeed,100
;   use5D,1
;   relativeEdistances,0
;   allowEaxisZeroing,1
;   independentExtruderAxes,0
;   includeM10123,0
;   stickySupport,1
;   applyToolheadOffsets,0
;   gcodeXoffset,0
;   gcodeYoffset,0
;   gcodeZoffset,21.1
;   overrideMachineDefinition,0
;   machineTypeOverride,0
;   strokeXoverride,200
;   strokeYoverride,200
;   strokeZoverride,200
;   originOffsetXoverride,0
;   originOffsetYoverride,0
;   originOffsetZoverride,0
;   homeXdirOverride,-1
;   homeYdirOverride,-1
;   homeZdirOverride,-1
;   flipXoverride,1
;   flipYoverride,-1
;   flipZoverride,1
;   toolheadOffsets,0,0|0,0|0,0|0,0|0,0|0,0
;   overrideFirmwareConfiguration,0
;   firmwareTypeOverride,RepRap (Marlin/Repetier/Sprinter)
;   GPXconfigOverride,r2
;   baudRateOverride,115200
;   overridePrinterModels,0
;   printerModelsOverride
;   startingGcode,M355 ; Light,G28 ; home all axes
;   layerChangeGcode,
;   retractionGcode,
;   toolChangeGcode,
;   endingGcode,M104 S0 ; turn off extruder,M140 S0 ; turn off bed,G92 E0,G1 E-5 ; Retract,G28,M356,M106 S0,M84 ; disable motors
;   exportFileFormat,gcode
;   celebration,0
;   celebrationSong,Random Song
;   postProcessing,
;   defaultSpeed,5200
;   outlineUnderspeed,0.5
;   solidInfillUnderspeed,0.8
;   supportUnderspeed,0.8
;   rapidXYspeed,5800
;   rapidZspeed,1000
;   minBridgingArea,50
;   bridgingExtraInflation,0.2
;   bridgingExtrusionMultiplier,1.1
;   bridgingSpeedMultiplier,0.4
;   useFixedBridgingAngle,0
;   fixedBridgingAngle,0
;   applyBridgingToPerimeters,0
;   filamentDiameters,1.75|1.75|1.75|1.75|1.75|1.75
;   filamentPricesPerKg,250|250|250|250|250|250
;   filamentDensities,1.25|1.25|1.25|1.25|1.25|1.25
;   useMinPrintHeight,0
;   minPrintHeight,5.3
;   useMaxPrintHeight,0
;   maxPrintHeight,8
;   useDiaphragm,0
;   diaphragmLayerInterval,20
;   robustSlicing,1
;   mergeAllIntoSolid,0
;   onlyRetractWhenCrossingOutline,1
;   retractBetweenLayers,1
;   useRetractionMinTravel,1
;   retractionMinTravel,3
;   retractWhileWiping,0
;   onlyWipeOutlines,1
;   avoidCrossingOutline,1
;   maxMovementDetourFactor,3
;   toolChangeRetractionDistance,12
;   toolChangeExtraRestartDistance,-0.5
;   toolChangeRetractionSpeed,600
;   externalThinWallType,1
;   internalThinWallType,2
;   thinWallAllowedOverlapPercentage,25
;   singleExtrusionMinLength,1
;   singleExtrusionMinPrintingWidthPercentage,50
;   singleExtrusionMaxPrintingWidthPercentage,200
;   singleExtrusionEndpointExtension,0.2
;   horizontalSizeCompensation,0
G90
M82
M106 S0
M140 S110
M190 S110
M104 S234 T0
M109 S234 T0
M355 ; Light
G28 ; home all axes
; process Process1
; layer 1, Z = 21.350
T0
G92 E0.0000
G1 E-3.6000 F1800
; feature skirt
; tool H0.250 W0.480
G1 Z21.350 F1000
G1 X47.671 Y99.216 F5800
G1 E0.0000 F1800
G92 E0.0000
G1 X48.158 Y99.014 E0.0263 F2600
G1 X48.362 Y98.948 E0.0370
G1 X48.875 Y98.824 E0.0633
G1 X49.086 Y98.791 E0.0740
G1 X49.558 Y98.754 E0.0976
G1 X49.665 Y98.750 E0.1030
G1 X53.260 Y98.750 E0.2823
G1 X54.259 Y99.164 E0.3363
G1 X56.345 Y101.250 E0.4834
G1 X59.092 Y101.250 E0.6205
G1 X61.178 Y99.164 E0.7676
G1 X62.177 Y98.750 E0.8216
G1 X132.060 Y98.750 E4.3081
G1 X133.059 Y99.164 E4.3620
G1 X135.145 Y101.250 E4.5092
G1 X137.892 Y101.250 E4.6462
G1 X139.978 Y99.164 E4.7934
G1 X140.977 Y98.750 E4.8474
G1 X144.572 Y98.750 E5.0267
G1 X144.679 Y98.754 E5.0321
G1 X145.151 Y98.791 E5.0557
G1 X145.362 Y98.824 E5.0664
G1 X145.875 Y98.948 E5.0927
G1 X146.079 Y99.014 E5.1034
G1 X146.566 Y99.216 E5.1297
G1 X146.757 Y99.313 E5.1403
G1 X147.206 Y99.588 E5.1667
G1 X147.379 Y99.714 E5.1773
G1 X147.780 Y100.057 E5.2037
G1 X147.932 Y100.208 E5.2143
G1 X148.274 Y100.609 E5.2406
G1 X148.400 Y100.782 E5.2513
G1 X148.676 Y101.232 E5.2776
G1 X148.772 Y101.422 E5.2883
G1 X148.974 Y101.909 E5.3146
G1 X149.040 Y102.113 E5.3253
G1 X149.164 Y102.626 E5.3516
G1 X149.197 Y102.837 E5.3623
G1 X149.234 Y103.310 E5.3859
G1 X149.238 Y103.416 E5.3912
G1 X149.238 Y124.178 E6.4271
G1 X149.522 Y124.577 E6.4515
G1 X149.597 Y124.695 E6.4585
G1 X149.970 Y125.355 E6.4963
G1 X150.033 Y125.480 E6.5033
G1 X150.337 Y126.175 E6.5411
G1 X150.386 Y126.306 E6.5481
G1 X150.616 Y127.028 E6.5859
G1 X150.652 Y127.163 E6.5929
G1 X150.807 Y127.905 E6.6307
G1 X150.829 Y128.043 E6.6377
G1 X150.907 Y128.797 E6.6755
G1 X150.914 Y128.937 E6.6825
G1 X150.914 Y129.695 E6.7203
G1 X150.907 Y129.835 E6.7273
G1 X150.829 Y130.589 E6.7651
G1 X150.807 Y130.727 E6.7721
G1 X150.652 Y131.469 E6.8099
G1 X150.616 Y131.605 E6.8169
G1 X150.386 Y132.327 E6.8547
G1 X150.337 Y132.458 E6.8617
G1 X150.033 Y133.152 E6.8995
G1 X149.970 Y133.278 E6.9065
G1 X149.597 Y133.937 E6.9443
G1 X149.522 Y134.055 E6.9513
G1 X149.083 Y134.673 E6.9891
G1 X148.996 Y134.783 E6.9961
G1 X148.496 Y135.352 E7.0339
G1 X148.398 Y135.452 E7.0409
G1 X147.842 Y135.967 E7.0787
G1 X147.734 Y136.057 E7.0857
G1 X147.128 Y136.512 E7.1235
G1 X147.012 Y136.590 E7.1305
G1 X146.362 Y136.980 E7.1683
G1 X146.238 Y137.046 E7.1753
G1 X145.552 Y137.367 E7.2131
G1 X145.422 Y137.420 E7.2201
G1 X144.706 Y137.669 E7.2579
G1 X144.572 Y137.708 E7.2649
G1 X143.834 Y137.882 E7.3027
G1 X143.696 Y137.907 E7.3097
G1 X142.945 Y138.005 E7.3475
G1 X142.805 Y138.016 E7.3545
G1 X142.047 Y138.035 E7.3923
G1 X141.907 Y138.031 E7.3993
G1 X141.152 Y137.973 E7.4371
G1 X141.013 Y137.955 E7.4441
G1 X140.267 Y137.819 E7.4819
G1 X140.131 Y137.787 E7.4889
G1 X139.403 Y137.575 E7.5267
G1 X139.271 Y137.529 E7.5337
G1 X138.569 Y137.244 E7.5715
G1 X138.442 Y137.184 E7.5785
G1 X137.773 Y136.828 E7.6163
G1 X137.653 Y136.756 E7.6233
G1 X137.024 Y136.333 E7.6611
G1 X136.912 Y136.249 E7.6681
G1 X136.330 Y135.763 E7.7059
G1 X136.227 Y135.668 E7.7129
G1 X135.698 Y135.125 E7.7507
G1 X135.606 Y135.020 E7.7577
G1 X135.135 Y134.426 E7.7955
G1 X135.054 Y134.312 E7.8025
G1 X134.647 Y133.672 E7.8403
G1 X134.578 Y133.550 E7.8473
G1 X134.240 Y132.872 E7.8851
G1 X134.183 Y132.744 E7.8921
G1 X133.916 Y132.035 E7.9299
G1 X133.874 Y131.901 E7.9369
G1 X133.680 Y131.168 E7.9747
G1 X133.652 Y131.031 E7.9817
G1 X133.535 Y130.282 E8.0195
G1 X133.521 Y130.143 E8.0265
G1 X133.482 Y129.386 E8.0643
G1 X133.482 Y129.246 E8.0713
G1 X133.521 Y128.489 E8.1091
G1 X133.535 Y128.350 E8.1161
G1 X133.652 Y127.601 E8.1539
G1 X133.680 Y127.464 E8.1609
G1 X133.874 Y126.731 E8.1987
G1 X133.916 Y126.598 E8.2057
G1 X134.183 Y125.888 E8.2435
G1 X134.240 Y125.760 E8.2505
G1 X134.578 Y125.082 E8.2883
G1 X134.647 Y124.960 E8.2953
G1 X135.054 Y124.321 E8.3331
G1 X135.135 Y124.207 E8.3401
G1 X135.606 Y123.612 E8.3779
G1 X135.698 Y123.507 E8.3849
G1 X136.227 Y122.964 E8.4227
G1 X136.330 Y122.869 E8.4297
G1 X136.912 Y122.384 E8.4675
G1 X137.024 Y122.300 E8.4745
G1 X137.187 Y122.190 E8.4843
G1 X73.692 Y122.190 E11.6521
G1 X73.068 Y121.566 E11.6961
G1 X72.445 Y122.190 E11.7400
G1 X54.895 Y122.190 E12.6156
G1 X55.006 Y122.256 E12.6220
G1 X55.122 Y122.334 E12.6290
G1 X55.728 Y122.789 E12.6668
G1 X55.836 Y122.879 E12.6738
G1 X56.392 Y123.394 E12.7116
G1 X56.490 Y123.494 E12.7186
G1 X56.990 Y124.063 E12.7564
G1 X57.077 Y124.173 E12.7634
G1 X57.516 Y124.791 E12.8012
G1 X57.591 Y124.909 E12.8082
G1 X57.964 Y125.569 E12.8460
G1 X58.027 Y125.694 E12.8530
G1 X58.331 Y126.388 E12.8908
G1 X58.380 Y126.519 E12.8978
G1 X58.610 Y127.241 E12.9356
G1 X58.646 Y127.377 E12.9426
G1 X58.801 Y128.119 E12.9804
G1 X58.823 Y128.257 E12.9874
G1 X58.901 Y129.011 E13.0252
G1 X58.908 Y129.151 E13.0322
G1 X58.908 Y129.909 E13.0700
G1 X58.901 Y130.049 E13.0770
G1 X58.823 Y130.803 E13.1148
G1 X58.801 Y130.941 E13.1218
G1 X58.646 Y131.683 E13.1596
G1 X58.610 Y131.818 E13.1666
G1 X58.380 Y132.540 E13.2044
G1 X58.331 Y132.671 E13.2114
G1 X58.027 Y133.366 E13.2492
G1 X57.964 Y133.491 E13.2562
G1 X57.591 Y134.151 E13.2940
G1 X57.516 Y134.269 E13.3010
G1 X57.077 Y134.887 E13.3388
G1 X56.990 Y134.996 E13.3458
G1 X56.490 Y135.566 E13.3836
G1 X56.392 Y135.666 E13.3906
G1 X55.836 Y136.181 E13.4284
G1 X55.728 Y136.271 E13.4354
G1 X55.122 Y136.726 E13.4732
G1 X55.006 Y136.804 E13.4802
G1 X54.356 Y137.194 E13.5180
G1 X54.232 Y137.260 E13.5250
G1 X53.546 Y137.581 E13.5628
G1 X53.416 Y137.634 E13.5698
G1 X52.700 Y137.883 E13.6076
G1 X52.566 Y137.922 E13.6146
G1 X51.828 Y138.096 E13.6524
G1 X51.690 Y138.121 E13.6594
G1 X50.939 Y138.218 E13.6972
G1 X50.799 Y138.229 E13.7042
G1 X50.041 Y138.249 E13.7420
G1 X49.901 Y138.245 E13.7490
G1 X49.146 Y138.187 E13.7868
G1 X49.007 Y138.169 E13.7938
G1 X48.261 Y138.033 E13.8316
G1 X48.125 Y138.001 E13.8386
G1 X47.397 Y137.789 E13.8764
G1 X47.265 Y137.743 E13.8834
G1 X46.563 Y137.457 E13.9212
G1 X46.436 Y137.398 E13.9282
G1 X45.767 Y137.042 E13.9660
G1 X45.647 Y136.970 E13.9730
G1 X45.018 Y136.547 E14.0108
G1 X44.906 Y136.462 E14.0178
G1 X44.324 Y135.977 E14.0556
G1 X44.221 Y135.882 E14.0626
G1 X43.692 Y135.339 E14.1004
G1 X43.600 Y135.234 E14.1074
G1 X43.129 Y134.639 E14.1452
G1 X43.048 Y134.525 E14.1522
G1 X42.641 Y133.886 E14.1900
G1 X42.572 Y133.764 E14.1970
G1 X42.234 Y133.086 E14.2348
G1 X42.178 Y132.958 E14.2418
G1 X41.910 Y132.248 E14.2796
G1 X41.868 Y132.115 E14.2866
G1 X41.675 Y131.382 E14.3244
G1 X41.646 Y131.245 E14.3314
G1 X41.529 Y130.496 E14.3692
G1 X41.515 Y130.357 E14.3762
G1 X41.476 Y129.600 E14.4140
G1 X41.476 Y129.460 E14.4210
G1 X41.515 Y128.703 E14.4588
G1 X41.529 Y128.564 E14.4658
G1 X41.646 Y127.815 E14.5036
G1 X41.675 Y127.678 E14.5106
G1 X41.868 Y126.945 E14.5484
G1 X41.910 Y126.811 E14.5554
G1 X42.178 Y126.102 E14.5932
G1 X42.234 Y125.974 E14.6002
G1 X42.572 Y125.296 E14.6380
G1 X42.641 Y125.174 E14.6450
G1 X43.048 Y124.534 E14.6828
G1 X43.129 Y124.420 E14.6898
G1 X43.600 Y123.826 E14.7276
G1 X43.692 Y123.721 E14.7346
G1 X44.221 Y123.178 E14.7724
G1 X44.324 Y123.083 E14.7794
G1 X44.906 Y122.597 E14.8172
G1 X44.998 Y122.528 E14.8230
G1 X44.998 Y103.416 E15.7765
G1 X45.003 Y103.309 E15.7818
G1 X45.039 Y102.842 E15.8052
G1 X45.072 Y102.634 E15.8158
G1 X45.195 Y102.117 E15.8423
G1 X45.262 Y101.911 E15.8531
G1 X45.464 Y101.422 E15.8795
G1 X45.561 Y101.232 E15.8901
G1 X45.837 Y100.782 E15.9164
G1 X45.963 Y100.609 E15.9271
G1 X46.305 Y100.208 E15.9534
G1 X46.456 Y100.057 E15.9641
G1 X46.858 Y99.714 E15.9904
G1 X47.031 Y99.588 E16.0011
G1 X47.480 Y99.313 E16.0274
G1 X47.671 Y99.216 E16.0381
G1 X47.872 Y99.652 F5800
G92 E0.0000
G1 X48.325 Y99.464 E0.0244 F2600
G1 X48.492 Y99.410 E0.0332
G1 X48.968 Y99.296 E0.0577
G1 X49.142 Y99.268 E0.0664
G1 X49.587 Y99.233 E0.0887
G1 X49.674 Y99.230 E0.0931
G1 X53.164 Y99.230 E0.2672
G1 X53.987 Y99.571 E0.3116
G1 X56.146 Y101.730 E0.4640
G1 X59.291 Y101.730 E0.6208
G1 X61.450 Y99.571 E0.7732
G1 X62.273 Y99.230 E0.8176
G1 X131.964 Y99.230 E4.2945
G1 X132.787 Y99.571 E4.3390
G1 X134.946 Y101.730 E4.4913
G1 X138.091 Y101.730 E4.6482
G1 X140.250 Y99.571 E4.8005
G1 X141.073 Y99.230 E4.8450
G1 X144.562 Y99.230 E5.0191
G1 X144.650 Y99.233 E5.0234
G1 X145.095 Y99.268 E5.0457
G1 X145.269 Y99.296 E5.0545
G1 X145.745 Y99.410 E5.0789
G1 X145.912 Y99.464 E5.0877
G1 X146.365 Y99.652 E5.1121
G1 X146.522 Y99.732 E5.1209
G1 X146.939 Y99.988 E5.1453
G1 X147.082 Y100.091 E5.1541
G1 X147.454 Y100.409 E5.1786
G1 X147.579 Y100.534 E5.1873
G1 X147.897 Y100.906 E5.2118
G1 X148.000 Y101.049 E5.2206
G1 X148.256 Y101.466 E5.2450
G1 X148.336 Y101.623 E5.2538
G1 X148.524 Y102.076 E5.2782
G1 X148.578 Y102.243 E5.2870
G1 X148.693 Y102.719 E5.3115
G1 X148.720 Y102.893 E5.3202
G1 X148.755 Y103.338 E5.3425
G1 X148.758 Y103.426 E5.3469
G1 X148.758 Y124.332 E6.3899
G1 X149.124 Y124.845 E6.4213
G1 X149.185 Y124.942 E6.4271
G1 X149.547 Y125.581 E6.4636
G1 X149.598 Y125.684 E6.4694
G1 X149.892 Y126.356 E6.5060
G1 X149.932 Y126.463 E6.5117
G1 X150.155 Y127.162 E6.5483
G1 X150.185 Y127.273 E6.5541
G1 X150.335 Y127.991 E6.5906
G1 X150.353 Y128.105 E6.5964
G1 X150.428 Y128.834 E6.6330
G1 X150.434 Y128.950 E6.6387
G1 X150.434 Y129.683 E6.6753
G1 X150.428 Y129.798 E6.6811
G1 X150.353 Y130.527 E6.7176
G1 X150.335 Y130.641 E6.7234
G1 X150.185 Y131.359 E6.7600
G1 X150.155 Y131.470 E6.7657
G1 X149.932 Y132.169 E6.8023
G1 X149.892 Y132.277 E6.8081
G1 X149.598 Y132.949 E6.8446
G1 X149.547 Y133.052 E6.8504
G1 X149.185 Y133.690 E6.8870
G1 X149.124 Y133.787 E6.8927
G1 X148.699 Y134.385 E6.9293
G1 X148.627 Y134.475 E6.9351
G1 X148.143 Y135.026 E6.9716
G1 X148.063 Y135.109 E6.9774
G1 X147.525 Y135.607 E7.0140
G1 X147.436 Y135.680 E7.0197
G1 X146.850 Y136.120 E7.0563
G1 X146.754 Y136.185 E7.0621
G1 X146.125 Y136.562 E7.0986
G1 X146.023 Y136.617 E7.1044
G1 X145.359 Y136.927 E7.1410
G1 X145.253 Y136.971 E7.1467
G1 X144.560 Y137.212 E7.1833
G1 X144.449 Y137.244 E7.1890
G1 X143.736 Y137.412 E7.2256
G1 X143.622 Y137.433 E7.2314
G1 X142.895 Y137.527 E7.2680
G1 X142.780 Y137.536 E7.2737
G1 X142.047 Y137.555 E7.3103
G1 X141.932 Y137.552 E7.3160
G1 X141.201 Y137.495 E7.3526
G1 X141.087 Y137.481 E7.3584
G1 X140.365 Y137.349 E7.3950
G1 X140.253 Y137.323 E7.4007
G1 X139.549 Y137.118 E7.4373
G1 X139.440 Y137.080 E7.4430
G1 X138.761 Y136.804 E7.4796
G1 X138.656 Y136.755 E7.4854
G1 X138.009 Y136.410 E7.5220
G1 X137.910 Y136.351 E7.5277
G1 X137.302 Y135.941 E7.5643
G1 X137.210 Y135.872 E7.5700
G1 X136.647 Y135.403 E7.6066
G1 X136.562 Y135.324 E7.6124
G1 X136.051 Y134.799 E7.6490
