; G-Code generated by Simplify3D(R) Version 4.1.2
; Nov 29, 2022 at 6:11:32 PM
; Settings Summary
;   processName,Process1
;   applyToModels,conn-end,Pad,Pad(2)
;   profileName,ABS
;   profileVersion,2019-11-09 17:57:01
;   baseProfile,Default
;   printMaterial,ABS
;   printQuality,Medium
;   printExtruders,
;   extruderName,Primary Extruder
;   extruderToolheadNumber,0
;   extruderDiameter,0.35
;   extruderAutoWidth,0
;   extruderWidth,0.48
;   extrusionMultiplier,1
;   extruderUseRetract,1
;   extruderRetractionDistance,3.6
;   extruderExtraRestartDistance,0
;   extruderRetractionZLift,0
;   extruderRetractionSpeed,1800
;   extruderUseCoasting,0
;   extruderCoastingDistance,0
;   extruderUseWipe,0
;   extruderWipeDistance,5
;   primaryExtruder,0
;   layerHeight,0.2
;   topSolidLayers,3
;   bottomSolidLayers,3
;   perimeterOutlines,3
;   printPerimetersInsideOut,1
;   startPointOption,2
;   startPointOriginX,0
;   startPointOriginY,0
;   sequentialIslands,0
;   spiralVaseMode,0
;   firstLayerHeightPercentage,125
;   firstLayerWidthPercentage,100
;   firstLayerUnderspeed,0.5
;   useRaft,0
;   raftExtruder,0
;   raftTopLayers,1
;   raftBaseLayers,1
;   raftOffset,5
;   raftSeparationDistance,0.2
;   raftTopInfill,60
;   aboveRaftSpeedMultiplier,0.3
;   useSkirt,1
;   skirtExtruder,0
;   skirtLayers,1
;   skirtOutlines,2
;   skirtOffset,2
;   usePrimePillar,0
;   primePillarExtruder,999
;   primePillarWidth,12
;   primePillarLocation,7
;   primePillarSpeedMultiplier,1
;   useOozeShield,0
;   oozeShieldExtruder,999
;   oozeShieldOffset,2
;   oozeShieldOutlines,1
;   oozeShieldSidewallShape,1
;   oozeShieldSidewallAngle,30
;   oozeShieldSpeedMultiplier,1
;   infillExtruder,0
;   internalInfillPattern,Rectilinear
;   externalInfillPattern,Rectilinear
;   infillPercentage,40
;   outlineOverlapPercentage,15
;   infillExtrusionWidthPercentage,100
;   minInfillLength,5
;   infillLayerInterval,1
;   internalInfillAngles,45,-45
;   overlapInternalInfillAngles,0
;   externalInfillAngles,45,-45
;   generateSupport,0
;   supportExtruder,0
;   supportInfillPercentage,8
;   supportExtraInflation,2
;   supportBaseLayers,0
;   denseSupportExtruder,0
;   denseSupportLayers,1
;   denseSupportInfillPercentage,60
;   supportLayerInterval,1
;   supportHorizontalPartOffset,0.8
;   supportUpperSeparationLayers,1
;   supportLowerSeparationLayers,1
;   supportType,0
;   supportGridSpacing,1
;   maxOverhangAngle,50
;   supportAngles,45,-45
;   temperatureName,Primary Extruder,Bed
;   temperatureNumber,0,1
;   temperatureSetpointCount,1,2
;   temperatureSetpointLayers,1,1,5
;   temperatureSetpointTemperatures,234,110,105
;   temperatureStabilizeAtStartup,1,1
;   temperatureHeatedBed,0,1
;   fanLayers,1,3
;   fanSpeeds,0,80
;   blipFanToFullPower,1
;   adjustSpeedForCooling,1
;   minSpeedLayerTime,10
;   minCoolingSpeedSlowdown,40
;   increaseFanForCooling,1
;   minFanLayerTime,15
;   maxCoolingFanSpeed,100
;   increaseFanForBridging,1
;   bridgingFanSpeed,100
;   use5D,1
;   relativeEdistances,0
;   allowEaxisZeroing,1
;   independentExtruderAxes,0
;   includeM10123,0
;   stickySupport,1
;   applyToolheadOffsets,0
;   gcodeXoffset,0
;   gcodeYoffset,0
;   gcodeZoffset,21.1
;   overrideMachineDefinition,0
;   machineTypeOverride,0
;   strokeXoverride,200
;   strokeYoverride,200
;   strokeZoverride,200
;   originOffsetXoverride,0
;   originOffsetYoverride,0
;   originOffsetZoverride,0
;   homeXdirOverride,-1
;   homeYdirOverride,-1
;   homeZdirOverride,-1
;   flipXoverride,1
;   flipYoverride,-1
;   flipZoverride,1
;   toolheadOffsets,0,0|0,0|0,0|0,0|0,0|0,0
;   overrideFirmwareConfiguration,0
;   firmwareTypeOverride,RepRap (Marlin/Repetier/Sprinter)
;   GPXconfigOverride,r2
;   baudRateOverride,115200
;   overridePrinterModels,0
;   printerModelsOverride
;   startingGcode,M355 ; Light,G28 ; home all axes
;   layerChangeGcode,
;   retractionGcode,
;   toolChangeGcode,
;   endingGcode,M104 S0 ; turn off extruder,M140 S0 ; turn off bed,G92 E0,G1 E-5 ; Retract,G28,M356,M106 S0,M84 ; disable motors
;   exportFileFormat,gcode
;   celebration,0
;   celebrationSong,Random Song
;   postProcessing,
;   defaultSpeed,5200
;   outlineUnderspeed,0.5
;   solidInfillUnderspeed,0.8
;   supportUnderspeed,0.8
;   rapidXYspeed,5800
;   rapidZspeed,1000
;   minBridgingArea,50
;   bridgingExtraInflation,0.2
;   bridgingExtrusionMultiplier,1.1
;   bridgingSpeedMultiplier,0.4
;   useFixedBridgingAngle,0
;   fixedBridgingAngle,0
;   applyBridgingToPerimeters,0
;   filamentDiameters,1.75|1.75|1.75|1.75|1.75|1.75
;   filamentPricesPerKg,250|250|250|250|250|250
;   filamentDensities,1.25|1.25|1.25|1.25|1.25|1.25
;   useMinPrintHeight,0
;   minPrintHeight,5.3
;   useMaxPrintHeight,0
;   maxPrintHeight,8
;   useDiaphragm,0
;   diaphragmLayerInterval,20
;   robustSlicing,1
;   mergeAllIntoSolid,0
;   onlyRetractWhenCrossingOutline,1
;   retractBetweenLayers,1
;   useRetractionMinTravel,1
;   retractionMinTravel,3
;   retractWhileWiping,0
;   onlyWipeOutlines,1
;   avoidCrossingOutline,1
;   maxMovementDetourFactor,3
;   toolChangeRetractionDistance,12
;   toolChangeExtraRestartDistance,-0.5
;   toolChangeRetractionSpeed,600
;   externalThinWallType,1
;   internalThinWallType,2
;   thinWallAllowedOverlapPercentage,25
;   singleExtrusionMinLength,1
;   singleExtrusionMinPrintingWidthPercentage,50
;   singleExtrusionMaxPrintingWidthPercentage,200
;   singleExtrusionEndpointExtension,0.2
;   horizontalSizeCompensation,0
G90
M82
M106 S0
M140 S110
M190 S110
M104 S234 T0
M109 S234 T0
M355 ; Light
G28 ; home all axes
; process Process1
; layer 1, Z = 21.350
T0
G92 E0.0000
G1 E-3.6000 F1800
; feature skirt
; tool H0.250 W0.480
G1 Z21.350 F1000
G1 X45.911 Y66.803 F5800
G1 E0.0000 F1800
G92 E0.0000
G1 X46.023 Y66.719 E0.0070 F2600
G1 X46.652 Y66.296 E0.0448
G1 X46.772 Y66.224 E0.0518
G1 X47.441 Y65.868 E0.0896
G1 X47.568 Y65.808 E0.0966
G1 X48.270 Y65.523 E0.1344
G1 X48.402 Y65.477 E0.1414
G1 X49.130 Y65.265 E0.1792
G1 X49.266 Y65.233 E0.1862
G1 X50.012 Y65.097 E0.2240
G1 X50.151 Y65.079 E0.2310
G1 X50.907 Y65.021 E0.2688
G1 X51.047 Y65.017 E0.2758
G1 X51.804 Y65.036 E0.3136
G1 X51.944 Y65.047 E0.3206
G1 X52.696 Y65.145 E0.3584
G1 X52.833 Y65.170 E0.3654
G1 X53.571 Y65.344 E0.4032
G1 X53.705 Y65.383 E0.4102
G1 X54.421 Y65.632 E0.4480
G1 X54.551 Y65.685 E0.4550
G1 X55.237 Y66.006 E0.4928
G1 X55.361 Y66.072 E0.4998
G1 X56.011 Y66.462 E0.5376
G1 X56.127 Y66.540 E0.5446
G1 X56.733 Y66.995 E0.5824
G1 X56.841 Y67.085 E0.5894
G1 X57.397 Y67.600 E0.6272
G1 X57.495 Y67.700 E0.6342
G1 X57.995 Y68.269 E0.6720
G1 X58.082 Y68.379 E0.6790
G1 X58.521 Y68.997 E0.7168
G1 X58.596 Y69.115 E0.7238
G1 X58.970 Y69.775 E0.7616
G1 X59.032 Y69.900 E0.7686
G1 X59.336 Y70.594 E0.8064
G1 X59.385 Y70.725 E0.8134
G1 X59.616 Y71.447 E0.8512
G1 X59.651 Y71.583 E0.8582
G1 X59.806 Y72.325 E0.8960
G1 X59.828 Y72.463 E0.9030
G1 X59.906 Y73.217 E0.9408
G1 X59.913 Y73.357 E0.9478
G1 X59.913 Y74.115 E0.9856
G1 X59.906 Y74.255 E0.9926
G1 X59.828 Y75.009 E1.0304
G1 X59.806 Y75.147 E1.0374
G1 X59.651 Y75.889 E1.0752
G1 X59.616 Y76.024 E1.0822
G1 X59.385 Y76.746 E1.1200
G1 X59.336 Y76.877 E1.1270
G1 X59.032 Y77.572 E1.1648
G1 X58.970 Y77.697 E1.1718
G1 X58.596 Y78.357 E1.2096
G1 X58.521 Y78.475 E1.2166
G1 X58.082 Y79.093 E1.2544
G1 X57.995 Y79.203 E1.2614
G1 X57.495 Y79.772 E1.2992
G1 X57.397 Y79.872 E1.3062
G1 X56.841 Y80.387 E1.3440
G1 X56.733 Y80.477 E1.3510
G1 X56.127 Y80.932 E1.3888
G1 X56.011 Y81.010 E1.3958
G1 X55.999 Y81.017 E1.3965
G1 X55.999 Y81.048 E1.3980
G1 X139.545 Y81.048 E5.5662
G1 X139.389 Y80.889 E5.5773
G1 X139.297 Y80.783 E5.5843
G1 X138.826 Y80.189 E5.6221
G1 X138.745 Y80.075 E5.6291
G1 X138.339 Y79.435 E5.6669
G1 X138.270 Y79.313 E5.6739
G1 X137.931 Y78.636 E5.7117
G1 X137.875 Y78.507 E5.7187
G1 X137.607 Y77.798 E5.7565
G1 X137.565 Y77.664 E5.7635
G1 X137.372 Y76.932 E5.8013
G1 X137.343 Y76.795 E5.8083
G1 X137.226 Y76.046 E5.8461
G1 X137.212 Y75.906 E5.8531
G1 X137.173 Y75.149 E5.8909
G1 X137.173 Y75.009 E5.8979
G1 X137.212 Y74.252 E5.9357
G1 X137.226 Y74.113 E5.9427
G1 X137.343 Y73.364 E5.9805
G1 X137.372 Y73.227 E5.9875
G1 X137.565 Y72.494 E6.0253
G1 X137.607 Y72.361 E6.0323
G1 X137.875 Y71.652 E6.0701
G1 X137.931 Y71.523 E6.0771
G1 X138.270 Y70.845 E6.1149
G1 X138.339 Y70.723 E6.1219
G1 X138.745 Y70.084 E6.1597
G1 X138.826 Y69.970 E6.1667
G1 X139.297 Y69.376 E6.2045
G1 X139.389 Y69.270 E6.2115
G1 X139.918 Y68.727 E6.2493
G1 X140.021 Y68.632 E6.2563
G1 X140.603 Y68.147 E6.2941
G1 X140.715 Y68.063 E6.3011
G1 X141.344 Y67.640 E6.3389
G1 X141.464 Y67.568 E6.3459
G1 X142.133 Y67.211 E6.3837
G1 X142.260 Y67.152 E6.3907
G1 X142.962 Y66.866 E6.4285
G1 X143.094 Y66.820 E6.4355
G1 X143.822 Y66.609 E6.4733
G1 X143.958 Y66.576 E6.4803
G1 X144.704 Y66.441 E6.5181
G1 X144.843 Y66.423 E6.5251
G1 X145.598 Y66.364 E6.5629
G1 X145.738 Y66.360 E6.5699
G1 X146.496 Y66.380 E6.6077
G1 X146.636 Y66.391 E6.6147
G1 X147.387 Y66.488 E6.6525
G1 X147.525 Y66.513 E6.6595
G1 X148.263 Y66.687 E6.6973
G1 X148.397 Y66.726 E6.7043
G1 X149.113 Y66.975 E6.7421
G1 X149.243 Y67.028 E6.7491
G1 X149.929 Y67.349 E6.7869
G1 X150.053 Y67.415 E6.7939
G1 X150.703 Y67.805 E6.8317
G1 X150.819 Y67.884 E6.8387
G1 X151.425 Y68.339 E6.8765
G1 X151.533 Y68.428 E6.8835
G1 X152.089 Y68.943 E6.9213
G1 X152.187 Y69.043 E6.9283
G1 X152.687 Y69.613 E6.9661
G1 X152.774 Y69.723 E6.9731
G1 X153.213 Y70.340 E7.0109
G1 X153.288 Y70.458 E7.0179
G1 X153.662 Y71.118 E7.0557
G1 X153.724 Y71.243 E7.0627
G1 X154.028 Y71.938 E7.1005
G1 X154.077 Y72.069 E7.1075
G1 X154.308 Y72.791 E7.1453
G1 X154.343 Y72.926 E7.1523
G1 X154.498 Y73.668 E7.1901
G1 X154.520 Y73.807 E7.1971
G1 X154.598 Y74.561 E7.2349
G1 X154.605 Y74.700 E7.2419
G1 X154.605 Y75.458 E7.2797
G1 X154.598 Y75.598 E7.2867
G1 X154.520 Y76.352 E7.3245
G1 X154.498 Y76.490 E7.3315
G1 X154.343 Y77.232 E7.3693
G1 X154.308 Y77.368 E7.3763
G1 X154.077 Y78.090 E7.4141
G1 X154.028 Y78.221 E7.4211
G1 X153.724 Y78.915 E7.4589
G1 X153.662 Y79.041 E7.4659
G1 X153.288 Y79.700 E7.5037
G1 X153.213 Y79.818 E7.5107
G1 X152.774 Y80.436 E7.5485
G1 X152.687 Y80.546 E7.5555
G1 X152.187 Y81.115 E7.5933
G1 X152.089 Y81.216 E7.6003
G1 X151.533 Y81.730 E7.6381
G1 X151.425 Y81.820 E7.6451
G1 X150.819 Y82.275 E7.6829
G1 X150.800 Y82.288 E7.6840
G1 X150.800 Y99.821 E8.5588
G1 X150.796 Y99.928 E8.5641
G1 X150.759 Y100.401 E8.5878
G1 X150.726 Y100.612 E8.5984
G1 X150.602 Y101.125 E8.6247
G1 X150.536 Y101.328 E8.6354
G1 X150.334 Y101.816 E8.6617
G1 X150.237 Y102.006 E8.6724
G1 X149.962 Y102.456 E8.6987
G1 X149.836 Y102.629 E8.7094
G1 X149.494 Y103.030 E8.7357
G1 X149.342 Y103.181 E8.7464
G1 X148.941 Y103.524 E8.7727
G1 X148.768 Y103.649 E8.7833
G1 X148.318 Y103.925 E8.8097
G1 X148.128 Y104.022 E8.8203
G1 X147.640 Y104.224 E8.8467
G1 X147.437 Y104.290 E8.8573
G1 X146.924 Y104.413 E8.8836
G1 X146.713 Y104.447 E8.8943
G1 X146.240 Y104.484 E8.9180
G1 X146.134 Y104.488 E8.9233
G1 X142.539 Y104.488 E9.1026
G1 X141.540 Y104.074 E9.1566
G1 X139.454 Y101.988 E9.3038
G1 X136.707 Y101.988 E9.4408
G1 X134.621 Y104.074 E9.5880
G1 X133.621 Y104.488 E9.6420
G1 X63.739 Y104.488 E13.1284
G1 X62.740 Y104.074 E13.1824
G1 X60.654 Y101.988 E13.3295
G1 X57.907 Y101.988 E13.4666
G1 X55.821 Y104.074 E13.6137
G1 X54.821 Y104.488 E13.6677
G1 X51.227 Y104.488 E13.8471
G1 X51.120 Y104.484 E13.8524
G1 X50.648 Y104.447 E13.8760
G1 X50.436 Y104.413 E13.8867
G1 X49.923 Y104.290 E13.9130
G1 X49.720 Y104.224 E13.9237
G1 X49.233 Y104.022 E13.9500
G1 X49.042 Y103.925 E13.9607
G1 X48.593 Y103.650 E13.9870
G1 X48.420 Y103.524 E13.9977
G1 X48.018 Y103.181 E14.0240
G1 X47.867 Y103.030 E14.0347
G1 X47.525 Y102.629 E14.0610
G1 X47.399 Y102.456 E14.0716
G1 X47.123 Y102.006 E14.0979
G1 X47.026 Y101.816 E14.1086
G1 X46.824 Y101.328 E14.1349
G1 X46.758 Y101.125 E14.1456
G1 X46.635 Y100.612 E14.1719
G1 X46.602 Y100.401 E14.1826
G1 X46.565 Y99.928 E14.2062
G1 X46.560 Y99.821 E14.2116
G1 X46.564 Y81.116 E15.1448
G1 X46.023 Y80.753 E15.1773
G1 X45.911 Y80.668 E15.1843
G1 X45.329 Y80.183 E15.2221
G1 X45.226 Y80.088 E15.2291
G1 X44.697 Y79.545 E15.2669
G1 X44.605 Y79.440 E15.2739
G1 X44.135 Y78.846 E15.3117
G1 X44.053 Y78.731 E15.3187
G1 X43.647 Y78.092 E15.3565
G1 X43.578 Y77.970 E15.3635
G1 X43.239 Y77.292 E15.4013
G1 X43.183 Y77.164 E15.4083
G1 X42.915 Y76.454 E15.4461
G1 X42.873 Y76.321 E15.4531
G1 X42.680 Y75.588 E15.4909
G1 X42.651 Y75.451 E15.4979
G1 X42.535 Y74.702 E15.5357
G1 X42.520 Y74.563 E15.5427
G1 X42.481 Y73.806 E15.5805
G1 X42.481 Y73.666 E15.5875
G1 X42.520 Y72.909 E15.6253
G1 X42.535 Y72.770 E15.6323
G1 X42.651 Y72.021 E15.6701
G1 X42.680 Y71.884 E15.6771
G1 X42.873 Y71.151 E15.7149
G1 X42.915 Y71.017 E15.7219
G1 X43.183 Y70.308 E15.7597
G1 X43.239 Y70.180 E15.7667
G1 X43.578 Y69.502 E15.8045
G1 X43.647 Y69.380 E15.8115
G1 X44.053 Y68.740 E15.8493
G1 X44.135 Y68.626 E15.8563
G1 X44.605 Y68.032 E15.8941
G1 X44.698 Y67.927 E15.9011
G1 X45.226 Y67.384 E15.9389
G1 X45.329 Y67.289 E15.9459
G1 X45.911 Y66.803 E15.9837
G1 X46.301 Y67.111 F5800
G92 E0.0000
G1 X46.910 Y66.701 E0.0366 F2600
G1 X47.009 Y66.642 E0.0423
G1 X47.656 Y66.297 E0.0789
G1 X47.760 Y66.248 E0.0847
G1 X48.439 Y65.972 E0.1212
G1 X48.548 Y65.934 E0.1270
G1 X49.252 Y65.729 E0.1636
G1 X49.365 Y65.703 E0.1693
G1 X50.086 Y65.572 E0.2059
G1 X50.200 Y65.557 E0.2117
G1 X50.931 Y65.500 E0.2482
G1 X51.047 Y65.497 E0.2540
G1 X51.780 Y65.516 E0.2906
G1 X51.895 Y65.525 E0.2963
G1 X52.622 Y65.619 E0.3329
G1 X52.735 Y65.640 E0.3387
G1 X53.449 Y65.808 E0.3752
G1 X53.559 Y65.840 E0.3810
G1 X54.252 Y66.081 E0.4176
G1 X54.359 Y66.125 E0.4233
G1 X55.023 Y66.435 E0.4599
G1 X55.125 Y66.490 E0.4657
G1 X55.753 Y66.867 E0.5022
G1 X55.849 Y66.932 E0.5080
G1 X56.435 Y67.372 E0.5446
G1 X56.524 Y67.446 E0.5503
G1 X57.062 Y67.943 E0.5869
G1 X57.142 Y68.026 E0.5927
G1 X57.626 Y68.577 E0.6292
G1 X57.698 Y68.667 E0.6350
G1 X58.123 Y69.265 E0.6716
G1 X58.185 Y69.362 E0.6773
G1 X58.546 Y70.000 E0.7139
G1 X58.597 Y70.103 E0.7197
G1 X58.891 Y70.775 E0.7562
G1 X58.932 Y70.883 E0.7620
G1 X59.155 Y71.582 E0.7986
G1 X59.184 Y71.693 E0.8043
G1 X59.334 Y72.411 E0.8409
G1 X59.352 Y72.525 E0.8467
G1 X59.427 Y73.254 E0.8832
G1 X59.433 Y73.369 E0.8890
G1 X59.433 Y74.102 E0.9256
G1 X59.427 Y74.218 E0.9313
G1 X59.352 Y74.947 E0.9679
G1 X59.334 Y75.061 E0.9737
G1 X59.184 Y75.779 E1.0102
G1 X59.155 Y75.890 E1.0160
G1 X58.932 Y76.589 E1.0526
G1 X58.891 Y76.697 E1.0583
G1 X58.597 Y77.368 E1.0949
G1 X58.546 Y77.472 E1.1007
G1 X58.185 Y78.110 E1.1372
G1 X58.123 Y78.207 E1.1430
G1 X57.698 Y78.804 E1.1796
G1 X57.626 Y78.895 E1.1853
G1 X57.142 Y79.446 E1.2219
G1 X57.062 Y79.528 E1.2277
G1 X56.524 Y80.026 E1.2642
G1 X56.435 Y80.100 E1.2700
G1 X55.849 Y80.540 E1.3066
G1 X55.753 Y80.605 E1.3123
G1 X55.519 Y80.745 E1.3260
G1 X55.519 Y81.528 E1.3650
G1 X140.772 Y81.528 E5.6183
G1 X140.338 Y81.166 E5.6465
G1 X140.253 Y81.087 E5.6523
G1 X139.742 Y80.562 E5.6889
G1 X139.665 Y80.476 E5.6946
G1 X139.211 Y79.901 E5.7312
G1 X139.144 Y79.807 E5.7369
G1 X138.750 Y79.188 E5.7735
G1 X138.693 Y79.088 E5.7793
G1 X138.366 Y78.432 E5.8159
G1 X138.319 Y78.326 E5.8216
G1 X138.061 Y77.640 E5.8582
G1 X138.026 Y77.530 E5.8639
G1 X137.839 Y76.821 E5.9005
G1 X137.815 Y76.708 E5.9063
G1 X137.703 Y75.984 E5.9429
G1 X137.691 Y75.869 E5.9486
G1 X137.653 Y75.137 E5.9852
G1 X137.653 Y75.022 E5.9909
G1 X137.691 Y74.290 E6.0275
G1 X137.703 Y74.175 E6.0333
G1 X137.815 Y73.450 E6.0699
G1 X137.839 Y73.337 E6.0756
G1 X138.026 Y72.628 E6.1122
G1 X138.061 Y72.519 E6.1179
G1 X138.319 Y71.832 E6.1545
G1 X138.366 Y71.727 E6.1603
G1 X138.693 Y71.071 E6.1969
G1 X138.750 Y70.971 E6.2026
G1 X139.144 Y70.352 E6.2392
G1 X139.211 Y70.258 E6.2449
G1 X139.666 Y69.683 E6.2815
G1 X139.742 Y69.596 E6.2873
G1 X140.253 Y69.071 E6.3239
G1 X140.338 Y68.993 E6.3296
G1 X140.901 Y68.523 E6.3662
G1 X140.993 Y68.454 E6.3719
G1 X141.602 Y68.045 E6.4085
G1 X141.700 Y67.985 E6.4143
G1 X142.348 Y67.641 E6.4509
G1 X142.452 Y67.592 E6.4566
G1 X143.131 Y67.316 E6.4932
G1 X143.240 Y67.278 E6.4989
G1 X143.944 Y67.073 E6.5355
G1 X144.056 Y67.046 E6.5413
G1 X144.778 Y66.915 E6.5778
G1 X144.892 Y66.900 E6.5836
