; G-Code generated by Simplify3D(R) Version 4.1.2
; Dec 1, 2022 at 11:47:31 AM
; Settings Summary
;   processName,Process1
;   applyToModels,first,Pad,Pad(2),Pad(3),Pad(4)
;   profileName,ABS
;   profileVersion,2019-11-09 17:57:01
;   baseProfile,Default
;   printMaterial,ABS
;   printQuality,Medium
;   printExtruders,
;   extruderName,Primary Extruder
;   extruderToolheadNumber,0
;   extruderDiameter,0.35
;   extruderAutoWidth,0
;   extruderWidth,0.48
;   extrusionMultiplier,1
;   extruderUseRetract,1
;   extruderRetractionDistance,3.6
;   extruderExtraRestartDistance,0
;   extruderRetractionZLift,0
;   extruderRetractionSpeed,1800
;   extruderUseCoasting,0
;   extruderCoastingDistance,0
;   extruderUseWipe,0
;   extruderWipeDistance,5
;   primaryExtruder,0
;   layerHeight,0.2
;   topSolidLayers,3
;   bottomSolidLayers,3
;   perimeterOutlines,3
;   printPerimetersInsideOut,1
;   startPointOption,2
;   startPointOriginX,0
;   startPointOriginY,0
;   sequentialIslands,0
;   spiralVaseMode,0
;   firstLayerHeightPercentage,125
;   firstLayerWidthPercentage,100
;   firstLayerUnderspeed,0.5
;   useRaft,0
;   raftExtruder,0
;   raftTopLayers,1
;   raftBaseLayers,1
;   raftOffset,5
;   raftSeparationDistance,0.2
;   raftTopInfill,60
;   aboveRaftSpeedMultiplier,0.3
;   useSkirt,1
;   skirtExtruder,0
;   skirtLayers,1
;   skirtOutlines,2
;   skirtOffset,2
;   usePrimePillar,0
;   primePillarExtruder,999
;   primePillarWidth,12
;   primePillarLocation,7
;   primePillarSpeedMultiplier,1
;   useOozeShield,0
;   oozeShieldExtruder,999
;   oozeShieldOffset,2
;   oozeShieldOutlines,1
;   oozeShieldSidewallShape,1
;   oozeShieldSidewallAngle,30
;   oozeShieldSpeedMultiplier,1
;   infillExtruder,0
;   internalInfillPattern,Rectilinear
;   externalInfillPattern,Rectilinear
;   infillPercentage,40
;   outlineOverlapPercentage,15
;   infillExtrusionWidthPercentage,100
;   minInfillLength,5
;   infillLayerInterval,1
;   internalInfillAngles,45,-45
;   overlapInternalInfillAngles,0
;   externalInfillAngles,45,-45
;   generateSupport,0
;   supportExtruder,0
;   supportInfillPercentage,8
;   supportExtraInflation,2
;   supportBaseLayers,0
;   denseSupportExtruder,0
;   denseSupportLayers,1
;   denseSupportInfillPercentage,60
;   supportLayerInterval,1
;   supportHorizontalPartOffset,0.8
;   supportUpperSeparationLayers,1
;   supportLowerSeparationLayers,1
;   supportType,0
;   supportGridSpacing,1
;   maxOverhangAngle,50
;   supportAngles,45,-45
;   temperatureName,Primary Extruder,Bed
;   temperatureNumber,0,1
;   temperatureSetpointCount,1,2
;   temperatureSetpointLayers,1,1,5
;   temperatureSetpointTemperatures,234,110,105
;   temperatureStabilizeAtStartup,1,1
;   temperatureHeatedBed,0,1
;   fanLayers,1,3
;   fanSpeeds,0,80
;   blipFanToFullPower,1
;   adjustSpeedForCooling,1
;   minSpeedLayerTime,10
;   minCoolingSpeedSlowdown,40
;   increaseFanForCooling,1
;   minFanLayerTime,15
;   maxCoolingFanSpeed,100
;   increaseFanForBridging,1
;   bridgingFanSpeed,100
;   use5D,1
;   relativeEdistances,0
;   allowEaxisZeroing,1
;   independentExtruderAxes,0
;   includeM10123,0
;   stickySupport,1
;   applyToolheadOffsets,0
;   gcodeXoffset,0
;   gcodeYoffset,0
;   gcodeZoffset,21.1
;   overrideMachineDefinition,0
;   machineTypeOverride,0
;   strokeXoverride,200
;   strokeYoverride,200
;   strokeZoverride,200
;   originOffsetXoverride,0
;   originOffsetYoverride,0
;   originOffsetZoverride,0
;   homeXdirOverride,-1
;   homeYdirOverride,-1
;   homeZdirOverride,-1
;   flipXoverride,1
;   flipYoverride,-1
;   flipZoverride,1
;   toolheadOffsets,0,0|0,0|0,0|0,0|0,0|0,0
;   overrideFirmwareConfiguration,0
;   firmwareTypeOverride,RepRap (Marlin/Repetier/Sprinter)
;   GPXconfigOverride,r2
;   baudRateOverride,115200
;   overridePrinterModels,0
;   printerModelsOverride
;   startingGcode,M355 ; Light,G28 ; home all axes
;   layerChangeGcode,
;   retractionGcode,
;   toolChangeGcode,
;   endingGcode,M104 S0 ; turn off extruder,M140 S0 ; turn off bed,G92 E0,G1 E-5 ; Retract,G28,M356,M106 S0,M84 ; disable motors
;   exportFileFormat,gcode
;   celebration,0
;   celebrationSong,Random Song
;   postProcessing,
;   defaultSpeed,5200
;   outlineUnderspeed,0.5
;   solidInfillUnderspeed,0.8
;   supportUnderspeed,0.8
;   rapidXYspeed,5800
;   rapidZspeed,1000
;   minBridgingArea,50
;   bridgingExtraInflation,0.2
;   bridgingExtrusionMultiplier,1.1
;   bridgingSpeedMultiplier,0.4
;   useFixedBridgingAngle,0
;   fixedBridgingAngle,0
;   applyBridgingToPerimeters,0
;   filamentDiameters,1.75|1.75|1.75|1.75|1.75|1.75
;   filamentPricesPerKg,250|250|250|250|250|250
;   filamentDensities,1.25|1.25|1.25|1.25|1.25|1.25
;   useMinPrintHeight,0
;   minPrintHeight,5.3
;   useMaxPrintHeight,0
;   maxPrintHeight,8
;   useDiaphragm,0
;   diaphragmLayerInterval,20
;   robustSlicing,1
;   mergeAllIntoSolid,0
;   onlyRetractWhenCrossingOutline,1
;   retractBetweenLayers,1
;   useRetractionMinTravel,1
;   retractionMinTravel,3
;   retractWhileWiping,0
;   onlyWipeOutlines,1
;   avoidCrossingOutline,1
;   maxMovementDetourFactor,3
;   toolChangeRetractionDistance,12
;   toolChangeExtraRestartDistance,-0.5
;   toolChangeRetractionSpeed,600
;   externalThinWallType,1
;   internalThinWallType,2
;   thinWallAllowedOverlapPercentage,25
;   singleExtrusionMinLength,1
;   singleExtrusionMinPrintingWidthPercentage,50
;   singleExtrusionMaxPrintingWidthPercentage,200
;   singleExtrusionEndpointExtension,0.2
;   horizontalSizeCompensation,0
G90
M82
M106 S0
M140 S110
M190 S110
M104 S234 T0
M109 S234 T0
M355 ; Light
G28 ; home all axes
; process Process1
; layer 1, Z = 21.350
T0
G92 E0.0000
G1 E-3.6000 F1800
; feature skirt
; tool H0.250 W0.480
G1 Z21.350 F1000
G1 X50.682 Y117.514 F5800
G1 E0.0000 F1800
G92 E0.0000
G1 X50.815 Y117.468 E0.0070 F2600
G1 X51.542 Y117.256 E0.0448
G1 X51.679 Y117.224 E0.0518
G1 X52.424 Y117.088 E0.0896
G1 X52.563 Y117.070 E0.0966
G1 X53.319 Y117.012 E0.1344
G1 X53.459 Y117.008 E0.1414
G1 X54.217 Y117.028 E0.1792
G1 X54.356 Y117.039 E0.1862
G1 X55.108 Y117.136 E0.2240
G1 X55.246 Y117.161 E0.2310
G1 X55.983 Y117.335 E0.2688
G1 X56.118 Y117.374 E0.2758
G1 X56.834 Y117.623 E0.3136
G1 X56.964 Y117.676 E0.3206
G1 X57.650 Y117.997 E0.3584
G1 X57.774 Y118.063 E0.3654
G1 X58.423 Y118.453 E0.4032
G1 X58.540 Y118.531 E0.4102
G1 X59.146 Y118.986 E0.4480
G1 X59.253 Y119.076 E0.4550
G1 X59.809 Y119.591 E0.4928
G1 X59.907 Y119.691 E0.4998
G1 X60.408 Y120.260 E0.5376
G1 X60.495 Y120.370 E0.5446
G1 X60.934 Y120.988 E0.5824
G1 X61.009 Y121.106 E0.5894
G1 X61.382 Y121.766 E0.6272
G1 X61.445 Y121.891 E0.6342
G1 X61.748 Y122.586 E0.6720
G1 X61.798 Y122.717 E0.6790
G1 X62.028 Y123.439 E0.7168
G1 X62.064 Y123.574 E0.7238
G1 X62.219 Y124.316 E0.7616
G1 X62.240 Y124.454 E0.7686
G1 X62.265 Y124.697 E0.7807
G1 X64.201 Y126.633 E0.9173
G1 X66.948 Y126.633 E1.0544
G1 X69.034 Y124.547 E1.2015
G1 X70.034 Y124.133 E1.2555
G1 X139.916 Y124.133 E4.7419
G1 X140.915 Y124.547 E4.7959
G1 X143.001 Y126.633 E4.9431
G1 X145.748 Y126.633 E5.0801
G1 X146.113 Y126.267 E5.1059
G1 X146.077 Y125.566 E5.1409
G1 X146.077 Y125.426 E5.1479
G1 X146.116 Y124.669 E5.1857
G1 X146.130 Y124.530 E5.1927
G1 X146.247 Y123.781 E5.2305
G1 X146.276 Y123.644 E5.2375
G1 X146.469 Y122.911 E5.2753
G1 X146.511 Y122.778 E5.2823
G1 X146.779 Y122.068 E5.3201
G1 X146.835 Y121.940 E5.3271
G1 X147.173 Y121.262 E5.3649
G1 X147.242 Y121.140 E5.3719
G1 X147.649 Y120.501 E5.4097
G1 X147.730 Y120.387 E5.4167
G1 X148.201 Y119.792 E5.4545
G1 X148.293 Y119.687 E5.4615
G1 X148.822 Y119.144 E5.4993
G1 X148.925 Y119.049 E5.5063
G1 X149.507 Y118.564 E5.5441
G1 X149.619 Y118.480 E5.5511
G1 X150.248 Y118.056 E5.5889
G1 X150.368 Y117.984 E5.5959
G1 X151.037 Y117.628 E5.6337
G1 X151.164 Y117.569 E5.6407
G1 X151.866 Y117.283 E5.6785
G1 X151.998 Y117.237 E5.6855
G1 X152.726 Y117.025 E5.7233
G1 X152.862 Y116.993 E5.7303
G1 X153.608 Y116.857 E5.7681
G1 X153.747 Y116.839 E5.7751
G1 X154.502 Y116.781 E5.8129
G1 X154.642 Y116.777 E5.8199
G1 X155.400 Y116.797 E5.8577
G1 X155.540 Y116.808 E5.8647
G1 X156.291 Y116.905 E5.9025
G1 X156.429 Y116.930 E5.9095
G1 X157.167 Y117.104 E5.9473
G1 X157.301 Y117.143 E5.9543
G1 X158.017 Y117.392 E5.9921
G1 X158.147 Y117.445 E5.9991
G1 X158.833 Y117.766 E6.0369
G1 X158.957 Y117.832 E6.0439
G1 X159.607 Y118.222 E6.0817
G1 X159.723 Y118.301 E6.0887
G1 X160.329 Y118.755 E6.1265
G1 X160.437 Y118.845 E6.1335
G1 X160.993 Y119.360 E6.1713
G1 X161.091 Y119.460 E6.1783
G1 X161.591 Y120.030 E6.2161
G1 X161.678 Y120.139 E6.2231
G1 X162.117 Y120.757 E6.2609
G1 X162.192 Y120.875 E6.2679
G1 X162.565 Y121.535 E6.3057
G1 X162.628 Y121.660 E6.3127
G1 X162.932 Y122.355 E6.3505
G1 X162.981 Y122.486 E6.3575
G1 X163.212 Y123.208 E6.3953
G1 X163.247 Y123.343 E6.4023
G1 X163.402 Y124.085 E6.4401
G1 X163.424 Y124.224 E6.4471
G1 X163.502 Y124.977 E6.4849
G1 X163.509 Y125.117 E6.4919
G1 X163.509 Y125.875 E6.5297
G1 X163.502 Y126.015 E6.5367
G1 X163.424 Y126.769 E6.5745
G1 X163.402 Y126.907 E6.5815
G1 X163.247 Y127.649 E6.6193
G1 X163.211 Y127.785 E6.6263
G1 X162.981 Y128.507 E6.6641
G1 X162.932 Y128.638 E6.6711
G1 X162.628 Y129.332 E6.7089
G1 X162.565 Y129.458 E6.7159
G1 X162.192 Y130.117 E6.7537
G1 X162.117 Y130.235 E6.7607
G1 X161.678 Y130.853 E6.7985
G1 X161.591 Y130.963 E6.8055
G1 X161.091 Y131.532 E6.8433
G1 X160.993 Y131.632 E6.8503
G1 X160.437 Y132.147 E6.8881
G1 X160.329 Y132.237 E6.8951
G1 X159.723 Y132.692 E6.9329
G1 X159.607 Y132.770 E6.9399
G1 X158.957 Y133.160 E6.9777
G1 X158.833 Y133.226 E6.9847
G1 X158.147 Y133.547 E7.0225
G1 X158.017 Y133.600 E7.0295
G1 X157.301 Y133.849 E7.0673
G1 X157.167 Y133.888 E7.0743
G1 X157.095 Y133.905 E7.0780
G1 X157.095 Y148.469 E7.8046
G1 X157.499 Y148.712 E7.8281
G1 X157.615 Y148.790 E7.8351
G1 X158.221 Y149.245 E7.8729
G1 X158.329 Y149.334 E7.8799
G1 X158.885 Y149.849 E7.9177
G1 X158.983 Y149.950 E7.9247
G1 X159.483 Y150.519 E7.9625
G1 X159.570 Y150.629 E7.9695
G1 X160.009 Y151.246 E8.0073
G1 X160.084 Y151.365 E8.0143
G1 X160.458 Y152.024 E8.0521
G1 X160.520 Y152.150 E8.0591
G1 X160.824 Y152.844 E8.0969
G1 X160.873 Y152.975 E8.1039
G1 X161.104 Y153.697 E8.1417
G1 X161.139 Y153.832 E8.1487
G1 X161.294 Y154.574 E8.1865
G1 X161.316 Y154.713 E8.1935
G1 X161.394 Y155.467 E8.2313
G1 X161.401 Y155.607 E8.2383
G1 X161.401 Y156.364 E8.2761
G1 X161.394 Y156.504 E8.2831
G1 X161.316 Y157.258 E8.3209
G1 X161.294 Y157.397 E8.3279
G1 X161.139 Y158.138 E8.3657
G1 X161.104 Y158.274 E8.3727
G1 X160.873 Y158.996 E8.4105
G1 X160.824 Y159.127 E8.4175
G1 X160.520 Y159.821 E8.4553
G1 X160.458 Y159.947 E8.4623
G1 X160.084 Y160.606 E8.5001
G1 X160.009 Y160.725 E8.5071
G1 X159.570 Y161.342 E8.5449
G1 X159.483 Y161.452 E8.5519
G1 X158.983 Y162.021 E8.5897
G1 X158.885 Y162.122 E8.5967
G1 X158.329 Y162.637 E8.6345
G1 X158.221 Y162.726 E8.6415
G1 X157.615 Y163.181 E8.6793
G1 X157.499 Y163.259 E8.6863
G1 X156.849 Y163.649 E8.7241
G1 X156.725 Y163.715 E8.7311
G1 X156.039 Y164.037 E8.7689
G1 X155.909 Y164.089 E8.7759
G1 X155.193 Y164.338 E8.8137
G1 X155.059 Y164.378 E8.8207
G1 X154.321 Y164.552 E8.8585
G1 X154.183 Y164.577 E8.8655
G1 X153.432 Y164.674 E8.9033
G1 X153.292 Y164.685 E8.9103
G1 X152.534 Y164.704 E8.9481
G1 X152.394 Y164.701 E8.9551
G1 X151.639 Y164.642 E8.9929
G1 X151.500 Y164.624 E8.9999
G1 X150.754 Y164.488 E9.0377
G1 X150.618 Y164.456 E9.0447
G1 X149.890 Y164.244 E9.0825
G1 X149.758 Y164.198 E9.0895
G1 X149.056 Y163.913 E9.1273
G1 X148.929 Y163.853 E9.1343
G1 X148.260 Y163.497 E9.1721
G1 X148.140 Y163.425 E9.1791
G1 X147.511 Y163.002 E9.2169
G1 X147.399 Y162.918 E9.2239
G1 X146.817 Y162.433 E9.2617
G1 X146.714 Y162.337 E9.2687
G1 X146.185 Y161.795 E9.3065
G1 X146.093 Y161.689 E9.3135
G1 X145.622 Y161.095 E9.3513
G1 X145.541 Y160.981 E9.3583
G1 X145.135 Y160.341 E9.3961
G1 X145.066 Y160.220 E9.4031
G1 X144.727 Y159.542 E9.4409
G1 X144.671 Y159.413 E9.4479
G1 X144.403 Y158.704 E9.4857
G1 X144.361 Y158.571 E9.4927
G1 X144.168 Y157.838 E9.5305
G1 X144.139 Y157.701 E9.5375
G1 X144.022 Y156.952 E9.5753
G1 X144.008 Y156.812 E9.5823
G1 X143.969 Y156.055 E9.6201
G1 X143.969 Y155.915 E9.6271
G1 X144.008 Y155.159 E9.6649
G1 X144.022 Y155.019 E9.6719
G1 X144.139 Y154.270 E9.7097
G1 X144.168 Y154.133 E9.7167
G1 X144.361 Y153.400 E9.7545
G1 X144.403 Y153.267 E9.7615
G1 X144.671 Y152.558 E9.7993
G1 X144.727 Y152.429 E9.8063
G1 X145.066 Y151.751 E9.8441
G1 X145.135 Y151.629 E9.8511
G1 X145.541 Y150.990 E9.8889
G1 X145.623 Y150.876 E9.8959
G1 X146.093 Y150.282 E9.9337
G1 X146.185 Y150.176 E9.9407
G1 X146.714 Y149.634 E9.9785
G1 X146.817 Y149.538 E9.9855
G1 X147.399 Y149.053 E10.0233
G1 X147.511 Y148.969 E10.0303
G1 X147.655 Y148.872 E10.0389
G1 X147.655 Y147.573 E10.1038
G1 X130.614 Y147.573 E10.9539
G1 X130.296 Y147.535 E10.9699
G1 X129.645 Y147.379 E11.0033
G1 X129.071 Y147.086 E11.0354
G1 X128.398 Y146.512 E11.0796
G1 X127.980 Y145.886 E11.1171
G1 X127.722 Y145.090 E11.1589
G1 X127.655 Y144.667 E11.1803
G1 X127.655 Y141.726 E11.3270
G1 X128.279 Y141.102 E11.3710
G1 X127.642 Y140.457 E11.4162
G1 X127.679 Y137.175 E11.5800
G1 X127.945 Y136.372 E11.6222
G1 X128.592 Y135.482 E11.6771
G1 X129.289 Y134.975 E11.7201
G1 X130.138 Y134.700 E11.7646
G1 X130.561 Y134.633 E11.7860
G1 X132.655 Y134.633 E11.8904
G1 X132.655 Y133.573 E11.9433
G1 X77.295 Y133.573 E14.7052
G1 X77.295 Y134.633 E14.7581
G1 X79.389 Y134.633 E14.8626
G1 X79.812 Y134.700 E14.8840
G1 X80.660 Y134.975 E14.9285
G1 X81.357 Y135.482 E14.9715
G1 X81.998 Y136.363 E15.0258
G1 X82.263 Y137.144 E15.0669
G1 X82.297 Y138.404 E15.1299
G1 X82.281 Y138.654 E15.1424
G1 X82.187 Y139.245 E15.1722
G1 X82.100 Y139.554 E15.1882
G1 X81.917 Y139.996 E15.2121
G1 X81.760 Y140.276 E15.2281
G1 X81.356 Y140.832 E15.2624
G1 X81.077 Y141.111 E15.2821
G1 X81.458 Y141.492 E15.3090
G1 X81.709 Y141.838 E15.3303
G1 X82.021 Y142.449 E15.3645
G1 X82.132 Y142.748 E15.3804
G1 X82.242 Y143.204 E15.4038
G1 X82.280 Y143.502 E15.4188
G1 X82.298 Y144.633 E15.4753
G1 X82.231 Y145.079 E15.4978
G1 X81.969 Y145.886 E15.5401
G1 X81.551 Y146.512 E15.5776
G1 X80.878 Y147.086 E15.6218
G1 X80.304 Y147.379 E15.6539
G1 X79.653 Y147.535 E15.6873
G1 X79.335 Y147.573 E15.7033
G1 X62.295 Y147.573 E16.5534
G1 X62.295 Y149.359 E16.6426
G1 X62.927 Y149.739 E16.6794
G1 X63.043 Y149.817 E16.6864
G1 X63.649 Y150.272 E16.7242
G1 X63.757 Y150.362 E16.7312
G1 X64.313 Y150.877 E16.7690
G1 X64.411 Y150.977 E16.7760
G1 X64.911 Y151.546 E16.8138
G1 X64.998 Y151.656 E16.8208
G1 X65.437 Y152.274 E16.8586
G1 X65.513 Y152.392 E16.8656
G1 X65.886 Y153.051 E16.9034
G1 X65.948 Y153.177 E16.9104
G1 X66.252 Y153.871 E16.9482
G1 X66.301 Y154.002 E16.9552
G1 X66.532 Y154.724 E16.9930
G1 X66.568 Y154.860 E17.0000
G1 X66.723 Y155.602 E17.0378
G1 X66.744 Y155.740 E17.0448
G1 X66.822 Y156.494 E17.0826
G1 X66.829 Y156.634 E17.0896
G1 X66.829 Y157.392 E17.1274
G1 X66.822 Y157.532 E17.1344
G1 X66.744 Y158.285 E17.1722
G1 X66.723 Y158.424 E17.1792
G1 X66.568 Y159.166 E17.2170
G1 X66.532 Y159.301 E17.2240
G1 X66.301 Y160.023 E17.2618
G1 X66.252 Y160.154 E17.2688
G1 X65.948 Y160.849 E17.3066
G1 X65.886 Y160.974 E17.3136
G1 X65.513 Y161.634 E17.3514
G1 X65.437 Y161.752 E17.3584
G1 X64.998 Y162.370 E17.3962
G1 X64.911 Y162.479 E17.4032
G1 X64.411 Y163.049 E17.4410
G1 X64.313 Y163.149 E17.4480
G1 X63.757 Y163.664 E17.4858
G1 X63.649 Y163.754 E17.4928
G1 X63.043 Y164.208 E17.5306
G1 X62.927 Y164.287 E17.5376
G1 X62.277 Y164.677 E17.5754
G1 X62.154 Y164.743 E17.5824
G1 X61.467 Y165.064 E17.6202
G1 X61.337 Y165.117 E17.6272
G1 X60.622 Y165.366 E17.6650
G1 X60.487 Y165.405 E17.6720
G1 X59.749 Y165.579 E17.7098
G1 X59.612 Y165.604 E17.7168
G1 X58.860 Y165.701 E17.7546
G1 X58.720 Y165.712 E17.7616
G1 X57.963 Y165.732 E17.7994
G1 X57.823 Y165.728 E17.8064
G1 X57.067 Y165.670 E17.8442
G1 X56.928 Y165.652 E17.8512
G1 X56.182 Y165.516 E17.8890
G1 X56.046 Y165.483 E17.8960
G1 X55.318 Y165.272 E17.9338
G1 X55.186 Y165.226 E17.9408
G1 X54.484 Y164.940 E17.9786
G1 X54.357 Y164.881 E17.9856
G1 X53.688 Y164.525 E18.0234
G1 X53.568 Y164.452 E18.0304
G1 X52.939 Y164.029 E18.0682
G1 X52.827 Y163.945 E18.0752
G1 X52.245 Y163.460 E18.1130
