; G-Code generated by Simplify3D(R) Version 4.1.2
; Dec 1, 2022 at 11:46:09 AM
; Settings Summary
;   processName,Process1
;   applyToModels,first,Pad,Pad(2),Pad(3),Pad(4)
;   profileName,ABS
;   profileVersion,2019-11-09 17:57:01
;   baseProfile,Default
;   printMaterial,ABS
;   printQuality,Medium
;   printExtruders,
;   extruderName,Primary Extruder
;   extruderToolheadNumber,0
;   extruderDiameter,0.35
;   extruderAutoWidth,0
;   extruderWidth,0.48
;   extrusionMultiplier,1
;   extruderUseRetract,1
;   extruderRetractionDistance,3.6
;   extruderExtraRestartDistance,0
;   extruderRetractionZLift,0
;   extruderRetractionSpeed,1800
;   extruderUseCoasting,0
;   extruderCoastingDistance,0
;   extruderUseWipe,0
;   extruderWipeDistance,5
;   primaryExtruder,0
;   layerHeight,0.2
;   topSolidLayers,3
;   bottomSolidLayers,3
;   perimeterOutlines,3
;   printPerimetersInsideOut,1
;   startPointOption,2
;   startPointOriginX,0
;   startPointOriginY,0
;   sequentialIslands,0
;   spiralVaseMode,0
;   firstLayerHeightPercentage,125
;   firstLayerWidthPercentage,100
;   firstLayerUnderspeed,0.5
;   useRaft,0
;   raftExtruder,0
;   raftTopLayers,1
;   raftBaseLayers,1
;   raftOffset,5
;   raftSeparationDistance,0.2
;   raftTopInfill,60
;   aboveRaftSpeedMultiplier,0.3
;   useSkirt,1
;   skirtExtruder,0
;   skirtLayers,1
;   skirtOutlines,2
;   skirtOffset,2
;   usePrimePillar,0
;   primePillarExtruder,999
;   primePillarWidth,12
;   primePillarLocation,7
;   primePillarSpeedMultiplier,1
;   useOozeShield,0
;   oozeShieldExtruder,999
;   oozeShieldOffset,2
;   oozeShieldOutlines,1
;   oozeShieldSidewallShape,1
;   oozeShieldSidewallAngle,30
;   oozeShieldSpeedMultiplier,1
;   infillExtruder,0
;   internalInfillPattern,Rectilinear
;   externalInfillPattern,Rectilinear
;   infillPercentage,40
;   outlineOverlapPercentage,15
;   infillExtrusionWidthPercentage,100
;   minInfillLength,5
;   infillLayerInterval,1
;   internalInfillAngles,45,-45
;   overlapInternalInfillAngles,0
;   externalInfillAngles,45,-45
;   generateSupport,0
;   supportExtruder,0
;   supportInfillPercentage,8
;   supportExtraInflation,2
;   supportBaseLayers,0
;   denseSupportExtruder,0
;   denseSupportLayers,1
;   denseSupportInfillPercentage,60
;   supportLayerInterval,1
;   supportHorizontalPartOffset,0.8
;   supportUpperSeparationLayers,1
;   supportLowerSeparationLayers,1
;   supportType,0
;   supportGridSpacing,1
;   maxOverhangAngle,50
;   supportAngles,45,-45
;   temperatureName,Primary Extruder,Bed
;   temperatureNumber,0,1
;   temperatureSetpointCount,1,2
;   temperatureSetpointLayers,1,1,5
;   temperatureSetpointTemperatures,234,110,105
;   temperatureStabilizeAtStartup,1,1
;   temperatureHeatedBed,0,1
;   fanLayers,1,3
;   fanSpeeds,0,80
;   blipFanToFullPower,1
;   adjustSpeedForCooling,1
;   minSpeedLayerTime,10
;   minCoolingSpeedSlowdown,40
;   increaseFanForCooling,1
;   minFanLayerTime,15
;   maxCoolingFanSpeed,100
;   increaseFanForBridging,1
;   bridgingFanSpeed,100
;   use5D,1
;   relativeEdistances,0
;   allowEaxisZeroing,1
;   independentExtruderAxes,0
;   includeM10123,0
;   stickySupport,1
;   applyToolheadOffsets,0
;   gcodeXoffset,0
;   gcodeYoffset,0
;   gcodeZoffset,21.1
;   overrideMachineDefinition,0
;   machineTypeOverride,0
;   strokeXoverride,200
;   strokeYoverride,200
;   strokeZoverride,200
;   originOffsetXoverride,0
;   originOffsetYoverride,0
;   originOffsetZoverride,0
;   homeXdirOverride,-1
;   homeYdirOverride,-1
;   homeZdirOverride,-1
;   flipXoverride,1
;   flipYoverride,-1
;   flipZoverride,1
;   toolheadOffsets,0,0|0,0|0,0|0,0|0,0|0,0
;   overrideFirmwareConfiguration,0
;   firmwareTypeOverride,RepRap (Marlin/Repetier/Sprinter)
;   GPXconfigOverride,r2
;   baudRateOverride,115200
;   overridePrinterModels,0
;   printerModelsOverride
;   startingGcode,M355 ; Light,G28 ; home all axes
;   layerChangeGcode,
;   retractionGcode,
;   toolChangeGcode,
;   endingGcode,M104 S0 ; turn off extruder,M140 S0 ; turn off bed,G92 E0,G1 E-5 ; Retract,G28,M356,M106 S0,M84 ; disable motors
;   exportFileFormat,gcode
;   celebration,0
;   celebrationSong,Random Song
;   postProcessing,
;   defaultSpeed,5200
;   outlineUnderspeed,0.5
;   solidInfillUnderspeed,0.8
;   supportUnderspeed,0.8
;   rapidXYspeed,5800
;   rapidZspeed,1000
;   minBridgingArea,50
;   bridgingExtraInflation,0.2
;   bridgingExtrusionMultiplier,1.1
;   bridgingSpeedMultiplier,0.4
;   useFixedBridgingAngle,0
;   fixedBridgingAngle,0
;   applyBridgingToPerimeters,0
;   filamentDiameters,1.75|1.75|1.75|1.75|1.75|1.75
;   filamentPricesPerKg,250|250|250|250|250|250
;   filamentDensities,1.25|1.25|1.25|1.25|1.25|1.25
;   useMinPrintHeight,0
;   minPrintHeight,5.3
;   useMaxPrintHeight,0
;   maxPrintHeight,8
;   useDiaphragm,0
;   diaphragmLayerInterval,20
;   robustSlicing,1
;   mergeAllIntoSolid,0
;   onlyRetractWhenCrossingOutline,1
;   retractBetweenLayers,1
;   useRetractionMinTravel,1
;   retractionMinTravel,3
;   retractWhileWiping,0
;   onlyWipeOutlines,1
;   avoidCrossingOutline,1
;   maxMovementDetourFactor,3
;   toolChangeRetractionDistance,12
;   toolChangeExtraRestartDistance,-0.5
;   toolChangeRetractionSpeed,600
;   externalThinWallType,1
;   internalThinWallType,2
;   thinWallAllowedOverlapPercentage,25
;   singleExtrusionMinLength,1
;   singleExtrusionMinPrintingWidthPercentage,50
;   singleExtrusionMaxPrintingWidthPercentage,200
;   singleExtrusionEndpointExtension,0.2
;   horizontalSizeCompensation,0
G90
M82
M106 S0
M140 S110
M190 S110
M104 S234 T0
M109 S234 T0
M355 ; Light
G28 ; home all axes
; process Process1
; layer 1, Z = 21.350
T0
G92 E0.0000
G1 E-3.6000 F1800
; feature skirt
; tool H0.250 W0.480
G1 Z21.350 F1000
G1 X43.671 Y88.512 F5800
G1 E0.0000 F1800
G92 E0.0000
G1 X44.340 Y88.156 E0.0378 F2600
G1 X44.467 Y88.096 E0.0448
G1 X45.169 Y87.811 E0.0826
G1 X45.301 Y87.765 E0.0896
G1 X46.029 Y87.553 E0.1274
G1 X46.165 Y87.521 E0.1344
G1 X46.911 Y87.385 E0.1722
G1 X47.050 Y87.367 E0.1792
G1 X47.806 Y87.308 E0.2170
G1 X47.946 Y87.305 E0.2240
G1 X48.703 Y87.324 E0.2618
G1 X48.843 Y87.335 E0.2688
G1 X49.594 Y87.432 E0.3066
G1 X49.732 Y87.457 E0.3136
G1 X50.470 Y87.632 E0.3514
G1 X50.604 Y87.671 E0.3584
G1 X51.320 Y87.920 E0.3962
G1 X51.450 Y87.972 E0.4032
G1 X52.136 Y88.294 E0.4410
G1 X52.260 Y88.360 E0.4480
G1 X52.910 Y88.750 E0.4858
G1 X53.026 Y88.828 E0.4928
G1 X53.632 Y89.283 E0.5306
G1 X53.740 Y89.373 E0.5376
G1 X54.296 Y89.887 E0.5754
G1 X54.394 Y89.988 E0.5824
G1 X54.894 Y90.557 E0.6202
G1 X54.981 Y90.667 E0.6272
G1 X55.420 Y91.284 E0.6650
G1 X55.495 Y91.403 E0.6720
G1 X55.869 Y92.062 E0.7098
G1 X55.931 Y92.188 E0.7168
G1 X56.235 Y92.882 E0.7546
G1 X56.284 Y93.013 E0.7616
G1 X56.515 Y93.735 E0.7994
G1 X56.550 Y93.871 E0.8064
G1 X56.705 Y94.612 E0.8442
G1 X56.727 Y94.751 E0.8512
G1 X56.752 Y94.993 E0.8634
G1 X58.688 Y96.929 E0.9999
G1 X61.435 Y96.929 E1.1370
G1 X63.520 Y94.843 E1.2841
G1 X64.520 Y94.429 E1.3381
G1 X134.402 Y94.429 E4.8246
G1 X135.402 Y94.843 E4.8785
G1 X137.488 Y96.929 E5.0257
G1 X140.235 Y96.929 E5.1627
G1 X140.600 Y96.564 E5.1885
G1 X140.563 Y95.863 E5.2235
G1 X140.563 Y95.723 E5.2305
G1 X140.602 Y94.966 E5.2683
G1 X140.617 Y94.826 E5.2753
G1 X140.733 Y94.078 E5.3131
G1 X140.762 Y93.940 E5.3201
G1 X140.955 Y93.208 E5.3579
G1 X140.998 Y93.074 E5.3649
G1 X141.265 Y92.365 E5.4027
G1 X141.321 Y92.237 E5.4097
G1 X141.660 Y91.559 E5.4475
G1 X141.729 Y91.437 E5.4545
G1 X142.136 Y90.797 E5.4923
G1 X142.217 Y90.683 E5.4993
G1 X142.687 Y90.089 E5.5371
G1 X142.780 Y89.983 E5.5441
G1 X143.309 Y89.441 E5.5819
G1 X143.412 Y89.346 E5.5889
G1 X143.994 Y88.860 E5.6267
G1 X144.106 Y88.776 E5.6337
G1 X144.734 Y88.353 E5.6715
G1 X144.855 Y88.281 E5.6785
G1 X145.524 Y87.925 E5.7163
G1 X145.650 Y87.865 E5.7233
G1 X146.352 Y87.580 E5.7611
G1 X146.485 Y87.534 E5.7681
G1 X147.212 Y87.322 E5.8059
G1 X147.349 Y87.290 E5.8129
G1 X148.094 Y87.154 E5.8507
G1 X148.233 Y87.136 E5.8577
G1 X148.989 Y87.077 E5.8955
G1 X149.129 Y87.074 E5.9025
G1 X149.887 Y87.093 E5.9403
G1 X150.026 Y87.104 E5.9473
G1 X150.778 Y87.201 E5.9851
G1 X150.916 Y87.226 E5.9921
G1 X151.653 Y87.401 E6.0299
G1 X151.788 Y87.440 E6.0369
G1 X152.504 Y87.689 E6.0747
G1 X152.633 Y87.742 E6.0817
G1 X153.320 Y88.063 E6.1195
G1 X153.443 Y88.129 E6.1265
G1 X154.093 Y88.519 E6.1643
G1 X154.209 Y88.597 E6.1713
G1 X154.816 Y89.052 E6.2091
G1 X154.923 Y89.142 E6.2161
G1 X155.479 Y89.656 E6.2539
G1 X155.577 Y89.757 E6.2609
G1 X156.077 Y90.326 E6.2987
G1 X156.164 Y90.436 E6.3057
G1 X156.604 Y91.054 E6.3435
G1 X156.679 Y91.172 E6.3505
G1 X157.052 Y91.831 E6.3883
G1 X157.115 Y91.957 E6.3953
G1 X157.418 Y92.651 E6.4331
G1 X157.468 Y92.782 E6.4401
G1 X157.698 Y93.504 E6.4779
G1 X157.734 Y93.640 E6.4849
G1 X157.889 Y94.381 E6.5227
G1 X157.910 Y94.520 E6.5297
G1 X157.988 Y95.274 E6.5675
G1 X157.995 Y95.414 E6.5745
G1 X157.995 Y96.172 E6.6123
G1 X157.988 Y96.311 E6.6193
G1 X157.910 Y97.065 E6.6571
G1 X157.889 Y97.204 E6.6641
G1 X157.734 Y97.946 E6.7019
G1 X157.698 Y98.081 E6.7089
G1 X157.468 Y98.803 E6.7467
G1 X157.418 Y98.934 E6.7537
G1 X157.115 Y99.629 E6.7915
G1 X157.052 Y99.754 E6.7985
G1 X156.679 Y100.414 E6.8363
G1 X156.604 Y100.532 E6.8433
G1 X156.164 Y101.149 E6.8811
G1 X156.077 Y101.259 E6.8881
G1 X155.577 Y101.829 E6.9259
G1 X155.479 Y101.929 E6.9329
G1 X154.923 Y102.444 E6.9707
G1 X154.816 Y102.533 E6.9777
G1 X154.209 Y102.988 E7.0155
G1 X154.093 Y103.067 E7.0225
G1 X153.443 Y103.457 E7.0603
G1 X153.320 Y103.523 E7.0673
G1 X152.633 Y103.844 E7.1051
G1 X152.504 Y103.897 E7.1121
G1 X151.788 Y104.146 E7.1499
G1 X151.653 Y104.185 E7.1569
G1 X151.581 Y104.202 E7.1606
G1 X151.581 Y118.765 E7.8872
G1 X151.985 Y119.008 E7.9107
G1 X152.102 Y119.086 E7.9177
G1 X152.708 Y119.541 E7.9555
G1 X152.815 Y119.631 E7.9625
G1 X153.372 Y120.146 E8.0003
G1 X153.469 Y120.246 E8.0073
G1 X153.970 Y120.815 E8.0451
G1 X154.057 Y120.925 E8.0521
G1 X154.496 Y121.543 E8.0899
G1 X154.571 Y121.661 E8.0969
G1 X154.944 Y122.321 E8.1347
G1 X155.007 Y122.446 E8.1417
G1 X155.310 Y123.140 E8.1795
G1 X155.360 Y123.271 E8.1865
G1 X155.590 Y123.993 E8.2243
G1 X155.626 Y124.129 E8.2313
G1 X155.781 Y124.871 E8.2691
G1 X155.802 Y125.009 E8.2761
G1 X155.880 Y125.763 E8.3139
G1 X155.888 Y125.903 E8.3209
G1 X155.888 Y126.661 E8.3587
G1 X155.880 Y126.801 E8.3657
G1 X155.802 Y127.555 E8.4035
G1 X155.781 Y127.693 E8.4105
G1 X155.626 Y128.435 E8.4483
G1 X155.590 Y128.570 E8.4553
G1 X155.360 Y129.292 E8.4931
G1 X155.310 Y129.423 E8.5001
G1 X155.007 Y130.118 E8.5379
G1 X154.944 Y130.243 E8.5449
G1 X154.571 Y130.903 E8.5827
G1 X154.496 Y131.021 E8.5897
G1 X154.057 Y131.639 E8.6275
G1 X153.970 Y131.749 E8.6345
G1 X153.469 Y132.318 E8.6723
G1 X153.371 Y132.418 E8.6793
G1 X152.815 Y132.933 E8.7171
G1 X152.708 Y133.023 E8.7241
G1 X152.102 Y133.478 E8.7619
G1 X151.985 Y133.556 E8.7689
G1 X151.336 Y133.946 E8.8067
G1 X151.212 Y134.012 E8.8137
G1 X150.525 Y134.333 E8.8515
G1 X150.396 Y134.386 E8.8585
G1 X149.680 Y134.635 E8.8963
G1 X149.545 Y134.674 E8.9033
G1 X148.808 Y134.848 E8.9411
G1 X148.670 Y134.873 E8.9481
G1 X147.918 Y134.970 E8.9859
G1 X147.779 Y134.981 E8.9929
G1 X147.021 Y135.001 E9.0307
G1 X146.881 Y134.997 E9.0377
G1 X146.125 Y134.939 E9.0755
G1 X145.986 Y134.921 E9.0825
G1 X145.241 Y134.785 E9.1203
G1 X145.104 Y134.753 E9.1273
G1 X144.377 Y134.541 E9.1651
G1 X144.244 Y134.495 E9.1721
G1 X143.542 Y134.209 E9.2099
G1 X143.416 Y134.150 E9.2169
G1 X142.747 Y133.794 E9.2547
G1 X142.627 Y133.722 E9.2617
G1 X141.998 Y133.299 E9.2995
G1 X141.886 Y133.214 E9.3065
G1 X141.304 Y132.729 E9.3443
G1 X141.201 Y132.634 E9.3513
G1 X140.672 Y132.091 E9.3891
G1 X140.579 Y131.986 E9.3961
G1 X140.109 Y131.392 E9.4339
G1 X140.028 Y131.277 E9.4409
G1 X139.621 Y130.638 E9.4787
G1 X139.552 Y130.516 E9.4857
G1 X139.213 Y129.838 E9.5235
G1 X139.157 Y129.710 E9.5305
G1 X138.890 Y129.001 E9.5683
G1 X138.847 Y128.867 E9.5753
G1 X138.654 Y128.134 E9.6131
G1 X138.626 Y127.997 E9.6201
G1 X138.509 Y127.248 E9.6579
G1 X138.495 Y127.109 E9.6649
G1 X138.456 Y126.352 E9.7027
G1 X138.456 Y126.212 E9.7097
G1 X138.495 Y125.455 E9.7475
G1 X138.509 Y125.316 E9.7545
G1 X138.626 Y124.567 E9.7923
G1 X138.654 Y124.430 E9.7993
G1 X138.847 Y123.697 E9.8371
G1 X138.890 Y123.563 E9.8441
G1 X139.157 Y122.854 E9.8819
G1 X139.213 Y122.726 E9.8889
G1 X139.552 Y122.048 E9.9267
G1 X139.621 Y121.926 E9.9337
G1 X140.028 Y121.286 E9.9715
G1 X140.109 Y121.172 E9.9785
G1 X140.579 Y120.578 E10.0163
G1 X140.672 Y120.473 E10.0233
G1 X141.201 Y119.930 E10.0611
G1 X141.304 Y119.835 E10.0681
G1 X141.886 Y119.349 E10.1059
G1 X141.998 Y119.265 E10.1129
G1 X142.141 Y119.169 E10.1216
G1 X142.141 Y117.869 E10.1864
G1 X125.101 Y117.869 E11.0365
G1 X124.782 Y117.831 E11.0525
G1 X124.132 Y117.675 E11.0859
G1 X123.558 Y117.383 E11.1180
G1 X122.885 Y116.808 E11.1622
G1 X122.467 Y116.182 E11.1997
G1 X122.208 Y115.386 E11.2415
G1 X122.141 Y114.963 E11.2629
G1 X122.141 Y112.022 E11.4096
G1 X122.766 Y111.398 E11.4536
G1 X122.129 Y110.754 E11.4988
G1 X122.166 Y107.472 E11.6626
G1 X122.432 Y106.669 E11.7048
G1 X123.079 Y105.778 E11.7597
G1 X123.776 Y105.272 E11.8027
G1 X124.624 Y104.996 E11.8472
G1 X125.047 Y104.929 E11.8686
G1 X127.141 Y104.929 E11.9731
G1 X127.141 Y103.869 E12.0259
G1 X71.781 Y103.869 E14.7879
G1 X71.781 Y104.929 E14.8407
G1 X73.875 Y104.929 E14.9452
G1 X74.298 Y104.996 E14.9666
G1 X75.147 Y105.272 E15.0111
G1 X75.844 Y105.778 E15.0541
G1 X76.484 Y106.660 E15.1084
G1 X76.750 Y107.440 E15.1496
G1 X76.784 Y108.701 E15.2125
G1 X76.767 Y108.951 E15.2250
G1 X76.665 Y109.595 E15.2575
G1 X76.533 Y110.002 E15.2789
G1 X76.197 Y110.662 E15.3158
G1 X75.945 Y111.009 E15.3372
G1 X75.555 Y111.399 E15.3647
G1 X75.944 Y111.788 E15.3922
G1 X76.196 Y112.135 E15.4136
G1 X76.507 Y112.745 E15.4478
G1 X76.618 Y113.045 E15.4637
G1 X76.728 Y113.500 E15.4871
G1 X76.766 Y113.798 E15.5021
G1 X76.785 Y114.930 E15.5585
G1 X76.718 Y115.375 E15.5810
G1 X76.455 Y116.182 E15.6234
G1 X76.037 Y116.808 E15.6609
G1 X75.364 Y117.383 E15.7050
G1 X74.791 Y117.675 E15.7372
G1 X74.140 Y117.831 E15.7705
G1 X73.822 Y117.869 E15.7865
G1 X56.781 Y117.869 E16.6367
G1 X56.781 Y119.656 E16.7258
G1 X57.414 Y120.035 E16.7626
G1 X57.530 Y120.114 E16.7696
G1 X58.136 Y120.568 E16.8074
G1 X58.244 Y120.658 E16.8144
G1 X58.800 Y121.173 E16.8522
G1 X58.898 Y121.273 E16.8592
G1 X59.398 Y121.843 E16.8970
G1 X59.485 Y121.952 E16.9040
G1 X59.924 Y122.570 E16.9418
G1 X59.999 Y122.688 E16.9488
G1 X60.372 Y123.348 E16.9866
G1 X60.435 Y123.473 E16.9936
G1 X60.739 Y124.168 E17.0314
G1 X60.788 Y124.299 E17.0384
G1 X61.018 Y125.021 E17.0762
G1 X61.054 Y125.156 E17.0832
G1 X61.209 Y125.898 E17.1210
G1 X61.231 Y126.036 E17.1280
G1 X61.309 Y126.790 E17.1658
G1 X61.316 Y126.930 E17.1728
G1 X61.316 Y127.688 E17.2106
G1 X61.309 Y127.828 E17.2176
G1 X61.231 Y128.582 E17.2554
G1 X61.209 Y128.720 E17.2624
G1 X61.054 Y129.462 E17.3002
G1 X61.018 Y129.598 E17.3072
G1 X60.788 Y130.320 E17.3450
G1 X60.739 Y130.451 E17.3520
G1 X60.435 Y131.145 E17.3898
G1 X60.372 Y131.271 E17.3968
G1 X59.999 Y131.930 E17.4346
G1 X59.924 Y132.048 E17.4416
G1 X59.485 Y132.666 E17.4794
G1 X59.398 Y132.776 E17.4864
G1 X58.898 Y133.345 E17.5242
G1 X58.800 Y133.445 E17.5312
G1 X58.244 Y133.960 E17.5690
G1 X58.136 Y134.050 E17.5760
G1 X57.530 Y134.505 E17.6138
G1 X57.414 Y134.583 E17.6208
G1 X56.764 Y134.973 E17.6586
G1 X56.640 Y135.039 E17.6656
G1 X55.954 Y135.360 E17.7034
G1 X55.824 Y135.413 E17.7104
G1 X55.108 Y135.662 E17.7482
G1 X54.974 Y135.701 E17.7552
G1 X54.236 Y135.875 E17.7930
G1 X54.098 Y135.900 E17.8000
G1 X53.347 Y135.998 E17.8378
G1 X53.207 Y136.009 E17.8448
G1 X52.449 Y136.028 E17.8826
G1 X52.309 Y136.025 E17.8896
G1 X51.554 Y135.966 E17.9274
G1 X51.415 Y135.948 E17.9344
G1 X50.669 Y135.812 E17.9722
G1 X50.533 Y135.780 E17.9792
G1 X49.805 Y135.568 E18.0170
G1 X49.673 Y135.522 E18.0240
G1 X48.971 Y135.237 E18.0618
G1 X48.844 Y135.177 E18.0688
G1 X48.175 Y134.821 E18.1066
G1 X48.055 Y134.749 E18.1136
G1 X47.426 Y134.326 E18.1514
G1 X47.314 Y134.242 E18.1584
G1 X46.732 Y133.756 E18.1962
G1 X46.629 Y133.661 E18.2032
G1 X46.100 Y133.118 E18.2410
G1 X46.008 Y133.013 E18.2480
