; G-Code generated by Simplify3D(R) Version 4.1.2
; Dec 5, 2022 at 10:08:08 AM
; Settings Summary
;   processName,Process1
;   applyToModels,Pad,Pad(2),Pad(3),Pad(4),main-t
;   profileName,ABS
;   profileVersion,2019-11-09 17:57:01
;   baseProfile,Default
;   printMaterial,ABS
;   printQuality,Medium
;   printExtruders,
;   extruderName,Primary Extruder
;   extruderToolheadNumber,0
;   extruderDiameter,0.35
;   extruderAutoWidth,0
;   extruderWidth,0.48
;   extrusionMultiplier,1
;   extruderUseRetract,1
;   extruderRetractionDistance,3.6
;   extruderExtraRestartDistance,0
;   extruderRetractionZLift,0
;   extruderRetractionSpeed,1800
;   extruderUseCoasting,0
;   extruderCoastingDistance,0
;   extruderUseWipe,0
;   extruderWipeDistance,5
;   primaryExtruder,0
;   layerHeight,0.2
;   topSolidLayers,3
;   bottomSolidLayers,3
;   perimeterOutlines,3
;   printPerimetersInsideOut,1
;   startPointOption,2
;   startPointOriginX,0
;   startPointOriginY,0
;   sequentialIslands,0
;   spiralVaseMode,0
;   firstLayerHeightPercentage,125
;   firstLayerWidthPercentage,100
;   firstLayerUnderspeed,0.5
;   useRaft,0
;   raftExtruder,0
;   raftTopLayers,1
;   raftBaseLayers,1
;   raftOffset,5
;   raftSeparationDistance,0.2
;   raftTopInfill,60
;   aboveRaftSpeedMultiplier,0.3
;   useSkirt,1
;   skirtExtruder,0
;   skirtLayers,1
;   skirtOutlines,2
;   skirtOffset,2
;   usePrimePillar,0
;   primePillarExtruder,999
;   primePillarWidth,12
;   primePillarLocation,7
;   primePillarSpeedMultiplier,1
;   useOozeShield,0
;   oozeShieldExtruder,999
;   oozeShieldOffset,2
;   oozeShieldOutlines,1
;   oozeShieldSidewallShape,1
;   oozeShieldSidewallAngle,30
;   oozeShieldSpeedMultiplier,1
;   infillExtruder,0
;   internalInfillPattern,Rectilinear
;   externalInfillPattern,Rectilinear
;   infillPercentage,40
;   outlineOverlapPercentage,15
;   infillExtrusionWidthPercentage,100
;   minInfillLength,5
;   infillLayerInterval,1
;   internalInfillAngles,45,-45
;   overlapInternalInfillAngles,0
;   externalInfillAngles,45,-45
;   generateSupport,0
;   supportExtruder,0
;   supportInfillPercentage,8
;   supportExtraInflation,2
;   supportBaseLayers,0
;   denseSupportExtruder,0
;   denseSupportLayers,1
;   denseSupportInfillPercentage,60
;   supportLayerInterval,1
;   supportHorizontalPartOffset,0.8
;   supportUpperSeparationLayers,1
;   supportLowerSeparationLayers,1
;   supportType,0
;   supportGridSpacing,1
;   maxOverhangAngle,50
;   supportAngles,45,-45
;   temperatureName,Primary Extruder,Bed
;   temperatureNumber,0,1
;   temperatureSetpointCount,1,2
;   temperatureSetpointLayers,1,1,5
;   temperatureSetpointTemperatures,234,110,105
;   temperatureStabilizeAtStartup,1,1
;   temperatureHeatedBed,0,1
;   fanLayers,1,3
;   fanSpeeds,0,80
;   blipFanToFullPower,1
;   adjustSpeedForCooling,1
;   minSpeedLayerTime,10
;   minCoolingSpeedSlowdown,40
;   increaseFanForCooling,1
;   minFanLayerTime,15
;   maxCoolingFanSpeed,100
;   increaseFanForBridging,1
;   bridgingFanSpeed,100
;   use5D,1
;   relativeEdistances,0
;   allowEaxisZeroing,1
;   independentExtruderAxes,0
;   includeM10123,0
;   stickySupport,1
;   applyToolheadOffsets,0
;   gcodeXoffset,0
;   gcodeYoffset,0
;   gcodeZoffset,21.1
;   overrideMachineDefinition,0
;   machineTypeOverride,0
;   strokeXoverride,200
;   strokeYoverride,200
;   strokeZoverride,200
;   originOffsetXoverride,0
;   originOffsetYoverride,0
;   originOffsetZoverride,0
;   homeXdirOverride,-1
;   homeYdirOverride,-1
;   homeZdirOverride,-1
;   flipXoverride,1
;   flipYoverride,-1
;   flipZoverride,1
;   toolheadOffsets,0,0|0,0|0,0|0,0|0,0|0,0
;   overrideFirmwareConfiguration,0
;   firmwareTypeOverride,RepRap (Marlin/Repetier/Sprinter)
;   GPXconfigOverride,r2
;   baudRateOverride,115200
;   overridePrinterModels,0
;   printerModelsOverride
;   startingGcode,M355 ; Light,G28 ; home all axes
;   layerChangeGcode,
;   retractionGcode,
;   toolChangeGcode,
;   endingGcode,M104 S0 ; turn off extruder,M140 S0 ; turn off bed,G92 E0,G1 E-5 ; Retract,G28,M356,M106 S0,M84 ; disable motors
;   exportFileFormat,gcode
;   celebration,0
;   celebrationSong,Random Song
;   postProcessing,
;   defaultSpeed,5200
;   outlineUnderspeed,0.5
;   solidInfillUnderspeed,0.8
;   supportUnderspeed,0.8
;   rapidXYspeed,5800
;   rapidZspeed,1000
;   minBridgingArea,50
;   bridgingExtraInflation,0.2
;   bridgingExtrusionMultiplier,1.1
;   bridgingSpeedMultiplier,0.4
;   useFixedBridgingAngle,0
;   fixedBridgingAngle,0
;   applyBridgingToPerimeters,0
;   filamentDiameters,1.75|1.75|1.75|1.75|1.75|1.75
;   filamentPricesPerKg,250|250|250|250|250|250
;   filamentDensities,1.25|1.25|1.25|1.25|1.25|1.25
;   useMinPrintHeight,0
;   minPrintHeight,5.3
;   useMaxPrintHeight,0
;   maxPrintHeight,8
;   useDiaphragm,0
;   diaphragmLayerInterval,20
;   robustSlicing,1
;   mergeAllIntoSolid,0
;   onlyRetractWhenCrossingOutline,1
;   retractBetweenLayers,1
;   useRetractionMinTravel,1
;   retractionMinTravel,3
;   retractWhileWiping,0
;   onlyWipeOutlines,1
;   avoidCrossingOutline,1
;   maxMovementDetourFactor,3
;   toolChangeRetractionDistance,12
;   toolChangeExtraRestartDistance,-0.5
;   toolChangeRetractionSpeed,600
;   externalThinWallType,1
;   internalThinWallType,2
;   thinWallAllowedOverlapPercentage,25
;   singleExtrusionMinLength,1
;   singleExtrusionMinPrintingWidthPercentage,50
;   singleExtrusionMaxPrintingWidthPercentage,200
;   singleExtrusionEndpointExtension,0.2
;   horizontalSizeCompensation,0
G90
M82
M106 S0
M140 S110
M190 S110
M104 S234 T0
M109 S234 T0
M355 ; Light
G28 ; home all axes
; process Process1
; layer 1, Z = 21.350
T0
G92 E0.0000
G1 E-3.6000 F1800
; feature skirt
; tool H0.250 W0.480
G1 Z21.350 F1000
G1 X42.278 Y53.914 F5800
G1 E0.0000 F1800
G92 E0.0000
G1 X42.860 Y53.429 E0.0378 F2600
G1 X42.972 Y53.345 E0.0448
G1 X43.601 Y52.922 E0.0826
G1 X43.721 Y52.850 E0.0896
G1 X44.390 Y52.493 E0.1274
G1 X44.517 Y52.434 E0.1344
G1 X45.219 Y52.148 E0.1722
G1 X45.351 Y52.102 E0.1792
G1 X46.079 Y51.891 E0.2170
G1 X46.215 Y51.858 E0.2240
G1 X46.961 Y51.723 E0.2618
G1 X47.100 Y51.705 E0.2688
G1 X47.855 Y51.646 E0.3066
G1 X47.996 Y51.643 E0.3136
G1 X48.753 Y51.662 E0.3514
G1 X48.893 Y51.673 E0.3584
G1 X49.644 Y51.770 E0.3962
G1 X49.782 Y51.795 E0.4032
G1 X50.520 Y51.969 E0.4410
G1 X50.654 Y52.008 E0.4480
G1 X51.370 Y52.258 E0.4858
G1 X51.500 Y52.310 E0.4928
G1 X52.186 Y52.632 E0.5306
G1 X52.310 Y52.697 E0.5376
G1 X52.960 Y53.088 E0.5754
G1 X53.076 Y53.166 E0.5824
G1 X53.682 Y53.621 E0.6202
G1 X53.790 Y53.710 E0.6272
G1 X54.346 Y54.225 E0.6650
G1 X54.444 Y54.326 E0.6720
G1 X54.944 Y54.895 E0.7098
G1 X55.031 Y55.005 E0.7168
G1 X55.470 Y55.622 E0.7546
G1 X55.545 Y55.741 E0.7616
G1 X55.919 Y56.400 E0.7994
G1 X55.981 Y56.525 E0.8064
G1 X56.285 Y57.220 E0.8442
G1 X56.334 Y57.351 E0.8512
G1 X56.565 Y58.073 E0.8890
G1 X56.600 Y58.208 E0.8960
G1 X56.755 Y58.950 E0.9338
G1 X56.777 Y59.089 E0.9408
G1 X56.855 Y59.843 E0.9786
G1 X56.862 Y59.982 E0.9856
G1 X56.862 Y60.740 E1.0234
G1 X56.860 Y60.775 E1.0251
G1 X58.080 Y61.994 E1.1112
G1 X60.826 Y61.994 E1.2482
G1 X62.912 Y59.908 E1.3954
G1 X63.912 Y59.494 E1.4493
G1 X133.794 Y59.494 E4.9358
G1 X134.794 Y59.908 E4.9898
G1 X136.880 Y61.994 E5.1369
G1 X139.626 Y61.994 E5.2740
G1 X141.185 Y60.435 E5.3839
G1 X141.197 Y60.322 E5.3896
G1 X141.313 Y59.573 E5.4274
G1 X141.342 Y59.436 E5.4344
G1 X141.535 Y58.703 E5.4722
G1 X141.577 Y58.569 E5.4792
G1 X141.845 Y57.860 E5.5170
G1 X141.901 Y57.732 E5.5240
G1 X142.240 Y57.054 E5.5618
G1 X142.309 Y56.932 E5.5688
G1 X142.715 Y56.293 E5.6066
G1 X142.797 Y56.178 E5.6136
G1 X143.267 Y55.584 E5.6514
G1 X143.360 Y55.479 E5.6584
G1 X143.888 Y54.936 E5.6962
G1 X143.991 Y54.841 E5.7032
G1 X144.573 Y54.356 E5.7410
G1 X144.685 Y54.271 E5.7480
G1 X145.314 Y53.848 E5.7858
G1 X145.434 Y53.776 E5.7928
G1 X146.103 Y53.420 E5.8306
G1 X146.230 Y53.361 E5.8376
G1 X146.932 Y53.075 E5.8754
G1 X147.064 Y53.029 E5.8824
G1 X147.792 Y52.817 E5.9202
G1 X147.928 Y52.785 E5.9272
G1 X148.674 Y52.649 E5.9650
G1 X148.813 Y52.631 E5.9720
G1 X149.569 Y52.573 E6.0098
G1 X149.709 Y52.569 E6.0168
G1 X150.466 Y52.589 E6.0546
G1 X150.606 Y52.599 E6.0616
G1 X151.357 Y52.697 E6.0994
G1 X151.495 Y52.722 E6.1064
G1 X152.233 Y52.896 E6.1442
G1 X152.367 Y52.935 E6.1512
G1 X153.083 Y53.184 E6.1890
G1 X153.213 Y53.237 E6.1960
G1 X153.899 Y53.558 E6.2338
G1 X154.023 Y53.624 E6.2408
G1 X154.673 Y54.014 E6.2786
G1 X154.789 Y54.092 E6.2856
G1 X155.395 Y54.547 E6.3234
G1 X155.503 Y54.637 E6.3304
G1 X156.059 Y55.152 E6.3682
G1 X156.157 Y55.252 E6.3752
G1 X156.657 Y55.821 E6.4130
G1 X156.744 Y55.931 E6.4200
G1 X157.183 Y56.549 E6.4578
G1 X157.258 Y56.667 E6.4648
G1 X157.632 Y57.327 E6.5026
G1 X157.694 Y57.452 E6.5096
G1 X157.998 Y58.146 E6.5474
G1 X158.047 Y58.278 E6.5544
G1 X158.278 Y59.000 E6.5922
G1 X158.313 Y59.135 E6.5992
G1 X158.468 Y59.877 E6.6370
G1 X158.490 Y60.015 E6.6440
G1 X158.568 Y60.769 E6.6818
G1 X158.575 Y60.909 E6.6888
G1 X158.575 Y61.667 E6.7266
G1 X158.568 Y61.807 E6.7336
G1 X158.490 Y62.561 E6.7714
G1 X158.468 Y62.699 E6.7784
G1 X158.313 Y63.441 E6.8162
G1 X158.278 Y63.577 E6.8232
G1 X158.047 Y64.299 E6.8610
G1 X157.998 Y64.430 E6.8680
G1 X157.694 Y65.124 E6.9058
G1 X157.632 Y65.249 E6.9128
G1 X157.258 Y65.909 E6.9506
G1 X157.183 Y66.027 E6.9576
G1 X156.744 Y66.645 E6.9954
G1 X156.657 Y66.755 E7.0024
G1 X156.157 Y67.324 E7.0402
G1 X156.059 Y67.424 E7.0472
G1 X155.503 Y67.939 E7.0850
G1 X155.395 Y68.029 E7.0920
G1 X154.789 Y68.484 E7.1298
G1 X154.673 Y68.562 E7.1368
G1 X154.023 Y68.952 E7.1746
G1 X153.899 Y69.018 E7.1816
G1 X153.213 Y69.339 E7.2194
G1 X153.083 Y69.392 E7.2264
G1 X152.367 Y69.641 E7.2642
G1 X152.233 Y69.680 E7.2712
G1 X151.495 Y69.854 E7.3090
G1 X151.357 Y69.879 E7.3160
G1 X150.973 Y69.929 E7.3354
G1 X150.973 Y80.270 E7.8513
G1 X151.508 Y80.672 E7.8847
G1 X151.616 Y80.762 E7.8917
G1 X152.172 Y81.276 E7.9295
G1 X152.270 Y81.377 E7.9365
G1 X152.770 Y81.946 E7.9743
G1 X152.857 Y82.056 E7.9813
G1 X153.296 Y82.674 E8.0191
G1 X153.371 Y82.792 E8.0261
G1 X153.744 Y83.451 E8.0639
G1 X153.807 Y83.577 E8.0709
G1 X154.111 Y84.271 E8.1087
G1 X154.160 Y84.402 E8.1157
G1 X154.391 Y85.124 E8.1535
G1 X154.426 Y85.260 E8.1605
G1 X154.581 Y86.002 E8.1983
G1 X154.603 Y86.140 E8.2053
G1 X154.681 Y86.894 E8.2431
G1 X154.688 Y87.034 E8.2501
G1 X154.688 Y87.792 E8.2879
G1 X154.681 Y87.932 E8.2949
G1 X154.603 Y88.685 E8.3327
G1 X154.581 Y88.824 E8.3397
G1 X154.426 Y89.566 E8.3775
G1 X154.391 Y89.701 E8.3845
G1 X154.160 Y90.423 E8.4223
G1 X154.111 Y90.554 E8.4293
G1 X153.807 Y91.249 E8.4671
G1 X153.744 Y91.374 E8.4741
G1 X153.371 Y92.034 E8.5119
G1 X153.296 Y92.152 E8.5189
G1 X152.857 Y92.769 E8.5567
G1 X152.770 Y92.879 E8.5637
G1 X152.270 Y93.448 E8.6015
G1 X152.172 Y93.549 E8.6085
G1 X151.616 Y94.064 E8.6463
G1 X151.508 Y94.153 E8.6533
G1 X150.902 Y94.608 E8.6911
G1 X150.786 Y94.687 E8.6981
G1 X150.136 Y95.077 E8.7359
G1 X150.012 Y95.143 E8.7429
G1 X149.326 Y95.464 E8.7807
G1 X149.196 Y95.517 E8.7877
G1 X148.480 Y95.766 E8.8255
G1 X148.346 Y95.805 E8.8325
G1 X147.608 Y95.979 E8.8703
G1 X147.470 Y96.004 E8.8773
G1 X146.719 Y96.101 E8.9151
G1 X146.579 Y96.112 E8.9221
G1 X145.821 Y96.132 E8.9599
G1 X145.681 Y96.128 E8.9669
G1 X144.926 Y96.069 E9.0047
G1 X144.787 Y96.051 E9.0117
G1 X144.041 Y95.916 E9.0495
G1 X143.905 Y95.883 E9.0565
G1 X143.177 Y95.672 E9.0943
G1 X143.045 Y95.626 E9.1013
G1 X142.343 Y95.340 E9.1391
G1 X142.216 Y95.281 E9.1461
G1 X141.547 Y94.924 E9.1839
G1 X141.427 Y94.852 E9.1909
G1 X140.798 Y94.429 E9.2287
G1 X140.686 Y94.345 E9.2357
G1 X140.104 Y93.860 E9.2735
G1 X140.001 Y93.765 E9.2805
G1 X139.472 Y93.222 E9.3183
G1 X139.380 Y93.117 E9.3253
G1 X138.909 Y92.522 E9.3631
G1 X138.828 Y92.408 E9.3701
G1 X138.421 Y91.769 E9.4079
G1 X138.352 Y91.647 E9.4149
G1 X138.014 Y90.969 E9.4527
G1 X137.958 Y90.840 E9.4597
G1 X137.690 Y90.131 E9.4975
G1 X137.648 Y89.998 E9.5045
G1 X137.455 Y89.265 E9.5423
G1 X137.426 Y89.128 E9.5493
G1 X137.309 Y88.379 E9.5871
G1 X137.295 Y88.240 E9.5941
G1 X137.256 Y87.483 E9.6319
G1 X137.256 Y87.343 E9.6389
G1 X137.295 Y86.586 E9.6767
G1 X137.309 Y86.446 E9.6837
G1 X137.426 Y85.697 E9.7215
G1 X137.455 Y85.560 E9.7285
G1 X137.648 Y84.828 E9.7663
G1 X137.690 Y84.694 E9.7733
G1 X137.958 Y83.985 E9.8111
G1 X138.014 Y83.856 E9.8181
G1 X138.352 Y83.179 E9.8559
G1 X138.421 Y83.057 E9.8629
G1 X138.499 Y82.934 E9.8701
G1 X124.492 Y82.934 E10.5689
G1 X124.174 Y82.896 E10.5850
G1 X123.523 Y82.740 E10.6183
G1 X122.950 Y82.448 E10.6505
G1 X122.277 Y81.873 E10.6946
G1 X121.859 Y81.247 E10.7321
G1 X121.599 Y80.449 E10.7740
G1 X121.532 Y80.022 E10.7956
G1 X121.554 Y72.554 E11.1682
G1 X121.820 Y71.738 E11.2110
G1 X122.470 Y70.843 E11.2662
G1 X123.168 Y70.337 E11.3092
G1 X124.016 Y70.061 E11.3537
G1 X124.439 Y69.994 E11.3750
G1 X126.533 Y69.994 E11.4795
G1 X126.533 Y68.934 E11.5324
G1 X71.173 Y68.934 E14.2943
G1 X71.173 Y69.994 E14.3472
G1 X73.267 Y69.994 E14.4517
G1 X73.690 Y70.061 E14.4730
G1 X74.538 Y70.337 E14.5175
G1 X75.235 Y70.843 E14.5605
G1 X75.886 Y71.738 E14.6158
G1 X76.152 Y72.554 E14.6585
G1 X76.173 Y80.022 E15.0311
G1 X76.107 Y80.449 E15.0527
G1 X75.847 Y81.247 E15.0946
G1 X75.429 Y81.873 E15.1321
G1 X74.756 Y82.448 E15.1763
G1 X74.183 Y82.740 E15.2084
G1 X73.532 Y82.896 E15.2418
G1 X73.213 Y82.934 E15.2578
G1 X56.830 Y82.934 E16.0752
G1 X56.899 Y83.005 E16.0801
G1 X57.399 Y83.574 E16.1179
G1 X57.486 Y83.684 E16.1249
G1 X57.925 Y84.302 E16.1627
G1 X58.000 Y84.420 E16.1697
G1 X58.373 Y85.079 E16.2075
G1 X58.436 Y85.205 E16.2145
G1 X58.740 Y85.899 E16.2523
G1 X58.789 Y86.030 E16.2593
G1 X59.019 Y86.752 E16.2971
G1 X59.055 Y86.888 E16.3041
G1 X59.210 Y87.630 E16.3419
G1 X59.232 Y87.768 E16.3489
G1 X59.310 Y88.522 E16.3867
G1 X59.317 Y88.662 E16.3937
G1 X59.317 Y89.420 E16.4315
G1 X59.310 Y89.560 E16.4385
G1 X59.232 Y90.313 E16.4763
G1 X59.210 Y90.452 E16.4833
G1 X59.055 Y91.194 E16.5211
G1 X59.019 Y91.329 E16.5281
G1 X58.789 Y92.051 E16.5659
G1 X58.740 Y92.182 E16.5729
G1 X58.436 Y92.877 E16.6107
G1 X58.373 Y93.002 E16.6177
G1 X58.000 Y93.662 E16.6555
G1 X57.925 Y93.780 E16.6625
G1 X57.486 Y94.397 E16.7003
G1 X57.399 Y94.507 E16.7073
G1 X56.899 Y95.077 E16.7451
G1 X56.801 Y95.177 E16.7521
G1 X56.245 Y95.692 E16.7899
G1 X56.137 Y95.781 E16.7969
G1 X55.531 Y96.236 E16.8347
G1 X55.415 Y96.315 E16.8417
G1 X54.765 Y96.705 E16.8795
G1 X54.641 Y96.771 E16.8865
G1 X53.955 Y97.092 E16.9243
G1 X53.825 Y97.145 E16.9313
G1 X53.109 Y97.394 E16.9691
G1 X52.975 Y97.433 E16.9761
G1 X52.237 Y97.607 E17.0139
G1 X52.099 Y97.632 E17.0209
G1 X51.348 Y97.729 E17.0587
G1 X51.208 Y97.740 E17.0657
G1 X50.450 Y97.760 E17.1035
G1 X50.310 Y97.756 E17.1105
G1 X49.555 Y97.697 E17.1483
G1 X49.416 Y97.679 E17.1553
G1 X48.670 Y97.544 E17.1931
G1 X48.534 Y97.511 E17.2001
G1 X47.806 Y97.300 E17.2379
G1 X47.674 Y97.254 E17.2449
G1 X46.972 Y96.968 E17.2827
G1 X46.845 Y96.909 E17.2897
G1 X46.176 Y96.552 E17.3275
G1 X46.056 Y96.480 E17.3345
G1 X45.427 Y96.057 E17.3723
G1 X45.315 Y95.973 E17.3793
G1 X44.733 Y95.488 E17.4171
G1 X44.630 Y95.393 E17.4241
G1 X44.101 Y94.850 E17.4619
G1 X44.009 Y94.745 E17.4689
G1 X43.538 Y94.150 E17.5067
G1 X43.457 Y94.036 E17.5137
G1 X43.050 Y93.397 E17.5515
G1 X42.981 Y93.275 E17.5585
G1 X42.643 Y92.597 E17.5963
G1 X42.586 Y92.468 E17.6033
G1 X42.319 Y91.759 E17.6411
G1 X42.277 Y91.626 E17.6481
G1 X42.084 Y90.893 E17.6859
G1 X42.055 Y90.756 E17.6929
G1 X41.938 Y90.007 E17.7307
G1 X41.924 Y89.868 E17.7377
G1 X41.885 Y89.111 E17.7755
G1 X41.885 Y88.971 E17.7825
G1 X41.924 Y88.214 E17.8203
G1 X41.938 Y88.074 E17.8273
G1 X42.055 Y87.326 E17.8651
G1 X42.084 Y87.188 E17.8721
G1 X42.277 Y86.456 E17.9099
G1 X42.319 Y86.322 E17.9169
G1 X42.586 Y85.613 E17.9547
G1 X42.643 Y85.485 E17.9617
G1 X42.981 Y84.807 E17.9995
G1 X43.050 Y84.685 E18.0065
G1 X43.457 Y84.045 E18.0443
G1 X43.538 Y83.931 E18.0513
G1 X44.009 Y83.337 E18.0891
G1 X44.101 Y83.231 E18.0961
G1 X44.630 Y82.689 E18.1339
G1 X44.733 Y82.594 E18.1409
G1 X45.315 Y82.108 E18.1787
G1 X45.427 Y82.024 E18.1857
G1 X46.056 Y81.601 E18.2235
G1 X46.176 Y81.529 E18.2305
G1 X46.733 Y81.232 E18.2620
G1 X46.733 Y68.959 E18.8743
