; G-Code generated by Simplify3D(R) Version 4.1.2
; Nov 27, 2022 at 11:30:50 AM
; Settings Summary
;   processName,Process1
;   applyToModels,main-w,pyatak,pyatak(2)
;   profileName,ABS (modified)
;   profileVersion,2019-11-09 17:57:01
;   baseProfile,Default
;   printMaterial,ABS
;   printQuality,Medium
;   printExtruders,
;   extruderName,Primary Extruder
;   extruderToolheadNumber,0
;   extruderDiameter,0.35
;   extruderAutoWidth,0
;   extruderWidth,0.48
;   extrusionMultiplier,1
;   extruderUseRetract,1
;   extruderRetractionDistance,3.6
;   extruderExtraRestartDistance,0
;   extruderRetractionZLift,0
;   extruderRetractionSpeed,1800
;   extruderUseCoasting,0
;   extruderCoastingDistance,0
;   extruderUseWipe,0
;   extruderWipeDistance,5
;   primaryExtruder,0
;   layerHeight,0.2
;   topSolidLayers,3
;   bottomSolidLayers,3
;   perimeterOutlines,3
;   printPerimetersInsideOut,1
;   startPointOption,2
;   startPointOriginX,0
;   startPointOriginY,0
;   sequentialIslands,0
;   spiralVaseMode,0
;   firstLayerHeightPercentage,125
;   firstLayerWidthPercentage,100
;   firstLayerUnderspeed,0.5
;   useRaft,0
;   raftExtruder,0
;   raftTopLayers,1
;   raftBaseLayers,1
;   raftOffset,5
;   raftSeparationDistance,0.2
;   raftTopInfill,60
;   aboveRaftSpeedMultiplier,0.3
;   useSkirt,1
;   skirtExtruder,0
;   skirtLayers,1
;   skirtOutlines,2
;   skirtOffset,2
;   usePrimePillar,0
;   primePillarExtruder,999
;   primePillarWidth,12
;   primePillarLocation,7
;   primePillarSpeedMultiplier,1
;   useOozeShield,0
;   oozeShieldExtruder,999
;   oozeShieldOffset,2
;   oozeShieldOutlines,1
;   oozeShieldSidewallShape,1
;   oozeShieldSidewallAngle,30
;   oozeShieldSpeedMultiplier,1
;   infillExtruder,0
;   internalInfillPattern,Rectilinear
;   externalInfillPattern,Rectilinear
;   infillPercentage,50
;   outlineOverlapPercentage,15
;   infillExtrusionWidthPercentage,100
;   minInfillLength,5
;   infillLayerInterval,1
;   internalInfillAngles,45,-45
;   overlapInternalInfillAngles,0
;   externalInfillAngles,45,-45
;   generateSupport,0
;   supportExtruder,0
;   supportInfillPercentage,8
;   supportExtraInflation,2
;   supportBaseLayers,0
;   denseSupportExtruder,0
;   denseSupportLayers,1
;   denseSupportInfillPercentage,60
;   supportLayerInterval,1
;   supportHorizontalPartOffset,0.8
;   supportUpperSeparationLayers,1
;   supportLowerSeparationLayers,1
;   supportType,0
;   supportGridSpacing,1
;   maxOverhangAngle,50
;   supportAngles,45,-45
;   temperatureName,Primary Extruder,Bed
;   temperatureNumber,0,1
;   temperatureSetpointCount,1,2
;   temperatureSetpointLayers,1,1,5
;   temperatureSetpointTemperatures,234,110,105
;   temperatureStabilizeAtStartup,1,1
;   temperatureHeatedBed,0,1
;   fanLayers,1,3
;   fanSpeeds,0,80
;   blipFanToFullPower,1
;   adjustSpeedForCooling,1
;   minSpeedLayerTime,10
;   minCoolingSpeedSlowdown,40
;   increaseFanForCooling,1
;   minFanLayerTime,15
;   maxCoolingFanSpeed,100
;   increaseFanForBridging,1
;   bridgingFanSpeed,100
;   use5D,1
;   relativeEdistances,0
;   allowEaxisZeroing,1
;   independentExtruderAxes,0
;   includeM10123,0
;   stickySupport,1
;   applyToolheadOffsets,0
;   gcodeXoffset,0
;   gcodeYoffset,0
;   gcodeZoffset,21.1
;   overrideMachineDefinition,0
;   machineTypeOverride,0
;   strokeXoverride,200
;   strokeYoverride,200
;   strokeZoverride,200
;   originOffsetXoverride,0
;   originOffsetYoverride,0
;   originOffsetZoverride,0
;   homeXdirOverride,-1
;   homeYdirOverride,-1
;   homeZdirOverride,-1
;   flipXoverride,1
;   flipYoverride,-1
;   flipZoverride,1
;   toolheadOffsets,0,0|0,0|0,0|0,0|0,0|0,0
;   overrideFirmwareConfiguration,0
;   firmwareTypeOverride,RepRap (Marlin/Repetier/Sprinter)
;   GPXconfigOverride,r2
;   baudRateOverride,115200
;   overridePrinterModels,0
;   printerModelsOverride
;   startingGcode,M355 ; Light,G28 ; home all axes
;   layerChangeGcode,
;   retractionGcode,
;   toolChangeGcode,
;   endingGcode,M104 S0 ; turn off extruder,M140 S0 ; turn off bed,G92 E0,G1 E-5 ; Retract,G28,M356,M106 S0,M84 ; disable motors
;   exportFileFormat,gcode
;   celebration,0
;   celebrationSong,Random Song
;   postProcessing,
;   defaultSpeed,5200
;   outlineUnderspeed,0.5
;   solidInfillUnderspeed,0.8
;   supportUnderspeed,0.8
;   rapidXYspeed,5800
;   rapidZspeed,1000
;   minBridgingArea,50
;   bridgingExtraInflation,0.2
;   bridgingExtrusionMultiplier,1.1
;   bridgingSpeedMultiplier,0.4
;   useFixedBridgingAngle,0
;   fixedBridgingAngle,0
;   applyBridgingToPerimeters,0
;   filamentDiameters,1.75|1.75|1.75|1.75|1.75|1.75
;   filamentPricesPerKg,250|250|250|250|250|250
;   filamentDensities,1.25|1.25|1.25|1.25|1.25|1.25
;   useMinPrintHeight,0
;   minPrintHeight,5.3
;   useMaxPrintHeight,0
;   maxPrintHeight,8
;   useDiaphragm,0
;   diaphragmLayerInterval,20
;   robustSlicing,1
;   mergeAllIntoSolid,0
;   onlyRetractWhenCrossingOutline,1
;   retractBetweenLayers,1
;   useRetractionMinTravel,1
;   retractionMinTravel,3
;   retractWhileWiping,0
;   onlyWipeOutlines,1
;   avoidCrossingOutline,1
;   maxMovementDetourFactor,3
;   toolChangeRetractionDistance,12
;   toolChangeExtraRestartDistance,-0.5
;   toolChangeRetractionSpeed,600
;   externalThinWallType,1
;   internalThinWallType,2
;   thinWallAllowedOverlapPercentage,25
;   singleExtrusionMinLength,1
;   singleExtrusionMinPrintingWidthPercentage,50
;   singleExtrusionMaxPrintingWidthPercentage,200
;   singleExtrusionEndpointExtension,0.2
;   horizontalSizeCompensation,0
G90
M82
M106 S0
M140 S110
M190 S110
M104 S234 T0
M109 S234 T0
M355 ; Light
G28 ; home all axes
; process Process1
; layer 1, Z = 21.350
T0
G92 E0.0000
G1 E-3.6000 F1800
; feature skirt
; tool H0.250 W0.480
G1 Z21.350 F1000
G1 X42.846 Y46.608 F5800
G1 E0.0000 F1800
G92 E0.0000
G1 X43.019 Y46.482 E0.0107 F2600
G1 X43.469 Y46.206 E0.0370
G1 X43.659 Y46.109 E0.0476
G1 X44.147 Y45.908 E0.0740
G1 X44.350 Y45.842 E0.0846
G1 X44.863 Y45.718 E0.1110
G1 X45.074 Y45.685 E0.1216
G1 X45.547 Y45.648 E0.1453
G1 X45.654 Y45.644 E0.1506
G1 X49.248 Y45.644 E0.3299
G1 X50.248 Y46.058 E0.3839
G1 X52.334 Y48.144 E0.5311
G1 X55.080 Y48.144 E0.6681
G1 X57.166 Y46.058 E0.8153
G1 X58.166 Y45.644 E0.8693
G1 X128.048 Y45.644 E4.3557
G1 X129.048 Y46.058 E4.4097
G1 X131.134 Y48.144 E4.5569
G1 X133.880 Y48.144 E4.6939
G1 X135.966 Y46.058 E4.8411
G1 X136.966 Y45.644 E4.8951
G1 X140.560 Y45.644 E5.0744
G1 X140.667 Y45.648 E5.0797
G1 X141.140 Y45.685 E5.1034
G1 X141.351 Y45.718 E5.1140
G1 X141.864 Y45.842 E5.1403
G1 X142.067 Y45.908 E5.1510
G1 X142.555 Y46.109 E5.1773
G1 X142.745 Y46.207 E5.1880
G1 X143.195 Y46.482 E5.2143
G1 X143.368 Y46.608 E5.2250
G1 X143.769 Y46.950 E5.2513
G1 X143.920 Y47.102 E5.2620
G1 X144.263 Y47.503 E5.2883
G1 X144.388 Y47.676 E5.2990
G1 X144.664 Y48.126 E5.3253
G1 X144.761 Y48.316 E5.3359
G1 X144.963 Y48.803 E5.3623
G1 X145.029 Y49.007 E5.3729
G1 X145.152 Y49.520 E5.3992
G1 X145.186 Y49.731 E5.4099
G1 X145.223 Y50.203 E5.4336
G1 X145.227 Y50.310 E5.4389
G1 X145.227 Y69.655 E6.4040
G1 X145.418 Y69.769 E6.4151
G1 X145.535 Y69.848 E6.4221
G1 X146.470 Y70.550 E6.4805
G1 X146.578 Y70.639 E6.4875
G1 X147.436 Y71.434 E6.5458
G1 X147.534 Y71.534 E6.5528
G1 X148.306 Y72.413 E6.6112
G1 X148.393 Y72.523 E6.6181
G1 X149.071 Y73.476 E6.6765
G1 X149.146 Y73.594 E6.6835
G1 X149.722 Y74.612 E6.7419
G1 X149.785 Y74.738 E6.7488
G1 X150.253 Y75.809 E6.8072
G1 X150.303 Y75.941 E6.8142
G1 X150.658 Y77.055 E6.8725
G1 X150.694 Y77.190 E6.8795
G1 X150.933 Y78.335 E6.9379
G1 X150.955 Y78.474 E6.9449
G1 X151.073 Y79.620 E7.0024
G1 X151.080 Y79.725 E7.0076
G1 X151.096 Y80.327 E7.0377
G1 X151.096 Y80.397 E7.0412
G1 X151.080 Y80.999 E7.0712
G1 X151.073 Y81.104 E7.0765
G1 X150.955 Y82.250 E7.1339
G1 X150.933 Y82.389 E7.1409
G1 X150.694 Y83.534 E7.1993
G1 X150.658 Y83.669 E7.2063
G1 X150.303 Y84.783 E7.2646
G1 X150.253 Y84.915 E7.2716
G1 X149.785 Y85.986 E7.3300
G1 X149.722 Y86.112 E7.3370
G1 X149.146 Y87.130 E7.3953
G1 X149.071 Y87.248 E7.4023
G1 X148.393 Y88.201 E7.4607
G1 X148.306 Y88.311 E7.4677
G1 X147.534 Y89.190 E7.5260
G1 X147.436 Y89.290 E7.5330
G1 X146.578 Y90.085 E7.5914
G1 X146.470 Y90.174 E7.5984
G1 X145.535 Y90.876 E7.6567
G1 X145.418 Y90.955 E7.6637
G1 X144.416 Y91.557 E7.7221
G1 X144.292 Y91.623 E7.7291
G1 X143.232 Y92.118 E7.7874
G1 X143.103 Y92.171 E7.7944
G1 X141.998 Y92.556 E7.8528
G1 X141.863 Y92.595 E7.8597
G1 X140.725 Y92.863 E7.9181
G1 X140.587 Y92.889 E7.9251
G1 X139.427 Y93.039 E7.9834
G1 X139.287 Y93.050 E7.9904
G1 X138.118 Y93.080 E8.0488
G1 X137.978 Y93.076 E8.0558
G1 X136.812 Y92.986 E8.1141
G1 X136.673 Y92.968 E8.1211
G1 X135.522 Y92.758 E8.1795
G1 X135.386 Y92.726 E8.1865
G1 X134.263 Y92.399 E8.2448
G1 X134.130 Y92.353 E8.2518
G1 X133.047 Y91.912 E8.3102
G1 X132.920 Y91.853 E8.3172
G1 X131.887 Y91.303 E8.3755
G1 X131.767 Y91.231 E8.3825
G1 X130.797 Y90.578 E8.4409
G1 X130.685 Y90.494 E8.4479
G1 X129.787 Y89.745 E8.5062
G1 X129.684 Y89.650 E8.5132
G1 X128.867 Y88.812 E8.5716
G1 X128.775 Y88.707 E8.5786
G1 X128.049 Y87.789 E8.6369
G1 X127.968 Y87.675 E8.6439
G1 X127.340 Y86.688 E8.7023
G1 X127.271 Y86.566 E8.7092
G1 X126.748 Y85.520 E8.7676
G1 X126.692 Y85.392 E8.7746
G1 X126.279 Y84.297 E8.8330
G1 X126.237 Y84.164 E8.8399
G1 X125.939 Y83.033 E8.8983
G1 X125.910 Y82.895 E8.9053
G1 X125.730 Y81.740 E8.9636
G1 X125.716 Y81.600 E8.9706
G1 X125.656 Y80.432 E9.0290
G1 X125.656 Y80.292 E9.0360
G1 X125.716 Y79.124 E9.0943
G1 X125.730 Y78.984 E9.1013
G1 X125.910 Y77.829 E9.1597
G1 X125.939 Y77.692 E9.1667
G1 X126.237 Y76.560 E9.2250
G1 X126.279 Y76.427 E9.2320
G1 X126.692 Y75.332 E9.2904
G1 X126.748 Y75.204 E9.2974
G1 X127.271 Y74.158 E9.3557
G1 X127.340 Y74.036 E9.3627
G1 X127.968 Y73.049 E9.4211
G1 X128.049 Y72.935 E9.4281
G1 X128.775 Y72.018 E9.4864
G1 X128.867 Y71.912 E9.4934
G1 X129.684 Y71.075 E9.5518
G1 X129.787 Y70.979 E9.5588
G1 X130.685 Y70.230 E9.6171
G1 X130.797 Y70.146 E9.6241
G1 X131.767 Y69.493 E9.6825
G1 X131.887 Y69.421 E9.6894
G1 X132.521 Y69.084 E9.7253
G1 X118.747 Y69.084 E10.4125
G1 X118.428 Y69.046 E10.4285
G1 X117.777 Y68.890 E10.4619
G1 X117.204 Y68.597 E10.4940
G1 X116.531 Y68.023 E10.5381
G1 X116.113 Y67.397 E10.5757
G1 X115.853 Y66.599 E10.6175
G1 X115.786 Y66.172 E10.6391
G1 X115.808 Y57.704 E11.0616
G1 X116.074 Y56.888 E11.1044
G1 X116.725 Y55.993 E11.1596
G1 X117.422 Y55.486 E11.2026
G1 X118.270 Y55.211 E11.2471
G1 X118.693 Y55.144 E11.2685
G1 X120.787 Y55.144 E11.3729
G1 X120.787 Y55.084 E11.3759
G1 X65.427 Y55.084 E14.1379
G1 X65.427 Y55.144 E14.1408
G1 X67.521 Y55.144 E14.2453
G1 X67.944 Y55.211 E14.2667
G1 X68.792 Y55.486 E14.3112
G1 X69.489 Y55.993 E14.3542
G1 X70.140 Y56.888 E14.4094
G1 X70.406 Y57.704 E14.4522
G1 X70.428 Y66.173 E14.8747
G1 X70.361 Y66.599 E14.8962
G1 X70.101 Y67.397 E14.9381
G1 X69.683 Y68.023 E14.9756
G1 X69.010 Y68.597 E15.0198
G1 X68.437 Y68.890 E15.0519
G1 X67.786 Y69.046 E15.0853
G1 X67.467 Y69.084 E15.1013
G1 X51.364 Y69.084 E15.9047
G1 X52.061 Y69.502 E15.9453
G1 X52.178 Y69.580 E15.9523
G1 X53.113 Y70.282 E16.0106
G1 X53.221 Y70.372 E16.0176
G1 X54.079 Y71.167 E16.0760
G1 X54.177 Y71.267 E16.0830
G1 X54.949 Y72.146 E16.1413
G1 X55.036 Y72.256 E16.1483
G1 X55.714 Y73.209 E16.2067
G1 X55.789 Y73.327 E16.2136
G1 X56.365 Y74.345 E16.2720
G1 X56.428 Y74.470 E16.2790
G1 X56.896 Y75.542 E16.3374
G1 X56.946 Y75.673 E16.3443
G1 X57.301 Y76.788 E16.4027
G1 X57.337 Y76.923 E16.4097
G1 X57.576 Y78.068 E16.4680
G1 X57.598 Y78.207 E16.4750
G1 X57.718 Y79.370 E16.5334
G1 X57.725 Y79.510 E16.5404
G1 X57.725 Y80.680 E16.5987
G1 X57.718 Y80.820 E16.6057
G1 X57.598 Y81.983 E16.6641
G1 X57.576 Y82.122 E16.6711
G1 X57.337 Y83.266 E16.7294
G1 X57.301 Y83.402 E16.7364
G1 X56.946 Y84.516 E16.7948
G1 X56.896 Y84.647 E16.8018
G1 X56.428 Y85.719 E16.8601
G1 X56.365 Y85.844 E16.8671
G1 X55.789 Y86.862 E16.9255
G1 X55.714 Y86.981 E16.9325
G1 X55.036 Y87.934 E16.9908
G1 X54.949 Y88.044 E16.9978
G1 X54.177 Y88.922 E17.0562
G1 X54.079 Y89.023 E17.0632
G1 X53.221 Y89.817 E17.1215
G1 X53.113 Y89.907 E17.1285
G1 X52.178 Y90.609 E17.1869
G1 X52.061 Y90.687 E17.1938
G1 X51.059 Y91.290 E17.2522
G1 X50.935 Y91.355 E17.2592
G1 X49.876 Y91.851 E17.3175
G1 X49.746 Y91.904 E17.3245
G1 X48.641 Y92.288 E17.3829
G1 X48.506 Y92.327 E17.3899
G1 X47.368 Y92.596 E17.4482
G1 X47.230 Y92.621 E17.4552
G1 X46.070 Y92.771 E17.5136
G1 X45.930 Y92.782 E17.5206
G1 X44.761 Y92.812 E17.5789
G1 X44.621 Y92.809 E17.5859
G1 X43.455 Y92.719 E17.6443
G1 X43.316 Y92.701 E17.6513
G1 X42.165 Y92.491 E17.7096
G1 X42.029 Y92.459 E17.7166
G1 X40.906 Y92.132 E17.7750
G1 X40.773 Y92.086 E17.7820
G1 X39.690 Y91.645 E17.8403
G1 X39.563 Y91.586 E17.8473
G1 X38.531 Y91.036 E17.9057
G1 X38.410 Y90.964 E17.9127
G1 X37.440 Y90.311 E17.9710
G1 X37.328 Y90.227 E17.9780
G1 X36.430 Y89.477 E18.0364
G1 X36.327 Y89.382 E18.0433
G1 X35.511 Y88.545 E18.1017
G1 X35.418 Y88.439 E18.1087
G1 X34.692 Y87.522 E18.1671
G1 X34.611 Y87.408 E18.1740
G1 X33.983 Y86.421 E18.2324
G1 X33.914 Y86.299 E18.2394
G1 X33.391 Y85.253 E18.2977
G1 X33.335 Y85.124 E18.3047
G1 X32.922 Y84.030 E18.3631
G1 X32.880 Y83.896 E18.3701
G1 X32.582 Y82.765 E18.4284
G1 X32.553 Y82.628 E18.4354
G1 X32.373 Y81.472 E18.4938
G1 X32.359 Y81.333 E18.5008
G1 X32.299 Y80.165 E18.5591
G1 X32.299 Y80.025 E18.5661
G1 X32.359 Y78.857 E18.6245
G1 X32.373 Y78.717 E18.6315
G1 X32.553 Y77.561 E18.6898
G1 X32.582 Y77.424 E18.6968
G1 X32.880 Y76.293 E18.7552
G1 X32.922 Y76.160 E18.7622
G1 X33.335 Y75.065 E18.8205
G1 X33.391 Y74.937 E18.8275
G1 X33.914 Y73.891 E18.8859
G1 X33.983 Y73.769 E18.8929
G1 X34.611 Y72.782 E18.9512
G1 X34.692 Y72.667 E18.9582
G1 X35.418 Y71.750 E19.0166
G1 X35.511 Y71.645 E19.0235
G1 X36.327 Y70.807 E19.0819
G1 X36.430 Y70.712 E19.0889
G1 X37.328 Y69.963 E19.1472
G1 X37.440 Y69.879 E19.1542
G1 X38.410 Y69.226 E19.2126
G1 X38.531 Y69.154 E19.2196
G1 X39.563 Y68.604 E19.2779
G1 X39.690 Y68.545 E19.2849
G1 X40.773 Y68.104 E19.3433
G1 X40.906 Y68.058 E19.3503
G1 X40.987 Y68.034 E19.3545
G1 X40.987 Y50.310 E20.2388
G1 X40.991 Y50.203 E20.2441
G1 X41.028 Y49.736 E20.2675
G1 X41.061 Y49.527 E20.2780
G1 X41.184 Y49.010 E20.3045
G1 X41.251 Y48.805 E20.3153
G1 X41.453 Y48.316 E20.3417
G1 X41.550 Y48.125 E20.3524
G1 X41.826 Y47.676 E20.3787
G1 X41.951 Y47.503 E20.3894
G1 X42.294 Y47.102 E20.4157
G1 X42.445 Y46.950 E20.4263
G1 X42.846 Y46.608 E20.4527
G1 X42.771 Y47.303 F5800
G92 E0.0000
G1 X43.144 Y46.985 E0.0244 F2600
G1 X43.286 Y46.882 E0.0332
G1 X43.704 Y46.626 E0.0577
G1 X43.860 Y46.546 E0.0664
G1 X44.313 Y46.358 E0.0909
G1 X44.480 Y46.304 E0.0997
G1 X44.957 Y46.190 E0.1241
G1 X45.131 Y46.162 E0.1329
G1 X45.575 Y46.127 E0.1551
G1 X45.663 Y46.124 E0.1595
G1 X49.153 Y46.124 E0.3336
G1 X49.976 Y46.465 E0.3781
G1 X52.135 Y48.624 E0.5304
G1 X55.279 Y48.624 E0.6873
G1 X57.438 Y46.465 E0.8396
G1 X58.261 Y46.124 E0.8841
G1 X127.953 Y46.124 E4.3610
G1 X128.776 Y46.465 E4.4054
G1 X130.935 Y48.624 E4.5577
G1 X134.079 Y48.624 E4.7146
G1 X136.238 Y46.465 E4.8669
G1 X137.061 Y46.124 E4.9114
G1 X140.551 Y46.124 E5.0855
G1 X140.639 Y46.127 E5.0899
G1 X141.083 Y46.162 E5.1121
G1 X141.257 Y46.190 E5.1209
G1 X141.733 Y46.304 E5.1453
G1 X141.901 Y46.358 E5.1541
G1 X142.354 Y46.546 E5.1786
G1 X142.510 Y46.626 E5.1874
G1 X142.928 Y46.882 E5.2118
G1 X143.070 Y46.985 E5.2206
G1 X143.443 Y47.303 E5.2450
G1 X143.567 Y47.428 E5.2538
G1 X143.886 Y47.800 E5.2782
G1 X143.989 Y47.943 E5.2870
G1 X144.245 Y48.360 E5.3115
G1 X144.325 Y48.517 E5.3202
G1 X144.512 Y48.970 E5.3447
G1 X144.567 Y49.137 E5.3535
G1 X144.681 Y49.613 E5.3779
G1 X144.709 Y49.787 E5.3867
G1 X144.744 Y50.232 E5.4089
G1 X144.747 Y50.320 E5.4133
G1 X144.747 Y69.926 E6.3915
G1 X145.161 Y70.175 E6.4156
G1 X145.256 Y70.239 E6.4213
G1 X146.172 Y70.926 E6.4784
G1 X146.261 Y71.000 E6.4842
G1 X147.101 Y71.778 E6.5413
G1 X147.182 Y71.861 E6.5471
G1 X147.937 Y72.721 E6.6042
G1 X148.009 Y72.811 E6.6100
G1 X148.672 Y73.744 E6.6671
G1 X148.734 Y73.842 E6.6728
G1 X149.298 Y74.838 E6.7300
G1 X149.350 Y74.941 E6.7357
G1 X149.808 Y75.990 E6.7928
G1 X149.849 Y76.098 E6.7986
G1 X150.197 Y77.189 E6.8557
G1 X150.227 Y77.301 E6.8615
G1 X150.461 Y78.421 E6.9186
