; G-Code generated by Simplify3D(R) Version 4.1.2
; Nov 29, 2022 at 6:59:21 PM
; Settings Summary
;   processName,Process1
;   applyToModels,Pad,Pad(2),main-w
;   profileName,ABS
;   profileVersion,2019-11-09 17:57:01
;   baseProfile,Default
;   printMaterial,ABS
;   printQuality,Medium
;   printExtruders,
;   extruderName,Primary Extruder
;   extruderToolheadNumber,0
;   extruderDiameter,0.35
;   extruderAutoWidth,0
;   extruderWidth,0.48
;   extrusionMultiplier,1
;   extruderUseRetract,1
;   extruderRetractionDistance,3.6
;   extruderExtraRestartDistance,0
;   extruderRetractionZLift,0
;   extruderRetractionSpeed,1800
;   extruderUseCoasting,0
;   extruderCoastingDistance,0
;   extruderUseWipe,0
;   extruderWipeDistance,5
;   primaryExtruder,0
;   layerHeight,0.2
;   topSolidLayers,3
;   bottomSolidLayers,3
;   perimeterOutlines,3
;   printPerimetersInsideOut,1
;   startPointOption,2
;   startPointOriginX,0
;   startPointOriginY,0
;   sequentialIslands,0
;   spiralVaseMode,0
;   firstLayerHeightPercentage,125
;   firstLayerWidthPercentage,100
;   firstLayerUnderspeed,0.5
;   useRaft,0
;   raftExtruder,0
;   raftTopLayers,1
;   raftBaseLayers,1
;   raftOffset,5
;   raftSeparationDistance,0.2
;   raftTopInfill,60
;   aboveRaftSpeedMultiplier,0.3
;   useSkirt,1
;   skirtExtruder,0
;   skirtLayers,1
;   skirtOutlines,2
;   skirtOffset,2
;   usePrimePillar,0
;   primePillarExtruder,999
;   primePillarWidth,12
;   primePillarLocation,7
;   primePillarSpeedMultiplier,1
;   useOozeShield,0
;   oozeShieldExtruder,999
;   oozeShieldOffset,2
;   oozeShieldOutlines,1
;   oozeShieldSidewallShape,1
;   oozeShieldSidewallAngle,30
;   oozeShieldSpeedMultiplier,1
;   infillExtruder,0
;   internalInfillPattern,Rectilinear
;   externalInfillPattern,Rectilinear
;   infillPercentage,40
;   outlineOverlapPercentage,15
;   infillExtrusionWidthPercentage,100
;   minInfillLength,5
;   infillLayerInterval,1
;   internalInfillAngles,45,-45
;   overlapInternalInfillAngles,0
;   externalInfillAngles,45,-45
;   generateSupport,0
;   supportExtruder,0
;   supportInfillPercentage,8
;   supportExtraInflation,2
;   supportBaseLayers,0
;   denseSupportExtruder,0
;   denseSupportLayers,1
;   denseSupportInfillPercentage,60
;   supportLayerInterval,1
;   supportHorizontalPartOffset,0.8
;   supportUpperSeparationLayers,1
;   supportLowerSeparationLayers,1
;   supportType,0
;   supportGridSpacing,1
;   maxOverhangAngle,50
;   supportAngles,45,-45
;   temperatureName,Primary Extruder,Bed
;   temperatureNumber,0,1
;   temperatureSetpointCount,1,2
;   temperatureSetpointLayers,1,1,5
;   temperatureSetpointTemperatures,234,110,105
;   temperatureStabilizeAtStartup,1,1
;   temperatureHeatedBed,0,1
;   fanLayers,1,3
;   fanSpeeds,0,80
;   blipFanToFullPower,1
;   adjustSpeedForCooling,1
;   minSpeedLayerTime,10
;   minCoolingSpeedSlowdown,40
;   increaseFanForCooling,1
;   minFanLayerTime,15
;   maxCoolingFanSpeed,100
;   increaseFanForBridging,1
;   bridgingFanSpeed,100
;   use5D,1
;   relativeEdistances,0
;   allowEaxisZeroing,1
;   independentExtruderAxes,0
;   includeM10123,0
;   stickySupport,1
;   applyToolheadOffsets,0
;   gcodeXoffset,0
;   gcodeYoffset,0
;   gcodeZoffset,21.1
;   overrideMachineDefinition,0
;   machineTypeOverride,0
;   strokeXoverride,200
;   strokeYoverride,200
;   strokeZoverride,200
;   originOffsetXoverride,0
;   originOffsetYoverride,0
;   originOffsetZoverride,0
;   homeXdirOverride,-1
;   homeYdirOverride,-1
;   homeZdirOverride,-1
;   flipXoverride,1
;   flipYoverride,-1
;   flipZoverride,1
;   toolheadOffsets,0,0|0,0|0,0|0,0|0,0|0,0
;   overrideFirmwareConfiguration,0
;   firmwareTypeOverride,RepRap (Marlin/Repetier/Sprinter)
;   GPXconfigOverride,r2
;   baudRateOverride,115200
;   overridePrinterModels,0
;   printerModelsOverride
;   startingGcode,M355 ; Light,G28 ; home all axes
;   layerChangeGcode,
;   retractionGcode,
;   toolChangeGcode,
;   endingGcode,M104 S0 ; turn off extruder,M140 S0 ; turn off bed,G92 E0,G1 E-5 ; Retract,G28,M356,M106 S0,M84 ; disable motors
;   exportFileFormat,gcode
;   celebration,0
;   celebrationSong,Random Song
;   postProcessing,
;   defaultSpeed,5200
;   outlineUnderspeed,0.5
;   solidInfillUnderspeed,0.8
;   supportUnderspeed,0.8
;   rapidXYspeed,5800
;   rapidZspeed,1000
;   minBridgingArea,50
;   bridgingExtraInflation,0.2
;   bridgingExtrusionMultiplier,1.1
;   bridgingSpeedMultiplier,0.4
;   useFixedBridgingAngle,0
;   fixedBridgingAngle,0
;   applyBridgingToPerimeters,0
;   filamentDiameters,1.75|1.75|1.75|1.75|1.75|1.75
;   filamentPricesPerKg,250|250|250|250|250|250
;   filamentDensities,1.25|1.25|1.25|1.25|1.25|1.25
;   useMinPrintHeight,0
;   minPrintHeight,5.3
;   useMaxPrintHeight,0
;   maxPrintHeight,8
;   useDiaphragm,0
;   diaphragmLayerInterval,20
;   robustSlicing,1
;   mergeAllIntoSolid,0
;   onlyRetractWhenCrossingOutline,1
;   retractBetweenLayers,1
;   useRetractionMinTravel,1
;   retractionMinTravel,3
;   retractWhileWiping,0
;   onlyWipeOutlines,1
;   avoidCrossingOutline,1
;   maxMovementDetourFactor,3
;   toolChangeRetractionDistance,12
;   toolChangeExtraRestartDistance,-0.5
;   toolChangeRetractionSpeed,600
;   externalThinWallType,1
;   internalThinWallType,2
;   thinWallAllowedOverlapPercentage,25
;   singleExtrusionMinLength,1
;   singleExtrusionMinPrintingWidthPercentage,50
;   singleExtrusionMaxPrintingWidthPercentage,200
;   singleExtrusionEndpointExtension,0.2
;   horizontalSizeCompensation,0
G90
M82
M106 S0
M140 S110
M190 S110
M104 S234 T0
M109 S234 T0
M355 ; Light
G28 ; home all axes
; process Process1
; layer 1, Z = 21.350
T0
G92 E0.0000
G1 E-3.6000 F1800
; feature skirt
; tool H0.250 W0.480
G1 Z21.350 F1000
G1 X48.307 Y46.102 F5800
G1 E0.0000 F1800
G92 E0.0000
G1 X48.458 Y45.951 E0.0107 F2600
G1 X48.859 Y45.608 E0.0370
G1 X49.032 Y45.483 E0.0476
G1 X49.482 Y45.207 E0.0740
G1 X49.672 Y45.110 E0.0846
G1 X50.160 Y44.908 E0.1110
G1 X50.363 Y44.842 E0.1216
G1 X50.876 Y44.719 E0.1479
G1 X51.087 Y44.685 E0.1586
G1 X51.560 Y44.648 E0.1823
G1 X51.666 Y44.644 E0.1876
G1 X55.261 Y44.644 E0.3669
G1 X56.261 Y45.058 E0.4209
G1 X58.347 Y47.144 E0.5681
G1 X61.093 Y47.144 E0.7051
G1 X63.179 Y45.058 E0.8523
G1 X64.179 Y44.644 E0.9063
G1 X134.061 Y44.644 E4.3927
G1 X135.061 Y45.058 E4.4467
G1 X137.147 Y47.144 E4.5938
G1 X139.893 Y47.144 E4.7309
G1 X141.979 Y45.058 E4.8781
G1 X142.979 Y44.644 E4.9320
G1 X146.573 Y44.644 E5.1114
G1 X146.680 Y44.648 E5.1167
G1 X147.153 Y44.685 E5.1403
G1 X147.364 Y44.719 E5.1510
G1 X147.877 Y44.842 E5.1773
G1 X148.080 Y44.908 E5.1880
G1 X148.568 Y45.110 E5.2143
G1 X148.758 Y45.207 E5.2250
G1 X149.208 Y45.483 E5.2513
G1 X149.381 Y45.608 E5.2620
G1 X149.782 Y45.951 E5.2883
G1 X149.933 Y46.102 E5.2990
G1 X150.276 Y46.503 E5.3253
G1 X150.401 Y46.676 E5.3359
G1 X150.677 Y47.126 E5.3623
G1 X150.774 Y47.316 E5.3729
G1 X150.976 Y47.804 E5.3992
G1 X151.042 Y48.007 E5.4099
G1 X151.165 Y48.520 E5.4362
G1 X151.199 Y48.731 E5.4469
G1 X151.236 Y49.204 E5.4705
G1 X151.240 Y49.311 E5.4759
G1 X151.240 Y68.200 E6.4182
G1 X151.425 Y68.339 E6.4298
G1 X151.533 Y68.428 E6.4368
G1 X152.089 Y68.943 E6.4746
G1 X152.187 Y69.043 E6.4816
G1 X152.687 Y69.613 E6.5194
G1 X152.774 Y69.723 E6.5264
G1 X153.213 Y70.340 E6.5642
G1 X153.288 Y70.458 E6.5712
G1 X153.662 Y71.118 E6.6090
G1 X153.724 Y71.243 E6.6160
G1 X154.028 Y71.938 E6.6538
G1 X154.077 Y72.069 E6.6608
G1 X154.308 Y72.791 E6.6986
G1 X154.343 Y72.926 E6.7056
G1 X154.498 Y73.668 E6.7434
G1 X154.520 Y73.807 E6.7504
G1 X154.598 Y74.561 E6.7882
G1 X154.605 Y74.700 E6.7952
G1 X154.605 Y75.458 E6.8330
G1 X154.598 Y75.598 E6.8400
G1 X154.520 Y76.352 E6.8778
G1 X154.498 Y76.490 E6.8848
G1 X154.343 Y77.232 E6.9226
G1 X154.308 Y77.368 E6.9296
G1 X154.077 Y78.090 E6.9674
G1 X154.028 Y78.221 E6.9744
G1 X153.724 Y78.915 E7.0122
G1 X153.662 Y79.041 E7.0192
G1 X153.288 Y79.700 E7.0570
G1 X153.213 Y79.818 E7.0640
G1 X152.774 Y80.436 E7.1018
G1 X152.687 Y80.546 E7.1088
G1 X152.187 Y81.115 E7.1466
G1 X152.089 Y81.216 E7.1536
G1 X151.533 Y81.730 E7.1914
G1 X151.425 Y81.820 E7.1984
G1 X150.819 Y82.275 E7.2362
G1 X150.703 Y82.353 E7.2432
G1 X150.053 Y82.743 E7.2810
G1 X149.929 Y82.809 E7.2880
G1 X149.243 Y83.131 E7.3258
G1 X149.113 Y83.183 E7.3328
G1 X148.397 Y83.432 E7.3706
G1 X148.263 Y83.471 E7.3776
G1 X147.525 Y83.646 E7.4154
G1 X147.387 Y83.671 E7.4224
G1 X146.636 Y83.768 E7.4602
G1 X146.496 Y83.779 E7.4672
G1 X145.738 Y83.798 E7.5050
G1 X145.598 Y83.795 E7.5120
G1 X144.843 Y83.736 E7.5498
G1 X144.704 Y83.718 E7.5568
G1 X143.958 Y83.582 E7.5946
G1 X143.822 Y83.550 E7.6016
G1 X143.094 Y83.338 E7.6394
G1 X142.962 Y83.292 E7.6464
G1 X142.260 Y83.007 E7.6842
G1 X142.133 Y82.947 E7.6912
G1 X141.464 Y82.591 E7.7290
G1 X141.344 Y82.519 E7.7360
G1 X140.715 Y82.096 E7.7738
G1 X140.603 Y82.012 E7.7808
G1 X140.021 Y81.526 E7.8186
G1 X139.918 Y81.431 E7.8256
G1 X139.389 Y80.889 E7.8634
G1 X139.297 Y80.783 E7.8704
G1 X138.826 Y80.189 E7.9082
G1 X138.745 Y80.075 E7.9152
G1 X138.339 Y79.435 E7.9530
G1 X138.270 Y79.313 E7.9600
G1 X137.931 Y78.636 E7.9978
G1 X137.875 Y78.507 E8.0048
G1 X137.607 Y77.798 E8.0426
G1 X137.565 Y77.664 E8.0496
G1 X137.372 Y76.932 E8.0874
G1 X137.343 Y76.795 E8.0944
G1 X137.226 Y76.046 E8.1322
G1 X137.212 Y75.906 E8.1392
G1 X137.173 Y75.149 E8.1770
G1 X137.173 Y75.009 E8.1840
G1 X137.212 Y74.252 E8.2218
G1 X137.226 Y74.113 E8.2288
G1 X137.343 Y73.364 E8.2666
G1 X137.372 Y73.227 E8.2736
G1 X137.565 Y72.494 E8.3114
G1 X137.607 Y72.361 E8.3184
G1 X137.875 Y71.652 E8.3562
G1 X137.931 Y71.523 E8.3632
G1 X138.270 Y70.845 E8.4010
G1 X138.339 Y70.723 E8.4080
G1 X138.745 Y70.084 E8.4458
G1 X138.826 Y69.970 E8.4528
G1 X139.297 Y69.376 E8.4906
G1 X139.389 Y69.270 E8.4976
G1 X139.918 Y68.727 E8.5354
G1 X140.021 Y68.632 E8.5424
G1 X140.603 Y68.147 E8.5802
G1 X140.687 Y68.084 E8.5854
G1 X124.760 Y68.084 E9.3800
G1 X124.441 Y68.046 E9.3960
G1 X123.790 Y67.890 E9.4294
G1 X123.217 Y67.598 E9.4615
G1 X122.544 Y67.023 E9.5057
G1 X122.126 Y66.397 E9.5432
G1 X121.866 Y65.599 E9.5851
G1 X121.799 Y65.173 E9.6066
G1 X121.821 Y56.705 E10.0291
G1 X122.087 Y55.889 E10.0719
G1 X122.737 Y54.993 E10.1272
G1 X123.435 Y54.487 E10.1702
G1 X124.283 Y54.211 E10.2147
G1 X124.706 Y54.144 E10.2360
G1 X126.800 Y54.144 E10.3405
G1 X126.800 Y54.084 E10.3435
G1 X71.440 Y54.084 E13.1054
G1 X71.440 Y54.144 E13.1084
G1 X73.534 Y54.144 E13.2129
G1 X73.957 Y54.211 E13.2342
G1 X74.805 Y54.487 E13.2787
G1 X75.502 Y54.993 E13.3217
G1 X76.153 Y55.889 E13.3770
G1 X76.419 Y56.705 E13.4198
G1 X76.440 Y65.173 E13.8423
G1 X76.373 Y65.599 E13.8638
G1 X76.114 Y66.397 E13.9057
G1 X75.696 Y67.023 E13.9432
G1 X75.023 Y67.598 E13.9874
G1 X74.449 Y67.890 E14.0195
G1 X73.799 Y68.046 E14.0529
G1 X73.480 Y68.084 E14.0689
G1 X57.832 Y68.084 E14.8495
G1 X57.995 Y68.269 E14.8618
G1 X58.082 Y68.379 E14.8688
G1 X58.521 Y68.997 E14.9066
G1 X58.596 Y69.115 E14.9136
G1 X58.970 Y69.775 E14.9514
G1 X59.032 Y69.900 E14.9584
G1 X59.336 Y70.594 E14.9962
G1 X59.385 Y70.725 E15.0032
G1 X59.616 Y71.447 E15.0410
G1 X59.651 Y71.583 E15.0480
G1 X59.806 Y72.325 E15.0859
G1 X59.828 Y72.463 E15.0928
G1 X59.906 Y73.217 E15.1307
G1 X59.913 Y73.357 E15.1376
G1 X59.913 Y74.115 E15.1754
G1 X59.906 Y74.255 E15.1824
G1 X59.828 Y75.009 E15.2202
G1 X59.806 Y75.147 E15.2272
G1 X59.651 Y75.889 E15.2650
G1 X59.616 Y76.024 E15.2720
G1 X59.385 Y76.746 E15.3099
G1 X59.336 Y76.877 E15.3168
G1 X59.032 Y77.572 E15.3547
G1 X58.970 Y77.697 E15.3616
G1 X58.596 Y78.357 E15.3995
G1 X58.521 Y78.475 E15.4064
G1 X58.082 Y79.093 E15.4442
G1 X57.995 Y79.203 E15.4512
G1 X57.495 Y79.772 E15.4891
G1 X57.397 Y79.872 E15.4960
G1 X56.841 Y80.387 E15.5338
G1 X56.733 Y80.477 E15.5408
G1 X56.127 Y80.932 E15.5787
G1 X56.011 Y81.010 E15.5856
G1 X55.361 Y81.400 E15.6235
G1 X55.237 Y81.466 E15.6304
G1 X54.551 Y81.787 E15.6682
G1 X54.421 Y81.840 E15.6752
G1 X53.705 Y82.089 E15.7131
G1 X53.571 Y82.128 E15.7200
G1 X52.833 Y82.302 E15.7579
G1 X52.696 Y82.327 E15.7648
G1 X51.944 Y82.424 E15.8027
G1 X51.804 Y82.435 E15.8096
G1 X51.047 Y82.455 E15.8475
G1 X50.907 Y82.451 E15.8544
G1 X50.151 Y82.393 E15.8923
G1 X50.012 Y82.375 E15.8992
G1 X49.266 Y82.239 E15.9371
G1 X49.130 Y82.207 E15.9440
G1 X48.402 Y81.995 E15.9819
G1 X48.270 Y81.949 E15.9888
G1 X47.568 Y81.663 E16.0267
G1 X47.441 Y81.604 E16.0336
G1 X46.772 Y81.248 E16.0715
G1 X46.652 Y81.176 E16.0784
G1 X46.023 Y80.753 E16.1163
G1 X45.911 Y80.668 E16.1232
G1 X45.329 Y80.183 E16.1611
G1 X45.226 Y80.088 E16.1680
G1 X44.697 Y79.545 E16.2059
G1 X44.605 Y79.440 E16.2128
G1 X44.135 Y78.846 E16.2507
G1 X44.053 Y78.731 E16.2576
G1 X43.647 Y78.092 E16.2955
G1 X43.578 Y77.970 E16.3024
G1 X43.239 Y77.292 E16.3403
G1 X43.183 Y77.164 E16.3472
G1 X42.915 Y76.454 E16.3851
G1 X42.873 Y76.321 E16.3920
G1 X42.680 Y75.588 E16.4299
G1 X42.651 Y75.451 E16.4368
G1 X42.535 Y74.702 E16.4747
G1 X42.520 Y74.563 E16.4816
G1 X42.481 Y73.806 E16.5195
G1 X42.481 Y73.666 E16.5264
G1 X42.520 Y72.909 E16.5643
G1 X42.535 Y72.770 E16.5712
G1 X42.651 Y72.021 E16.6091
G1 X42.680 Y71.884 E16.6160
G1 X42.873 Y71.151 E16.6539
G1 X42.915 Y71.017 E16.6608
G1 X43.183 Y70.308 E16.6987
G1 X43.239 Y70.180 E16.7056
G1 X43.578 Y69.502 E16.7435
G1 X43.647 Y69.380 E16.7504
G1 X44.053 Y68.740 E16.7883
G1 X44.135 Y68.626 E16.7952
G1 X44.605 Y68.032 E16.8331
G1 X44.698 Y67.927 E16.8400
G1 X45.226 Y67.384 E16.8779
G1 X45.329 Y67.289 E16.8848
G1 X45.911 Y66.803 E16.9227
G1 X46.023 Y66.719 E16.9296
G1 X46.652 Y66.296 E16.9675
G1 X46.772 Y66.224 E16.9744
G1 X47.000 Y66.103 E16.9873
G1 X47.000 Y49.311 E17.8251
G1 X47.004 Y49.204 E17.8304
G1 X47.041 Y48.736 E17.8538
G1 X47.074 Y48.528 E17.8643
G1 X47.197 Y48.011 E17.8909
G1 X47.263 Y47.805 E17.9016
G1 X47.466 Y47.316 E17.9280
G1 X47.563 Y47.126 E17.9387
G1 X47.838 Y46.676 E17.9650
G1 X47.964 Y46.503 E17.9757
G1 X48.307 Y46.102 E18.0020
G1 X48.660 Y46.428 F5800
G92 E0.0000
G1 X48.784 Y46.304 E0.0088 F2600
G1 X49.157 Y45.986 E0.0332
G1 X49.299 Y45.882 E0.0420
G1 X49.717 Y45.626 E0.0664
G1 X49.873 Y45.546 E0.0752
G1 X50.326 Y45.359 E0.0997
G1 X50.493 Y45.304 E0.1084
G1 X50.970 Y45.190 E0.1329
G1 X51.144 Y45.162 E0.1417
G1 X51.588 Y45.127 E0.1639
G1 X51.676 Y45.124 E0.1683
G1 X55.165 Y45.124 E0.3424
G1 X55.989 Y45.465 E0.3869
G1 X58.148 Y47.624 E0.5392
G1 X61.292 Y47.624 E0.6960
G1 X63.451 Y45.465 E0.8484
G1 X64.274 Y45.124 E0.8928
G1 X133.965 Y45.124 E4.3697
G1 X134.789 Y45.465 E4.4142
G1 X136.948 Y47.624 E4.5665
G1 X140.092 Y47.624 E4.7234
G1 X142.251 Y45.465 E4.8757
G1 X143.074 Y45.124 E4.9202
G1 X146.564 Y45.124 E5.0943
G1 X146.652 Y45.127 E5.0987
G1 X147.096 Y45.162 E5.1209
G1 X147.270 Y45.190 E5.1297
G1 X147.746 Y45.304 E5.1541
G1 X147.914 Y45.359 E5.1629
G1 X148.366 Y45.546 E5.1874
G1 X148.523 Y45.626 E5.1961
G1 X148.941 Y45.882 E5.2206
G1 X149.083 Y45.986 E5.2294
G1 X149.456 Y46.304 E5.2538
G1 X149.580 Y46.428 E5.2626
G1 X149.898 Y46.801 E5.2870
G1 X150.002 Y46.943 E5.2958
G1 X150.258 Y47.361 E5.3202
G1 X150.338 Y47.517 E5.3290
G1 X150.525 Y47.970 E5.3535
G1 X150.580 Y48.137 E5.3622
G1 X150.694 Y48.614 E5.3867
G1 X150.721 Y48.788 E5.3955
G1 X150.756 Y49.232 E5.4177
G1 X150.760 Y49.320 E5.4221
G1 X150.760 Y68.439 E6.3760
G1 X151.127 Y68.715 E6.3989
G1 X151.216 Y68.789 E6.4046
G1 X151.754 Y69.287 E6.4412
G1 X151.834 Y69.370 E6.4470
G1 X152.318 Y69.920 E6.4835
G1 X152.390 Y70.011 E6.4893
G1 X152.815 Y70.608 E6.5259
G1 X152.877 Y70.706 E6.5316
G1 X153.238 Y71.344 E6.5682
G1 X153.289 Y71.447 E6.5740
G1 X153.583 Y72.119 E6.6105
G1 X153.624 Y72.227 E6.6163
G1 X153.847 Y72.925 E6.6529
G1 X153.876 Y73.037 E6.6586
G1 X154.026 Y73.754 E6.6952
G1 X154.044 Y73.868 E6.7010
G1 X154.119 Y74.598 E6.7375
G1 X154.125 Y74.713 E6.7433
G1 X154.125 Y75.446 E6.7799
G1 X154.119 Y75.561 E6.7856
G1 X154.044 Y76.290 E6.8222
G1 X154.026 Y76.404 E6.8280
G1 X153.876 Y77.122 E6.8645
G1 X153.847 Y77.234 E6.8703
G1 X153.624 Y77.932 E6.9069
G1 X153.583 Y78.040 E6.9126
G1 X153.289 Y78.712 E6.9492
G1 X153.238 Y78.815 E6.9550
G1 X152.877 Y79.453 E6.9915
G1 X152.815 Y79.550 E6.9973
G1 X152.390 Y80.148 E7.0339
G1 X152.318 Y80.238 E7.0396
G1 X151.834 Y80.789 E7.0762
G1 X151.754 Y80.872 E7.0820
