; G-Code generated by Simplify3D(R) Version 4.1.2
; Dec 5, 2022 at 10:26:42 AM
; Settings Summary
;   processName,Process1
;   applyToModels,Pad,Pad(2),Pad(3),Pad(4),main-t
;   profileName,ABS
;   profileVersion,2019-11-09 17:57:01
;   baseProfile,Default
;   printMaterial,ABS
;   printQuality,Medium
;   printExtruders,
;   extruderName,Primary Extruder
;   extruderToolheadNumber,0
;   extruderDiameter,0.35
;   extruderAutoWidth,0
;   extruderWidth,0.48
;   extrusionMultiplier,1
;   extruderUseRetract,1
;   extruderRetractionDistance,3.6
;   extruderExtraRestartDistance,0
;   extruderRetractionZLift,0
;   extruderRetractionSpeed,1800
;   extruderUseCoasting,0
;   extruderCoastingDistance,0
;   extruderUseWipe,0
;   extruderWipeDistance,5
;   primaryExtruder,0
;   layerHeight,0.2
;   topSolidLayers,3
;   bottomSolidLayers,3
;   perimeterOutlines,3
;   printPerimetersInsideOut,1
;   startPointOption,2
;   startPointOriginX,0
;   startPointOriginY,0
;   sequentialIslands,0
;   spiralVaseMode,0
;   firstLayerHeightPercentage,125
;   firstLayerWidthPercentage,100
;   firstLayerUnderspeed,0.5
;   useRaft,0
;   raftExtruder,0
;   raftTopLayers,1
;   raftBaseLayers,1
;   raftOffset,5
;   raftSeparationDistance,0.2
;   raftTopInfill,60
;   aboveRaftSpeedMultiplier,0.3
;   useSkirt,1
;   skirtExtruder,0
;   skirtLayers,1
;   skirtOutlines,2
;   skirtOffset,2
;   usePrimePillar,0
;   primePillarExtruder,999
;   primePillarWidth,12
;   primePillarLocation,7
;   primePillarSpeedMultiplier,1
;   useOozeShield,0
;   oozeShieldExtruder,999
;   oozeShieldOffset,2
;   oozeShieldOutlines,1
;   oozeShieldSidewallShape,1
;   oozeShieldSidewallAngle,30
;   oozeShieldSpeedMultiplier,1
;   infillExtruder,0
;   internalInfillPattern,Rectilinear
;   externalInfillPattern,Rectilinear
;   infillPercentage,40
;   outlineOverlapPercentage,15
;   infillExtrusionWidthPercentage,100
;   minInfillLength,5
;   infillLayerInterval,1
;   internalInfillAngles,45,-45
;   overlapInternalInfillAngles,0
;   externalInfillAngles,45,-45
;   generateSupport,0
;   supportExtruder,0
;   supportInfillPercentage,8
;   supportExtraInflation,2
;   supportBaseLayers,0
;   denseSupportExtruder,0
;   denseSupportLayers,1
;   denseSupportInfillPercentage,60
;   supportLayerInterval,1
;   supportHorizontalPartOffset,0.8
;   supportUpperSeparationLayers,1
;   supportLowerSeparationLayers,1
;   supportType,0
;   supportGridSpacing,1
;   maxOverhangAngle,50
;   supportAngles,45,-45
;   temperatureName,Primary Extruder,Bed
;   temperatureNumber,0,1
;   temperatureSetpointCount,1,2
;   temperatureSetpointLayers,1,1,5
;   temperatureSetpointTemperatures,234,110,105
;   temperatureStabilizeAtStartup,1,1
;   temperatureHeatedBed,0,1
;   fanLayers,1,3
;   fanSpeeds,0,80
;   blipFanToFullPower,1
;   adjustSpeedForCooling,1
;   minSpeedLayerTime,10
;   minCoolingSpeedSlowdown,40
;   increaseFanForCooling,1
;   minFanLayerTime,15
;   maxCoolingFanSpeed,100
;   increaseFanForBridging,1
;   bridgingFanSpeed,100
;   use5D,1
;   relativeEdistances,0
;   allowEaxisZeroing,1
;   independentExtruderAxes,0
;   includeM10123,0
;   stickySupport,1
;   applyToolheadOffsets,0
;   gcodeXoffset,0
;   gcodeYoffset,0
;   gcodeZoffset,21.1
;   overrideMachineDefinition,0
;   machineTypeOverride,0
;   strokeXoverride,200
;   strokeYoverride,200
;   strokeZoverride,200
;   originOffsetXoverride,0
;   originOffsetYoverride,0
;   originOffsetZoverride,0
;   homeXdirOverride,-1
;   homeYdirOverride,-1
;   homeZdirOverride,-1
;   flipXoverride,1
;   flipYoverride,-1
;   flipZoverride,1
;   toolheadOffsets,0,0|0,0|0,0|0,0|0,0|0,0
;   overrideFirmwareConfiguration,0
;   firmwareTypeOverride,RepRap (Marlin/Repetier/Sprinter)
;   GPXconfigOverride,r2
;   baudRateOverride,115200
;   overridePrinterModels,0
;   printerModelsOverride
;   startingGcode,M355 ; Light,G28 ; home all axes
;   layerChangeGcode,
;   retractionGcode,
;   toolChangeGcode,
;   endingGcode,M104 S0 ; turn off extruder,M140 S0 ; turn off bed,G92 E0,G1 E-5 ; Retract,G28,M356,M106 S0,M84 ; disable motors
;   exportFileFormat,gcode
;   celebration,0
;   celebrationSong,Random Song
;   postProcessing,
;   defaultSpeed,5200
;   outlineUnderspeed,0.5
;   solidInfillUnderspeed,0.8
;   supportUnderspeed,0.8
;   rapidXYspeed,5800
;   rapidZspeed,1000
;   minBridgingArea,50
;   bridgingExtraInflation,0.2
;   bridgingExtrusionMultiplier,1.1
;   bridgingSpeedMultiplier,0.4
;   useFixedBridgingAngle,0
;   fixedBridgingAngle,0
;   applyBridgingToPerimeters,0
;   filamentDiameters,1.75|1.75|1.75|1.75|1.75|1.75
;   filamentPricesPerKg,250|250|250|250|250|250
;   filamentDensities,1.25|1.25|1.25|1.25|1.25|1.25
;   useMinPrintHeight,0
;   minPrintHeight,5.3
;   useMaxPrintHeight,0
;   maxPrintHeight,8
;   useDiaphragm,0
;   diaphragmLayerInterval,20
;   robustSlicing,1
;   mergeAllIntoSolid,0
;   onlyRetractWhenCrossingOutline,1
;   retractBetweenLayers,1
;   useRetractionMinTravel,1
;   retractionMinTravel,3
;   retractWhileWiping,0
;   onlyWipeOutlines,1
;   avoidCrossingOutline,1
;   maxMovementDetourFactor,3
;   toolChangeRetractionDistance,12
;   toolChangeExtraRestartDistance,-0.5
;   toolChangeRetractionSpeed,600
;   externalThinWallType,1
;   internalThinWallType,2
;   thinWallAllowedOverlapPercentage,25
;   singleExtrusionMinLength,1
;   singleExtrusionMinPrintingWidthPercentage,50
;   singleExtrusionMaxPrintingWidthPercentage,200
;   singleExtrusionEndpointExtension,0.2
;   horizontalSizeCompensation,0
G90
M82
M106 S0
M140 S110
M190 S110
M104 S234 T0
M109 S234 T0
M355 ; Light
G28 ; home all axes
; process Process1
; layer 1, Z = 21.350
T0
G92 E0.0000
G1 E-3.6000 F1800
; feature skirt
; tool H0.250 W0.480
G1 Z21.350 F1000
G1 X39.008 Y31.898 F5800
G1 E0.0000 F1800
G92 E0.0000
G1 X39.478 Y31.304 E0.0378 F2600
G1 X39.571 Y31.198 E0.0448
G1 X40.100 Y30.656 E0.0826
G1 X40.203 Y30.560 E0.0896
G1 X40.785 Y30.075 E0.1274
G1 X40.897 Y29.991 E0.1344
G1 X41.525 Y29.568 E0.1722
G1 X41.645 Y29.496 E0.1792
G1 X42.314 Y29.139 E0.2170
G1 X42.441 Y29.080 E0.2240
G1 X43.143 Y28.795 E0.2618
G1 X43.276 Y28.749 E0.2688
G1 X44.003 Y28.537 E0.3066
G1 X44.140 Y28.505 E0.3136
G1 X44.885 Y28.369 E0.3514
G1 X45.024 Y28.351 E0.3584
G1 X45.780 Y28.292 E0.3962
G1 X45.920 Y28.289 E0.4032
G1 X46.678 Y28.308 E0.4410
G1 X46.817 Y28.319 E0.4480
G1 X47.569 Y28.416 E0.4858
G1 X47.707 Y28.441 E0.4928
G1 X48.444 Y28.615 E0.5306
G1 X48.579 Y28.655 E0.5376
G1 X49.295 Y28.904 E0.5754
G1 X49.424 Y28.956 E0.5824
G1 X50.111 Y29.278 E0.6202
G1 X50.234 Y29.343 E0.6272
G1 X50.884 Y29.734 E0.6650
G1 X51.000 Y29.812 E0.6720
G1 X51.607 Y30.267 E0.7098
G1 X51.714 Y30.356 E0.7168
G1 X52.270 Y30.871 E0.7546
G1 X52.368 Y30.972 E0.7616
G1 X52.868 Y31.541 E0.7994
G1 X52.955 Y31.651 E0.8064
G1 X53.395 Y32.268 E0.8442
G1 X53.470 Y32.387 E0.8512
G1 X53.843 Y33.046 E0.8890
G1 X53.906 Y33.171 E0.8960
G1 X54.209 Y33.866 E0.9338
G1 X54.259 Y33.997 E0.9408
G1 X54.489 Y34.719 E0.9786
G1 X54.525 Y34.855 E0.9856
G1 X54.680 Y35.596 E1.0234
G1 X54.701 Y35.735 E1.0304
G1 X54.779 Y36.489 E1.0682
G1 X54.786 Y36.629 E1.0752
G1 X54.786 Y37.386 E1.1130
G1 X54.785 Y37.421 E1.1147
G1 X56.004 Y38.640 E1.2008
G1 X58.751 Y38.640 E1.3378
G1 X60.837 Y36.554 E1.4850
G1 X61.836 Y36.140 E1.5389
G1 X131.718 Y36.140 E5.0254
G1 X132.718 Y36.554 E5.0794
G1 X134.804 Y38.640 E5.2265
G1 X137.551 Y38.640 E5.3636
G1 X139.109 Y37.081 E5.4735
G1 X139.121 Y36.968 E5.4792
G1 X139.238 Y36.219 E5.5170
G1 X139.266 Y36.082 E5.5240
G1 X139.459 Y35.349 E5.5618
G1 X139.502 Y35.215 E5.5688
G1 X139.769 Y34.506 E5.6066
G1 X139.825 Y34.378 E5.6136
G1 X140.164 Y33.700 E5.6514
G1 X140.233 Y33.578 E5.6584
G1 X140.640 Y32.939 E5.6962
G1 X140.721 Y32.824 E5.7032
G1 X141.191 Y32.230 E5.7410
G1 X141.284 Y32.125 E5.7480
G1 X141.813 Y31.582 E5.7858
G1 X141.916 Y31.487 E5.7928
G1 X142.498 Y31.002 E5.8306
G1 X142.610 Y30.917 E5.8376
G1 X143.238 Y30.494 E5.8754
G1 X143.359 Y30.422 E5.8824
G1 X144.028 Y30.066 E5.9202
G1 X144.154 Y30.007 E5.9272
G1 X144.856 Y29.721 E5.9650
G1 X144.989 Y29.675 E5.9720
G1 X145.716 Y29.463 E6.0098
G1 X145.853 Y29.431 E6.0168
G1 X146.598 Y29.295 E6.0546
G1 X146.737 Y29.277 E6.0616
G1 X147.493 Y29.219 E6.0994
G1 X147.633 Y29.215 E6.1064
G1 X148.391 Y29.235 E6.1442
G1 X148.530 Y29.245 E6.1512
G1 X149.282 Y29.343 E6.1890
G1 X149.420 Y29.368 E6.1960
G1 X150.157 Y29.542 E6.2338
G1 X150.292 Y29.581 E6.2408
G1 X151.008 Y29.830 E6.2786
G1 X151.138 Y29.883 E6.2856
G1 X151.824 Y30.204 E6.3234
G1 X151.948 Y30.270 E6.3304
G1 X152.597 Y30.660 E6.3682
G1 X152.714 Y30.738 E6.3752
G1 X153.320 Y31.193 E6.4130
G1 X153.427 Y31.283 E6.4200
G1 X153.983 Y31.798 E6.4578
G1 X154.081 Y31.898 E6.4648
G1 X154.582 Y32.467 E6.5026
G1 X154.669 Y32.577 E6.5096
G1 X155.108 Y33.195 E6.5474
G1 X155.183 Y33.313 E6.5544
G1 X155.556 Y33.973 E6.5922
G1 X155.619 Y34.098 E6.5992
G1 X155.922 Y34.792 E6.6370
G1 X155.972 Y34.924 E6.6440
G1 X156.202 Y35.646 E6.6818
G1 X156.238 Y35.781 E6.6888
G1 X156.393 Y36.523 E6.7267
G1 X156.414 Y36.661 E6.7336
G1 X156.492 Y37.415 E6.7714
G1 X156.500 Y37.555 E6.7784
G1 X156.500 Y38.313 E6.8162
G1 X156.492 Y38.453 E6.8232
G1 X156.414 Y39.207 E6.8610
G1 X156.393 Y39.345 E6.8680
G1 X156.238 Y40.087 E6.9058
G1 X156.202 Y40.223 E6.9128
G1 X155.972 Y40.945 E6.9506
G1 X155.922 Y41.076 E6.9576
G1 X155.619 Y41.770 E6.9955
G1 X155.556 Y41.895 E7.0024
G1 X155.183 Y42.555 E7.0402
G1 X155.108 Y42.673 E7.0472
G1 X154.669 Y43.291 E7.0850
G1 X154.582 Y43.401 E7.0920
G1 X154.081 Y43.970 E7.1298
G1 X153.983 Y44.070 E7.1368
G1 X153.427 Y44.585 E7.1746
G1 X153.320 Y44.675 E7.1816
G1 X152.714 Y45.130 E7.2194
G1 X152.597 Y45.208 E7.2264
G1 X151.948 Y45.598 E7.2643
G1 X151.824 Y45.664 E7.2712
G1 X151.137 Y45.985 E7.3091
G1 X151.008 Y46.038 E7.3160
G1 X150.292 Y46.287 E7.3538
G1 X150.157 Y46.326 E7.3608
G1 X149.420 Y46.500 E7.3987
G1 X149.282 Y46.525 E7.4056
G1 X148.897 Y46.575 E7.4250
G1 X148.897 Y56.916 E7.9409
G1 X149.432 Y57.318 E7.9743
G1 X149.540 Y57.408 E7.9813
G1 X150.096 Y57.922 E8.0191
G1 X150.194 Y58.023 E8.0261
G1 X150.694 Y58.592 E8.0639
G1 X150.781 Y58.702 E8.0709
G1 X151.220 Y59.320 E8.1087
G1 X151.296 Y59.438 E8.1157
G1 X151.669 Y60.097 E8.1535
G1 X151.732 Y60.223 E8.1605
G1 X152.035 Y60.917 E8.1983
G1 X152.084 Y61.048 E8.2053
G1 X152.315 Y61.770 E8.2431
G1 X152.351 Y61.906 E8.2501
G1 X152.506 Y62.648 E8.2879
G1 X152.527 Y62.786 E8.2949
G1 X152.605 Y63.540 E8.3327
G1 X152.612 Y63.680 E8.3397
G1 X152.612 Y64.438 E8.3775
G1 X152.605 Y64.578 E8.3845
G1 X152.527 Y65.331 E8.4223
G1 X152.506 Y65.470 E8.4293
G1 X152.351 Y66.212 E8.4671
G1 X152.315 Y66.347 E8.4741
G1 X152.084 Y67.069 E8.5119
G1 X152.035 Y67.200 E8.5189
G1 X151.731 Y67.895 E8.5567
G1 X151.669 Y68.020 E8.5637
G1 X151.296 Y68.680 E8.6015
G1 X151.220 Y68.798 E8.6085
G1 X150.781 Y69.415 E8.6463
G1 X150.694 Y69.525 E8.6533
G1 X150.194 Y70.095 E8.6911
G1 X150.096 Y70.195 E8.6981
G1 X149.540 Y70.710 E8.7359
G1 X149.432 Y70.799 E8.7429
G1 X148.826 Y71.254 E8.7807
G1 X148.710 Y71.333 E8.7877
G1 X148.060 Y71.723 E8.8255
G1 X147.937 Y71.789 E8.8325
G1 X147.250 Y72.110 E8.8703
G1 X147.120 Y72.163 E8.8773
G1 X146.405 Y72.412 E8.9151
G1 X146.270 Y72.451 E8.9221
G1 X145.532 Y72.625 E8.9599
G1 X145.395 Y72.650 E8.9669
G1 X144.643 Y72.747 E9.0047
G1 X144.503 Y72.758 E9.0117
G1 X143.746 Y72.778 E9.0495
G1 X143.606 Y72.774 E9.0565
G1 X142.850 Y72.716 E9.0943
G1 X142.711 Y72.698 E9.1013
G1 X141.966 Y72.562 E9.1391
G1 X141.829 Y72.529 E9.1461
G1 X141.102 Y72.318 E9.1839
G1 X140.969 Y72.272 E9.1909
G1 X140.267 Y71.986 E9.2287
G1 X140.140 Y71.927 E9.2357
G1 X139.471 Y71.570 E9.2735
G1 X139.351 Y71.498 E9.2805
G1 X138.722 Y71.075 E9.3183
G1 X138.610 Y70.991 E9.3253
G1 X138.028 Y70.506 E9.3631
G1 X137.926 Y70.411 E9.3701
G1 X137.397 Y69.868 E9.4079
G1 X137.304 Y69.763 E9.4149
G1 X136.834 Y69.168 E9.4527
G1 X136.753 Y69.054 E9.4597
G1 X136.346 Y68.415 E9.4975
G1 X136.277 Y68.293 E9.5045
G1 X135.938 Y67.615 E9.5423
G1 X135.882 Y67.486 E9.5493
G1 X135.615 Y66.777 E9.5871
G1 X135.572 Y66.644 E9.5941
G1 X135.379 Y65.911 E9.6319
G1 X135.350 Y65.774 E9.6389
G1 X135.234 Y65.025 E9.6767
G1 X135.219 Y64.886 E9.6837
G1 X135.180 Y64.129 E9.7215
G1 X135.180 Y63.989 E9.7285
G1 X135.219 Y63.232 E9.7663
G1 X135.234 Y63.092 E9.7733
G1 X135.350 Y62.344 E9.8111
G1 X135.379 Y62.206 E9.8181
G1 X135.572 Y61.474 E9.8559
G1 X135.615 Y61.340 E9.8629
G1 X135.882 Y60.631 E9.9007
G1 X135.938 Y60.503 E9.9077
G1 X136.277 Y59.825 E9.9455
G1 X136.346 Y59.703 E9.9525
G1 X136.424 Y59.580 E9.9597
G1 X122.417 Y59.580 E10.6586
G1 X122.098 Y59.542 E10.6746
G1 X121.448 Y59.386 E10.7079
G1 X120.874 Y59.094 E10.7401
G1 X120.201 Y58.519 E10.7842
G1 X119.783 Y57.893 E10.8217
G1 X119.524 Y57.095 E10.8636
G1 X119.457 Y56.668 E10.8852
G1 X119.478 Y49.200 E11.2578
G1 X119.744 Y48.385 E11.3006
G1 X120.395 Y47.489 E11.3558
G1 X121.092 Y46.983 E11.3988
G1 X121.940 Y46.707 E11.4433
G1 X122.363 Y46.640 E11.4647
G1 X124.457 Y46.640 E11.5691
G1 X124.457 Y45.580 E11.6220
G1 X69.097 Y45.580 E14.3839
G1 X69.097 Y46.640 E14.4368
G1 X71.191 Y46.640 E14.5413
G1 X71.614 Y46.707 E14.5626
G1 X72.463 Y46.983 E14.6072
G1 X73.160 Y47.489 E14.6501
G1 X73.810 Y48.385 E14.7054
G1 X74.076 Y49.200 E14.7481
G1 X74.098 Y56.668 E15.1207
G1 X74.031 Y57.095 E15.1423
G1 X73.772 Y57.893 E15.1842
G1 X73.354 Y58.519 E15.2217
G1 X72.681 Y59.094 E15.2659
G1 X72.107 Y59.386 E15.2980
G1 X71.456 Y59.542 E15.3314
G1 X71.138 Y59.580 E15.3474
G1 X54.754 Y59.580 E16.1648
G1 X54.823 Y59.651 E16.1697
G1 X55.323 Y60.220 E16.2075
G1 X55.410 Y60.330 E16.2145
G1 X55.849 Y60.948 E16.2523
G1 X55.925 Y61.066 E16.2593
G1 X56.298 Y61.725 E16.2971
G1 X56.360 Y61.851 E16.3041
G1 X56.664 Y62.545 E16.3419
G1 X56.713 Y62.676 E16.3489
G1 X56.944 Y63.398 E16.3867
G1 X56.980 Y63.534 E16.3937
G1 X57.135 Y64.276 E16.4315
G1 X57.156 Y64.414 E16.4385
G1 X57.234 Y65.168 E16.4763
G1 X57.241 Y65.308 E16.4833
G1 X57.241 Y66.066 E16.5211
G1 X57.234 Y66.206 E16.5281
G1 X57.156 Y66.959 E16.5659
G1 X57.135 Y67.098 E16.5729
G1 X56.980 Y67.840 E16.6107
G1 X56.944 Y67.975 E16.6177
G1 X56.713 Y68.697 E16.6555
G1 X56.664 Y68.828 E16.6625
G1 X56.360 Y69.523 E16.7003
G1 X56.298 Y69.648 E16.7073
G1 X55.925 Y70.308 E16.7451
G1 X55.849 Y70.426 E16.7521
G1 X55.410 Y71.043 E16.7899
G1 X55.323 Y71.153 E16.7969
G1 X54.823 Y71.723 E16.8347
G1 X54.725 Y71.823 E16.8417
G1 X54.169 Y72.338 E16.8795
G1 X54.061 Y72.427 E16.8865
G1 X53.455 Y72.882 E16.9243
G1 X53.339 Y72.961 E16.9313
G1 X52.689 Y73.351 E16.9691
G1 X52.566 Y73.417 E16.9761
G1 X51.879 Y73.738 E17.0139
G1 X51.749 Y73.791 E17.0209
G1 X51.034 Y74.040 E17.0587
G1 X50.899 Y74.079 E17.0657
G1 X50.162 Y74.253 E17.1035
G1 X50.024 Y74.278 E17.1105
G1 X49.272 Y74.375 E17.1483
G1 X49.132 Y74.386 E17.1553
G1 X48.375 Y74.406 E17.1931
G1 X48.235 Y74.402 E17.2001
G1 X47.479 Y74.344 E17.2379
G1 X47.340 Y74.326 E17.2449
G1 X46.595 Y74.190 E17.2827
G1 X46.458 Y74.157 E17.2897
G1 X45.731 Y73.946 E17.3275
G1 X45.598 Y73.900 E17.3345
G1 X44.896 Y73.614 E17.3723
G1 X44.769 Y73.555 E17.3793
G1 X44.100 Y73.199 E17.4171
G1 X43.980 Y73.126 E17.4241
G1 X43.351 Y72.703 E17.4619
G1 X43.239 Y72.619 E17.4689
G1 X42.657 Y72.134 E17.5067
G1 X42.555 Y72.039 E17.5137
G1 X42.026 Y71.496 E17.5515
G1 X41.933 Y71.391 E17.5585
G1 X41.463 Y70.796 E17.5963
G1 X41.382 Y70.682 E17.6033
G1 X40.975 Y70.043 E17.6411
G1 X40.906 Y69.921 E17.6481
G1 X40.567 Y69.243 E17.6859
G1 X40.511 Y69.114 E17.6929
G1 X40.244 Y68.405 E17.7307
G1 X40.201 Y68.272 E17.7377
G1 X40.008 Y67.539 E17.7755
G1 X39.979 Y67.402 E17.7825
G1 X39.863 Y66.653 E17.8203
G1 X39.848 Y66.514 E17.8273
G1 X39.809 Y65.757 E17.8651
G1 X39.809 Y65.617 E17.8721
G1 X39.848 Y64.860 E17.9099
G1 X39.863 Y64.720 E17.9169
G1 X39.979 Y63.972 E17.9547
G1 X40.008 Y63.834 E17.9617
G1 X40.201 Y63.102 E17.9995
G1 X40.244 Y62.968 E18.0065
G1 X40.511 Y62.259 E18.0443
G1 X40.567 Y62.131 E18.0513
G1 X40.906 Y61.453 E18.0891
G1 X40.975 Y61.331 E18.0961
G1 X41.382 Y60.691 E18.1339
G1 X41.463 Y60.577 E18.1409
G1 X41.933 Y59.983 E18.1787
G1 X42.026 Y59.878 E18.1857
G1 X42.555 Y59.335 E18.2235
G1 X42.657 Y59.240 E18.2305
G1 X43.239 Y58.754 E18.2683
G1 X43.351 Y58.670 E18.2753
