; G-Code generated by Simplify3D(R) Version 4.1.2
; Nov 28, 2022 at 11:38:42 AM
; Settings Summary
;   processName,Process1
;   applyToModels,Pad,Pad(2),main-t
;   profileName,ABS
;   profileVersion,2019-11-09 17:57:01
;   baseProfile,Default
;   printMaterial,ABS
;   printQuality,Medium
;   printExtruders,
;   extruderName,Primary Extruder
;   extruderToolheadNumber,0
;   extruderDiameter,0.35
;   extruderAutoWidth,0
;   extruderWidth,0.48
;   extrusionMultiplier,1
;   extruderUseRetract,1
;   extruderRetractionDistance,3.6
;   extruderExtraRestartDistance,0
;   extruderRetractionZLift,0
;   extruderRetractionSpeed,1800
;   extruderUseCoasting,0
;   extruderCoastingDistance,0
;   extruderUseWipe,0
;   extruderWipeDistance,5
;   primaryExtruder,0
;   layerHeight,0.2
;   topSolidLayers,3
;   bottomSolidLayers,3
;   perimeterOutlines,3
;   printPerimetersInsideOut,1
;   startPointOption,2
;   startPointOriginX,0
;   startPointOriginY,0
;   sequentialIslands,0
;   spiralVaseMode,0
;   firstLayerHeightPercentage,125
;   firstLayerWidthPercentage,100
;   firstLayerUnderspeed,0.5
;   useRaft,0
;   raftExtruder,0
;   raftTopLayers,1
;   raftBaseLayers,1
;   raftOffset,5
;   raftSeparationDistance,0.2
;   raftTopInfill,60
;   aboveRaftSpeedMultiplier,0.3
;   useSkirt,1
;   skirtExtruder,0
;   skirtLayers,1
;   skirtOutlines,2
;   skirtOffset,2
;   usePrimePillar,0
;   primePillarExtruder,999
;   primePillarWidth,12
;   primePillarLocation,7
;   primePillarSpeedMultiplier,1
;   useOozeShield,0
;   oozeShieldExtruder,999
;   oozeShieldOffset,2
;   oozeShieldOutlines,1
;   oozeShieldSidewallShape,1
;   oozeShieldSidewallAngle,30
;   oozeShieldSpeedMultiplier,1
;   infillExtruder,0
;   internalInfillPattern,Rectilinear
;   externalInfillPattern,Rectilinear
;   infillPercentage,40
;   outlineOverlapPercentage,15
;   infillExtrusionWidthPercentage,100
;   minInfillLength,5
;   infillLayerInterval,1
;   internalInfillAngles,45,-45
;   overlapInternalInfillAngles,0
;   externalInfillAngles,45,-45
;   generateSupport,0
;   supportExtruder,0
;   supportInfillPercentage,8
;   supportExtraInflation,2
;   supportBaseLayers,0
;   denseSupportExtruder,0
;   denseSupportLayers,1
;   denseSupportInfillPercentage,60
;   supportLayerInterval,1
;   supportHorizontalPartOffset,0.8
;   supportUpperSeparationLayers,1
;   supportLowerSeparationLayers,1
;   supportType,0
;   supportGridSpacing,1
;   maxOverhangAngle,50
;   supportAngles,45,-45
;   temperatureName,Primary Extruder,Bed
;   temperatureNumber,0,1
;   temperatureSetpointCount,1,2
;   temperatureSetpointLayers,1,1,5
;   temperatureSetpointTemperatures,234,110,105
;   temperatureStabilizeAtStartup,1,1
;   temperatureHeatedBed,0,1
;   fanLayers,1,3
;   fanSpeeds,0,80
;   blipFanToFullPower,1
;   adjustSpeedForCooling,1
;   minSpeedLayerTime,10
;   minCoolingSpeedSlowdown,40
;   increaseFanForCooling,1
;   minFanLayerTime,15
;   maxCoolingFanSpeed,100
;   increaseFanForBridging,1
;   bridgingFanSpeed,100
;   use5D,1
;   relativeEdistances,0
;   allowEaxisZeroing,1
;   independentExtruderAxes,0
;   includeM10123,0
;   stickySupport,1
;   applyToolheadOffsets,0
;   gcodeXoffset,0
;   gcodeYoffset,0
;   gcodeZoffset,21.1
;   overrideMachineDefinition,0
;   machineTypeOverride,0
;   strokeXoverride,200
;   strokeYoverride,200
;   strokeZoverride,200
;   originOffsetXoverride,0
;   originOffsetYoverride,0
;   originOffsetZoverride,0
;   homeXdirOverride,-1
;   homeYdirOverride,-1
;   homeZdirOverride,-1
;   flipXoverride,1
;   flipYoverride,-1
;   flipZoverride,1
;   toolheadOffsets,0,0|0,0|0,0|0,0|0,0|0,0
;   overrideFirmwareConfiguration,0
;   firmwareTypeOverride,RepRap (Marlin/Repetier/Sprinter)
;   GPXconfigOverride,r2
;   baudRateOverride,115200
;   overridePrinterModels,0
;   printerModelsOverride
;   startingGcode,M355 ; Light,G28 ; home all axes
;   layerChangeGcode,
;   retractionGcode,
;   toolChangeGcode,
;   endingGcode,M104 S0 ; turn off extruder,M140 S0 ; turn off bed,G92 E0,G1 E-5 ; Retract,G28,M356,M106 S0,M84 ; disable motors
;   exportFileFormat,gcode
;   celebration,0
;   celebrationSong,Random Song
;   postProcessing,
;   defaultSpeed,5200
;   outlineUnderspeed,0.5
;   solidInfillUnderspeed,0.8
;   supportUnderspeed,0.8
;   rapidXYspeed,5800
;   rapidZspeed,1000
;   minBridgingArea,50
;   bridgingExtraInflation,0.2
;   bridgingExtrusionMultiplier,1.1
;   bridgingSpeedMultiplier,0.4
;   useFixedBridgingAngle,0
;   fixedBridgingAngle,0
;   applyBridgingToPerimeters,0
;   filamentDiameters,1.75|1.75|1.75|1.75|1.75|1.75
;   filamentPricesPerKg,250|250|250|250|250|250
;   filamentDensities,1.25|1.25|1.25|1.25|1.25|1.25
;   useMinPrintHeight,0
;   minPrintHeight,5.3
;   useMaxPrintHeight,0
;   maxPrintHeight,8
;   useDiaphragm,0
;   diaphragmLayerInterval,20
;   robustSlicing,1
;   mergeAllIntoSolid,0
;   onlyRetractWhenCrossingOutline,1
;   retractBetweenLayers,1
;   useRetractionMinTravel,1
;   retractionMinTravel,3
;   retractWhileWiping,0
;   onlyWipeOutlines,1
;   avoidCrossingOutline,1
;   maxMovementDetourFactor,3
;   toolChangeRetractionDistance,12
;   toolChangeExtraRestartDistance,-0.5
;   toolChangeRetractionSpeed,600
;   externalThinWallType,1
;   internalThinWallType,2
;   thinWallAllowedOverlapPercentage,25
;   singleExtrusionMinLength,1
;   singleExtrusionMinPrintingWidthPercentage,50
;   singleExtrusionMaxPrintingWidthPercentage,200
;   singleExtrusionEndpointExtension,0.2
;   horizontalSizeCompensation,0
G90
M82
M106 S0
M140 S110
M190 S110
M104 S234 T0
M109 S234 T0
M355 ; Light
G28 ; home all axes
; process Process1
; layer 1, Z = 21.350
T0
G92 E0.0000
G1 E-3.6000 F1800
; feature skirt
; tool H0.250 W0.480
G1 Z21.350 F1000
G1 X49.912 Y84.119 F5800
G1 E0.0000 F1800
G92 E0.0000
G1 X50.362 Y83.843 E0.0263 F2600
G1 X50.552 Y83.746 E0.0370
G1 X51.040 Y83.544 E0.0633
G1 X51.243 Y83.478 E0.0740
G1 X51.756 Y83.355 E0.1003
G1 X51.967 Y83.321 E0.1110
G1 X52.440 Y83.284 E0.1346
G1 X52.547 Y83.280 E0.1399
G1 X56.141 Y83.280 E0.3193
G1 X57.141 Y83.694 E0.3732
G1 X59.227 Y85.780 E0.5204
G1 X61.973 Y85.780 E0.6575
G1 X64.059 Y83.694 E0.8046
G1 X65.059 Y83.280 E0.8586
G1 X134.941 Y83.280 E4.3450
G1 X135.941 Y83.694 E4.3990
G1 X138.027 Y85.780 E4.5462
G1 X140.773 Y85.780 E4.6832
G1 X142.859 Y83.694 E4.8304
G1 X143.859 Y83.280 E4.8844
G1 X147.453 Y83.280 E5.0637
G1 X147.560 Y83.284 E5.0690
G1 X148.033 Y83.321 E5.0927
G1 X148.244 Y83.355 E5.1034
G1 X148.757 Y83.478 E5.1297
G1 X148.960 Y83.544 E5.1403
G1 X149.448 Y83.746 E5.1667
G1 X149.638 Y83.843 E5.1773
G1 X150.088 Y84.119 E5.2037
G1 X150.261 Y84.244 E5.2143
G1 X150.662 Y84.587 E5.2406
G1 X150.813 Y84.738 E5.2513
G1 X151.156 Y85.139 E5.2776
G1 X151.281 Y85.312 E5.2883
G1 X151.557 Y85.762 E5.3146
G1 X151.654 Y85.952 E5.3253
G1 X151.856 Y86.440 E5.3516
G1 X151.922 Y86.643 E5.3622
G1 X152.045 Y87.156 E5.3886
G1 X152.079 Y87.367 E5.3992
G1 X152.116 Y87.840 E5.4229
G1 X152.120 Y87.947 E5.4282
G1 X152.120 Y109.317 E6.4944
G1 X152.150 Y109.340 E6.4963
G1 X152.258 Y109.430 E6.5033
G1 X152.814 Y109.944 E6.5411
G1 X152.912 Y110.045 E6.5481
G1 X153.412 Y110.614 E6.5859
G1 X153.499 Y110.724 E6.5929
G1 X153.938 Y111.342 E6.6307
G1 X154.013 Y111.460 E6.6377
G1 X154.387 Y112.119 E6.6755
G1 X154.449 Y112.245 E6.6825
G1 X154.753 Y112.939 E6.7203
G1 X154.802 Y113.070 E6.7273
G1 X155.033 Y113.792 E6.7651
G1 X155.068 Y113.928 E6.7721
G1 X155.224 Y114.669 E6.8099
G1 X155.245 Y114.808 E6.8169
G1 X155.323 Y115.562 E6.8547
G1 X155.330 Y115.702 E6.8617
G1 X155.330 Y116.460 E6.8995
G1 X155.323 Y116.599 E6.9065
G1 X155.245 Y117.353 E6.9443
G1 X155.224 Y117.492 E6.9513
G1 X155.068 Y118.234 E6.9891
G1 X155.033 Y118.369 E6.9961
G1 X154.802 Y119.091 E7.0339
G1 X154.753 Y119.222 E7.0409
G1 X154.449 Y119.917 E7.0787
G1 X154.387 Y120.042 E7.0857
G1 X154.013 Y120.702 E7.1235
G1 X153.938 Y120.820 E7.1305
G1 X153.499 Y121.437 E7.1683
G1 X153.412 Y121.547 E7.1753
G1 X152.912 Y122.117 E7.2131
G1 X152.814 Y122.217 E7.2201
G1 X152.258 Y122.732 E7.2579
G1 X152.150 Y122.821 E7.2649
G1 X151.544 Y123.276 E7.3027
G1 X151.428 Y123.355 E7.3097
G1 X150.778 Y123.745 E7.3475
G1 X150.654 Y123.811 E7.3545
G1 X149.968 Y124.132 E7.3923
G1 X149.838 Y124.185 E7.3993
G1 X149.123 Y124.434 E7.4371
G1 X148.988 Y124.473 E7.4441
G1 X148.250 Y124.647 E7.4819
G1 X148.113 Y124.672 E7.4889
G1 X147.361 Y124.769 E7.5267
G1 X147.221 Y124.780 E7.5337
G1 X146.464 Y124.800 E7.5715
G1 X146.324 Y124.796 E7.5785
G1 X145.568 Y124.737 E7.6163
G1 X145.429 Y124.719 E7.6233
G1 X144.683 Y124.584 E7.6611
G1 X144.547 Y124.551 E7.6681
G1 X143.819 Y124.340 E7.7059
G1 X143.687 Y124.294 E7.7129
G1 X142.985 Y124.008 E7.7507
G1 X142.858 Y123.949 E7.7577
G1 X142.189 Y123.592 E7.7955
G1 X142.069 Y123.520 E7.8025
G1 X141.440 Y123.097 E7.8403
G1 X141.328 Y123.013 E7.8473
G1 X140.746 Y122.528 E7.8851
G1 X140.644 Y122.433 E7.8921
G1 X140.115 Y121.890 E7.9299
G1 X140.022 Y121.785 E7.9369
G1 X139.552 Y121.190 E7.9747
G1 X139.471 Y121.076 E7.9817
G1 X139.064 Y120.437 E8.0195
G1 X138.995 Y120.315 E8.0265
G1 X138.656 Y119.637 E8.0643
G1 X138.600 Y119.508 E8.0713
G1 X138.332 Y118.799 E8.1091
G1 X138.290 Y118.666 E8.1161
G1 X138.097 Y117.933 E8.1539
G1 X138.068 Y117.796 E8.1609
G1 X137.952 Y117.047 E8.1987
G1 X137.937 Y116.908 E8.2057
G1 X137.898 Y116.151 E8.2435
G1 X137.898 Y116.011 E8.2505
G1 X137.937 Y115.254 E8.2883
G1 X137.952 Y115.114 E8.2953
G1 X138.068 Y114.365 E8.3331
G1 X138.097 Y114.228 E8.3401
G1 X138.290 Y113.495 E8.3779
G1 X138.332 Y113.362 E8.3849
G1 X138.600 Y112.653 E8.4227
G1 X138.656 Y112.524 E8.4297
G1 X138.995 Y111.847 E8.4675
G1 X139.064 Y111.725 E8.4745
G1 X139.471 Y111.085 E8.5123
G1 X139.552 Y110.971 E8.5193
G1 X140.022 Y110.377 E8.5571
G1 X140.115 Y110.271 E8.5641
G1 X140.643 Y109.729 E8.6019
G1 X140.746 Y109.634 E8.6089
G1 X141.328 Y109.148 E8.6467
G1 X141.440 Y109.064 E8.6537
G1 X142.069 Y108.641 E8.6915
G1 X142.189 Y108.569 E8.6985
G1 X142.680 Y108.307 E8.7262
G1 X142.680 Y106.720 E8.8054
G1 X125.640 Y106.720 E9.6556
G1 X125.321 Y106.682 E9.6716
G1 X124.670 Y106.526 E9.7050
G1 X124.097 Y106.234 E9.7371
G1 X123.424 Y105.659 E9.7812
G1 X123.006 Y105.033 E9.8188
G1 X122.746 Y104.235 E9.8607
G1 X122.679 Y103.808 E9.8822
G1 X122.701 Y96.340 E10.2548
G1 X122.967 Y95.525 E10.2976
G1 X123.618 Y94.629 E10.3528
G1 X124.315 Y94.123 E10.3958
G1 X125.163 Y93.847 E10.4403
G1 X125.586 Y93.780 E10.4617
G1 X127.680 Y93.780 E10.5661
G1 X127.680 Y92.720 E10.6190
G1 X72.320 Y92.720 E13.3810
G1 X72.320 Y93.780 E13.4338
G1 X74.414 Y93.780 E13.5383
G1 X74.837 Y93.847 E13.5597
G1 X75.685 Y94.123 E13.6042
G1 X76.382 Y94.629 E13.6472
G1 X77.033 Y95.524 E13.7024
G1 X77.299 Y96.340 E13.7452
G1 X77.321 Y103.808 E14.1178
G1 X77.254 Y104.235 E14.1393
G1 X76.994 Y105.033 E14.1812
G1 X76.576 Y105.659 E14.2187
G1 X75.903 Y106.234 E14.2629
G1 X75.330 Y106.526 E14.2950
G1 X74.679 Y106.682 E14.3284
G1 X74.360 Y106.720 E14.3444
G1 X57.320 Y106.720 E15.1946
G1 X57.320 Y109.665 E15.3415
G1 X57.681 Y110.173 E15.3726
G1 X57.756 Y110.291 E15.3796
G1 X58.129 Y110.951 E15.4174
G1 X58.192 Y111.076 E15.4244
G1 X58.496 Y111.771 E15.4622
G1 X58.545 Y111.902 E15.4692
G1 X58.775 Y112.624 E15.5070
G1 X58.811 Y112.759 E15.5140
G1 X58.966 Y113.501 E15.5518
G1 X58.988 Y113.640 E15.5588
G1 X59.066 Y114.393 E15.5966
G1 X59.073 Y114.533 E15.6036
G1 X59.073 Y115.291 E15.6414
G1 X59.066 Y115.431 E15.6484
G1 X58.988 Y116.185 E15.6862
G1 X58.966 Y116.323 E15.6932
G1 X58.811 Y117.065 E15.7310
G1 X58.775 Y117.201 E15.7380
G1 X58.545 Y117.923 E15.7758
G1 X58.496 Y118.054 E15.7828
G1 X58.192 Y118.748 E15.8206
G1 X58.129 Y118.874 E15.8276
G1 X57.756 Y119.533 E15.8654
G1 X57.681 Y119.651 E15.8724
G1 X57.242 Y120.269 E15.9102
G1 X57.155 Y120.379 E15.9172
G1 X56.655 Y120.948 E15.9550
G1 X56.557 Y121.049 E15.9620
G1 X56.001 Y121.563 E15.9998
G1 X55.893 Y121.653 E16.0068
G1 X55.287 Y122.108 E16.0446
G1 X55.171 Y122.186 E16.0516
G1 X54.521 Y122.576 E16.0894
G1 X54.397 Y122.642 E16.0964
G1 X53.711 Y122.963 E16.1342
G1 X53.581 Y123.016 E16.1412
G1 X52.865 Y123.265 E16.1790
G1 X52.731 Y123.304 E16.1860
G1 X51.993 Y123.478 E16.2238
G1 X51.855 Y123.504 E16.2308
G1 X51.104 Y123.601 E16.2686
G1 X50.964 Y123.612 E16.2756
G1 X50.206 Y123.631 E16.3134
G1 X50.066 Y123.628 E16.3204
G1 X49.311 Y123.569 E16.3582
G1 X49.172 Y123.551 E16.3652
G1 X48.426 Y123.415 E16.4030
G1 X48.290 Y123.383 E16.4100
G1 X47.562 Y123.171 E16.4478
G1 X47.430 Y123.125 E16.4548
G1 X46.728 Y122.840 E16.4926
G1 X46.601 Y122.780 E16.4996
G1 X45.932 Y122.424 E16.5374
G1 X45.812 Y122.352 E16.5444
G1 X45.183 Y121.929 E16.5822
G1 X45.071 Y121.845 E16.5892
G1 X44.489 Y121.359 E16.6270
G1 X44.386 Y121.264 E16.6340
G1 X43.857 Y120.721 E16.6718
G1 X43.765 Y120.616 E16.6788
G1 X43.294 Y120.022 E16.7166
G1 X43.213 Y119.908 E16.7236
G1 X42.806 Y119.268 E16.7614
G1 X42.737 Y119.146 E16.7684
G1 X42.399 Y118.468 E16.8062
G1 X42.342 Y118.340 E16.8132
G1 X42.075 Y117.631 E16.8510
G1 X42.033 Y117.497 E16.8580
G1 X41.840 Y116.765 E16.8958
G1 X41.811 Y116.627 E16.9028
G1 X41.694 Y115.879 E16.9406
G1 X41.680 Y115.739 E16.9476
G1 X41.641 Y114.982 E16.9854
G1 X41.641 Y114.842 E16.9924
G1 X41.680 Y114.085 E17.0302
G1 X41.694 Y113.946 E17.0372
G1 X41.811 Y113.197 E17.0750
G1 X41.840 Y113.060 E17.0820
G1 X42.033 Y112.327 E17.1198
G1 X42.075 Y112.194 E17.1268
G1 X42.342 Y111.485 E17.1646
G1 X42.399 Y111.356 E17.1716
G1 X42.737 Y110.678 E17.2094
G1 X42.806 Y110.556 E17.2164
G1 X43.213 Y109.917 E17.2542
G1 X43.294 Y109.803 E17.2612
G1 X43.765 Y109.208 E17.2990
G1 X43.857 Y109.103 E17.3060
G1 X44.386 Y108.560 E17.3438
G1 X44.489 Y108.465 E17.3508
G1 X45.071 Y107.980 E17.3886
G1 X45.183 Y107.896 E17.3956
G1 X45.812 Y107.473 E17.4334
G1 X45.932 Y107.400 E17.4404
G1 X46.601 Y107.044 E17.4782
G1 X46.728 Y106.985 E17.4852
G1 X47.430 Y106.699 E17.5230
G1 X47.562 Y106.653 E17.5300
G1 X47.880 Y106.561 E17.5465
G1 X47.880 Y87.947 E18.4752
G1 X47.884 Y87.840 E18.4805
G1 X47.921 Y87.372 E18.5039
G1 X47.954 Y87.164 E18.5144
G1 X48.077 Y86.647 E18.5409
G1 X48.144 Y86.441 E18.5517
G1 X48.346 Y85.952 E18.5781
G1 X48.443 Y85.762 E18.5888
G1 X48.719 Y85.312 E18.6151
G1 X48.844 Y85.139 E18.6258
G1 X49.187 Y84.738 E18.6521
G1 X49.338 Y84.587 E18.6628
G1 X49.739 Y84.244 E18.6891
G1 X49.912 Y84.119 E18.6997
G1 X50.179 Y84.518 F5800
G92 E0.0000
G1 X50.597 Y84.262 E0.0244 F2600
G1 X50.753 Y84.182 E0.0332
G1 X51.206 Y83.995 E0.0577
G1 X51.373 Y83.940 E0.0664
G1 X51.850 Y83.826 E0.0909
G1 X52.024 Y83.798 E0.0997
G1 X52.468 Y83.763 E0.1219
G1 X52.556 Y83.760 E0.1263
G1 X56.046 Y83.760 E0.3004
G1 X56.869 Y84.101 E0.3448
G1 X59.028 Y86.260 E0.4972
G1 X62.172 Y86.260 E0.6540
G1 X64.331 Y84.101 E0.8064
G1 X65.154 Y83.760 E0.8508
G1 X134.846 Y83.760 E4.3277
G1 X135.669 Y84.101 E4.3722
G1 X137.828 Y86.260 E4.5245
G1 X140.972 Y86.260 E4.6814
G1 X143.131 Y84.101 E4.8337
G1 X143.954 Y83.760 E4.8782
G1 X147.444 Y83.760 E5.0523
G1 X147.532 Y83.763 E5.0567
G1 X147.976 Y83.798 E5.0789
G1 X148.150 Y83.826 E5.0877
G1 X148.627 Y83.940 E5.1121
G1 X148.794 Y83.995 E5.1209
G1 X149.247 Y84.182 E5.1453
G1 X149.403 Y84.262 E5.1541
G1 X149.821 Y84.518 E5.1786
G1 X149.963 Y84.621 E5.1873
G1 X150.336 Y84.940 E5.2118
G1 X150.460 Y85.064 E5.2206
G1 X150.779 Y85.437 E5.2450
G1 X150.882 Y85.579 E5.2538
G1 X151.138 Y85.997 E5.2782
G1 X151.218 Y86.153 E5.2870
G1 X151.405 Y86.606 E5.3114
G1 X151.460 Y86.773 E5.3202
G1 X151.574 Y87.250 E5.3447
G1 X151.602 Y87.424 E5.3535
G1 X151.637 Y87.868 E5.3757
G1 X151.640 Y87.956 E5.3801
G1 X151.640 Y109.557 E6.4578
G1 X151.852 Y109.716 E6.4710
G1 X151.941 Y109.790 E6.4768
G1 X152.479 Y110.288 E6.5133
G1 X152.559 Y110.371 E6.5191
G1 X153.043 Y110.922 E6.5557
G1 X153.115 Y111.012 E6.5614
G1 X153.540 Y111.610 E6.5980
G1 X153.602 Y111.707 E6.6038
G1 X153.963 Y112.345 E6.6403
G1 X154.015 Y112.448 E6.6461
G1 X154.308 Y113.120 E6.6827
G1 X154.349 Y113.228 E6.6884
G1 X154.572 Y113.926 E6.7250
G1 X154.601 Y114.038 E6.7308
G1 X154.751 Y114.756 E6.7673
G1 X154.769 Y114.870 E6.7731
G1 X154.844 Y115.599 E6.8097
G1 X154.850 Y115.714 E6.8154
G1 X154.850 Y116.447 E6.8520
G1 X154.844 Y116.562 E6.8578
G1 X154.769 Y117.292 E6.8943
